( Made using CamBam - http://www.cambam.co.uk )
( midi_cv_panel 1/9/2015 7:39:49 AM )
( T3 : 3.175 )
( T10 : 0.0 )
G21 G90 G61 G40
G0 Z3.0
( T10 : 0.0 )
T10 M6
( Engrave1 )
G17
M3 S1000
G0 X28.6185 Y125.2963
G0 Z0.408
G1 F1000.0 Z-0.002
G1 F2000.0 X25.616
G1 Y114.255
G1 X28.6185
G1 Y125.2963
G0 Z3.0
G0 X24.4397 Y124.2463
G0 Z0.408
G1 F1000.0 Z-0.002
G3 F2000.0 X23.386 Y125.2987 I-1.0529 J-0.0005
G1 X21.4323 Y125.2963
G1 X12.3998
G1 Y114.2537
G1 X15.401
G1 Y122.6437
G1 X16.916
G1 Y114.2537
G1 X19.9197
G1 Y122.6437
G1 X21.4323
G1 Y114.2537
G1 X24.4373
G1 X24.4397 Y124.2463
G0 Z3.0
G0 X32.7997 Y116.905
G0 Z0.408
G1 F1000.0 Z-0.002
G1 F2000.0 X36.766
G1 Y122.6437
G1 X29.7972
G1 Y125.2963
G1 X38.721 Y125.2987
G2 X39.771 Y124.2463 I-0.0022 J-1.0523
G1 X39.7685 Y115.3038
G2 X38.716 Y114.2537 I-1.049 J-0.001
G1 X29.7972
G1 Y121.1275
G1 X32.7997
G1 Y116.905
G0 Z3.0
G0 X40.9485
G0 Z0.408
G1 F1000.0 Z-0.002
G1 F2000.0 Y114.255
G1 X43.9523
G1 Y125.2963
G1 X40.9485
G1 Y116.905
G0 Z3.0
G0 X44.9821 Y106.8031
G0 Z0.408
G1 F1000.0 Z-0.002
G3 F2000.0 X44.4674 Y106.723 I0.0047 J-1.7228
G3 X43.9991 Y106.4783 I0.3601 J-1.2595
G3 X43.6616 Y106.0522 I0.7755 J-0.961
G3 X43.5309 Y105.4363 I1.2081 J-0.5784
G3 X43.6616 Y104.8119 I1.4209 J-0.0283
G3 X43.9991 Y104.3731 I1.1405 J0.5281
G3 X44.4674 Y104.1116 I0.9267 J1.1091
G3 X44.9821 Y104.023 I0.5205 J1.4846
G1 X47.0198
G1 X44.9821
G2 X44.4674 Y104.1116 I0.0058 J1.5732
G2 X43.9991 Y104.3731 I0.4584 J1.3707
G2 X43.6616 Y104.8119 I0.8029 J0.9668
G2 X43.5309 Y105.4363 I1.2901 J0.5961
G2 X43.6616 Y106.0522 I1.3389 J0.0376
G2 X43.9991 Y106.4783 I1.113 J-0.5349
G2 X44.4674 Y106.723 I0.8284 J-1.0149
G2 X44.9821 Y106.8031 I0.5195 J-1.6431
G1 X47.0198
G1 X44.9821
G0 Z3.0
G0 X41.7337 Y104.023
G0 Z0.408
G1 F1000.0 Z-0.002
G1 F2000.0 X47.024
G1 X41.7337
G0 Z3.0
G0 X43.6152 Y102.6899
G0 Z0.408
G1 F1000.0 Z-0.002
G1 F2000.0 Y102.3102
G3 X43.7418 Y101.7027 I1.5279 J0.0014
G3 X44.092 Y101.1753 I1.6648 J0.7255
G3 X44.632 Y100.7999 I1.2435 J1.2124
G3 X45.328 Y100.6606 I0.6764 J1.5722
G3 X46.0241 Y100.7956 I0.0202 J1.7578
G3 X46.5599 Y101.1711 I-0.6315 J1.4712
G3 X46.9016 Y101.7322 I-1.2957 J1.1737
G3 X47.0198 Y102.4156 I-1.8439 J0.6706
G1 Y102.6899
G1 Y102.4156
G2 X46.9016 Y101.7322 I-1.9621 J-0.0128
G2 X46.5599 Y101.1711 I-1.6374 J0.6126
G2 X46.0241 Y100.7956 I-1.1673 J1.0957
G2 X45.328 Y100.6606 I-0.6759 J1.6229
G2 X44.632 Y100.7999 I-0.0197 J1.7114
G2 X44.092 Y101.1753 I0.7035 J1.5878
G2 X43.7418 Y101.7027 I1.3149 J1.253
G2 X43.6152 Y102.3102 I1.4014 J0.6089
G1 Y102.6899
G0 Z3.0
G0 Y99.3908
G0 Z0.408
G1 F1000.0 Z-0.002
G1 F2000.0 Y97.9016
G1 Y99.3908
G0 Z3.0
G0 X47.0198 Y98.8002
G0 Z0.408
G1 F1000.0 Z-0.002
G2 F2000.0 X46.9752 Y98.4526 I-1.2655 J-0.0144
G2 X46.813 Y98.142 I-0.7986 J0.2193
G2 X46.4841 Y97.9468 I-0.4837 J0.4402
G2 X46.1043 Y97.9016 I-0.3579 J1.389
G1 X42.5943
G1 X46.1043
G3 X46.4841 Y97.9468 I0.0219 J1.4339
G3 X46.813 Y98.142 I-0.1548 J0.6355
G3 X46.9752 Y98.4526 I-0.6364 J0.5299
G3 X47.0198 Y98.8002 I-1.221 J0.3332
G1 Y99.3908
G1 Y98.8002
G0 Z3.0
G0 Y95.8133
G0 Z0.408
G1 F1000.0 Z-0.002
G1 F2000.0 X43.6363
G1 X47.0198
G0 Z3.0
G0 X45.5179 Y90.5356
G0 Z0.408
G1 F1000.0 Z-0.002
G2 F2000.0 X44.6699 Y90.658 I-0.0405 J2.7193
G2 X44.0498 Y91.0081 I0.5446 J1.6887
G2 X43.6616 Y91.5481 I0.987 J1.1189
G2 X43.5266 Y92.2442 I1.6229 J0.6759
G2 X43.649 Y92.9361 I1.926 J0.0162
G2 X44.0076 Y93.493 I1.4683 J-0.5516
G2 X44.5898 Y93.8685 I1.2047 J-1.2289
G2 X45.3787 Y94.0077 I0.754 J-1.9679
G2 X46.1001 Y93.8727 I0.0242 J-1.8659
G2 X46.6485 Y93.5099 I-0.6122 J-1.5214
G2 X46.9987 Y92.9741 I-1.183 J-1.1554
G2 X47.121 Y92.3328 I-1.5991 J-0.6374
G2 X46.9945 Y91.5945 I-2.0098 J-0.0355
G3 X47.121 Y92.3328 I-1.8834 J0.7029
G3 X46.9987 Y92.9741 I-1.7213 J0.0039
G3 X46.6485 Y93.5099 I-1.533 J-0.6196
G3 X46.1001 Y93.8727 I-1.1607 J-1.1587
G3 X45.3787 Y94.0077 I-0.6973 J-1.731
G3 X44.5898 Y93.8685 I-0.0349 J-2.1072
G3 X44.0076 Y93.493 I0.6226 J-1.6044
G3 X43.649 Y92.9361 I1.1097 J-1.1085
G3 X43.5266 Y92.2442 I1.8036 J-0.6757
G3 X43.6616 Y91.5481 I1.7578 J-0.0202
G3 X44.0498 Y91.0081 I1.3752 J0.5789
G3 X44.6699 Y90.658 I1.1647 J1.3385
G3 X45.5179 Y90.5356 I0.8075 J2.5968
G1 X48.9182
G1 X45.5179
G0 Z3.0
G0 X42.3733 Y95.7504
G0 Z0.408
G1 F1000.0 Z-0.002
G3 F2000.0 X42.3791 Y95.7542 I-0.0471 J0.078
G3 X42.4045 Y95.8133 I-0.0413 J0.0526
G3 X42.3791 Y95.8724 I-0.0666 J0.0064
G3 X42.3285 Y95.8935 I-0.0542 J-0.0589
G3 X42.2484 Y95.8133 I-0.01 J-0.0701
G3 X42.3285 Y95.7374 I0.0687 J-0.0078
G3 X42.3733 Y95.7504 I-0.0022 J0.0911
G3 X42.3791 Y95.7542 I-0.0471 J0.078
G3 X42.4045 Y95.8133 I-0.0413 J0.0526
G3 X42.3791 Y95.8724 I-0.0666 J0.0064
G3 X42.3285 Y95.8935 I-0.0542 J-0.0589
G3 X42.2484 Y95.8133 I-0.01 J-0.0701
G3 X42.3285 Y95.7374 I0.0687 J-0.0078
G3 X42.3733 Y95.7504 I-0.0022 J0.0911
G2 X42.3285 Y95.7374 I-0.0471 J0.0781
G2 X42.2484 Y95.8133 I-0.0115 J0.0681
G2 X42.3285 Y95.8935 I0.0701 J0.01
G2 X42.3791 Y95.8724 I-0.0036 J-0.08
G2 X42.4045 Y95.8133 I-0.0413 J-0.0526
G2 X42.3791 Y95.7542 I-0.0666 J-0.0064
G2 X42.3733 Y95.7504 I-0.0529 J0.0743
G2 X42.3285 Y95.7374 I-0.0471 J0.0781
G2 X42.2484 Y95.8133 I-0.0115 J0.0681
G2 X42.3285 Y95.8935 I0.0701 J0.01
G2 X42.3791 Y95.8724 I-0.0036 J-0.08
G2 X42.4045 Y95.8133 I-0.0413 J-0.0526
G2 X42.3791 Y95.7542 I-0.0666 J-0.0064
G2 X42.3733 Y95.7504 I-0.0529 J0.0743
G0 Z3.0
G0 X34.0928 Y95.9461
G0 Z0.408
G1 F1000.0 Z-0.002
G3 F2000.0 X34.0932 Y96.0093 I-1.9251 J0.0455
G3 X34.0209 Y96.5655 I-2.0517 J0.0158
G3 X33.781 Y97.0724 I-1.5864 J-0.4402
G3 X33.371 Y97.4664 I-1.2363 J-0.8765
G3 X32.8529 Y97.701 I-1.0552 J-1.6406
G2 X33.371 Y97.4664 I-0.5374 J-1.8757
G2 X33.781 Y97.0724 I-0.8261 J-1.2703
G2 X34.0932 Y96.0093 I-1.4897 J-1.0149
G2 X33.9667 Y95.3048 I-1.9258 J-0.0177
G2 X33.5996 Y94.7479 I-1.5039 J0.5918
G2 X33.0301 Y94.3809 I-1.236 J1.2925
G2 X32.296 Y94.2459 I-0.7115 J1.8056
G2 X31.5704 Y94.3809 I-0.0224 J1.8971
G2 X31.0009 Y94.7479 I0.6337 J1.6087
G2 X30.6296 Y95.3048 I1.1052 J1.139
G2 X30.4989 Y96.0093 I1.7396 J0.6873
G2 X30.7351 Y96.929 I1.8071 J0.026
G2 X30.9953 Y97.263 I1.1946 J-0.6624
G2 X31.3553 Y97.4859 I0.753 J-0.8138
G1 X32.5154 Y95.3934
G1 X31.3553 Y97.4859
G3 X30.7351 Y96.929 I0.4424 J-1.1164
G3 X30.4989 Y96.0093 I1.5708 J-0.8937
G3 X30.6296 Y95.3048 I1.8706 J-0.0172
G3 X31.0009 Y94.7479 I1.4764 J0.5821
G3 X31.5704 Y94.3809 I1.2031 J1.2416
G3 X32.296 Y94.2459 I0.7032 J1.762
G3 X33.0301 Y94.3809 I0.0225 J1.9408
G3 X33.5996 Y94.7479 I-0.6665 J1.6597
G3 X33.9667 Y95.3048 I-1.137 J1.1487
G3 X34.0928 Y95.9461 I-1.799 J0.6868
G0 Z3.0
G0 X33.9962 Y99.3632
G0 Z0.408
G1 F1000.0 Z-0.002
G1 F2000.0 X28.7059
G1 X33.9962
G0 Z3.0
G0 X33.146 Y101.1514
G0 Z0.408
G1 F1000.0 Z-0.002
G2 F2000.0 X33.0301 Y101.1014 I-0.7434 J1.5635
G2 X32.296 Y100.9706 I-0.711 J1.8654
G2 X31.5704 Y101.1014 I-0.0229 J1.9512
G2 X31.0009 Y101.4642 I0.5971 J1.5658
G2 X30.6296 Y102.021 I1.1052 J1.139
G2 X30.4989 Y102.7256 I1.7396 J0.6873
G2 X30.6296 Y103.4301 I1.8706 J0.0172
G2 X31.0009 Y103.987 I1.4764 J-0.5821
G2 X31.5704 Y104.3498 I1.1666 J-1.2028
G2 X32.296 Y104.4806 I0.7027 J-1.8205
G2 X33.0301 Y104.3498 I0.023 J-1.9964
G2 X33.5996 Y103.987 I-0.6276 J-1.6137
G2 X33.9667 Y103.4301 I-1.137 J-1.1487
G2 X34.0932 Y102.7256 I-1.799 J-0.6868
G2 X33.9667 Y102.021 I-1.9258 J-0.0177
G2 X33.5996 Y101.4642 I-1.5039 J0.5918
G2 X33.146 Y101.1514 I-1.1971 J1.2507
G2 X33.0301 Y101.1014 I-0.7434 J1.5635
G2 X32.296 Y100.9706 I-0.711 J1.8654
G2 X31.5704 Y101.1014 I-0.0229 J1.9512
G2 X31.0009 Y101.4642 I0.5971 J1.5658
G2 X30.6296 Y102.021 I1.1052 J1.139
G2 X30.4989 Y102.7256 I1.7396 J0.6873
G2 X30.6296 Y103.4301 I1.8706 J0.0172
G2 X31.0009 Y103.987 I1.4764 J-0.5821
G2 X31.5704 Y104.3498 I1.1666 J-1.2028
G2 X32.296 Y104.4806 I0.7027 J-1.8205
G2 X33.0301 Y104.3498 I0.023 J-1.9964
G2 X33.5996 Y103.987 I-0.6276 J-1.6137
G2 X33.9667 Y103.4301 I-1.137 J-1.1487
G2 X34.0932 Y102.7256 I-1.799 J-0.6868
G2 X33.9667 Y102.021 I-1.9258 J-0.0177
G2 X33.5996 Y101.4642 I-1.5039 J0.5918
G2 X33.146 Y101.1514 I-1.1971 J1.2507
G3 X33.5996 Y101.4642 I-0.7435 J1.5637
G3 X33.9667 Y102.021 I-1.137 J1.1487
G3 X34.0932 Y102.7256 I-1.799 J0.6868
G3 X33.9667 Y103.4301 I-1.9258 J0.0177
G3 X33.5996 Y103.987 I-1.5039 J-0.5918
G3 X33.0301 Y104.3498 I-1.1971 J-1.2507
G3 X32.296 Y104.4806 I-0.711 J-1.8654
G3 X31.5704 Y104.3498 I-0.0229 J-1.9512
G3 X31.0009 Y103.987 I0.5971 J-1.5658
G3 X30.6296 Y103.4301 I1.1052 J-1.139
G3 X30.4989 Y102.7256 I1.7396 J-0.6873
G3 X30.6296 Y102.021 I1.8706 J-0.0172
G3 X31.0009 Y101.4642 I1.4764 J0.5821
G3 X31.5704 Y101.1014 I1.1666 J1.2028
G3 X32.296 Y100.9706 I0.7027 J1.8205
G3 X33.0301 Y101.1014 I0.023 J1.9964
G3 X33.146 Y101.1514 I-0.6276 J1.6137
G3 X33.5996 Y101.4642 I-0.7435 J1.5637
G3 X33.9667 Y102.021 I-1.137 J1.1487
G3 X34.0932 Y102.7256 I-1.799 J0.6868
G3 X33.9667 Y103.4301 I-1.9258 J0.0177
G3 X33.5996 Y103.987 I-1.5039 J-0.5918
G3 X33.0301 Y104.3498 I-1.1971 J-1.2507
G3 X32.296 Y104.4806 I-0.711 J-1.8654
G3 X31.5704 Y104.3498 I-0.0229 J-1.9512
G3 X31.0009 Y103.987 I0.5971 J-1.5658
G3 X30.6296 Y103.4301 I1.1052 J-1.139
G3 X30.4989 Y102.7256 I1.7396 J-0.6873
G3 X30.6296 Y102.021 I1.8706 J-0.0172
G3 X31.0009 Y101.4642 I1.4764 J0.5821
G3 X31.5704 Y101.1014 I1.1666 J1.2028
G3 X32.296 Y100.9706 I0.7027 J1.8205
G3 X33.0301 Y101.1014 I0.023 J1.9964
G3 X33.146 Y101.1514 I-0.6276 J1.6137
G0 Z3.0
G0 X33.992 Y107.6531
G0 Z0.408
G1 F1000.0 Z-0.002
G2 F2000.0 X33.8739 Y106.9696 I-1.9621 J-0.0128
G2 X33.5321 Y106.4085 I-1.6374 J0.6126
G2 X32.9964 Y106.0331 I-1.1673 J1.0957
G2 X32.3003 Y105.8981 I-0.6759 J1.6229
G2 X31.6042 Y106.0373 I-0.0197 J1.7114
G2 X31.0642 Y106.4128 I0.7035 J1.5878
G2 X30.714 Y106.9401 I1.3149 J1.253
G2 X30.5875 Y107.5476 I1.4014 J0.6089
G1 Y107.9273
G1 Y107.5476
G3 X30.714 Y106.9401 I1.5279 J0.0014
G3 X31.0642 Y106.4128 I1.6648 J0.7255
G3 X31.6042 Y106.0373 I1.2435 J1.2124
G3 X32.3003 Y105.8981 I0.6764 J1.5722
G3 X32.9964 Y106.0331 I0.0202 J1.7578
G3 X33.5321 Y106.4085 I-0.6315 J1.4712
G3 X33.8739 Y106.9696 I-1.2957 J1.1737
G3 X33.992 Y107.6531 I-1.8439 J0.6706
G1 Y107.9273
G1 Y107.6531
G0 Z3.0
G0 X30.6043 Y93.1574
G0 Z0.408
G1 F1000.0 Z-0.002
G1 F2000.0 X33.76 Y91.9846
G2 X33.9032 Y91.9234 I-0.4077 J-1.1522
G2 X34.03 Y91.8328 I-0.1955 J-0.4072
G2 X34.0975 Y91.6809 I-0.1787 J-0.1704
G2 X34.0257 Y91.5374 I-0.2226 J0.0216
G2 X33.76 Y91.3982 I-0.5085 J0.6475
G1 X30.6043 Y90.2128
G1 X33.76 Y91.3982
G3 X34.0257 Y91.5374 I-0.2428 J0.7868
G3 X34.0975 Y91.6809 I-0.1509 J0.1651
G3 X34.03 Y91.8328 I-0.2462 J-0.0185
G3 X33.9032 Y91.9234 I-0.3221 J-0.3164
G3 X33.76 Y91.9846 I-0.5507 J-1.0902
G1 X30.6043 Y93.1574
G0 Z3.0
G0 X18.3914 Y92.3035
G0 Z0.408
G1 F1000.0 Z-0.002
G2 F2000.0 X18.396 Y92.106 I-2.1215 J-0.1483
G2 X18.2779 Y91.2158 I-3.8074 J0.0523
G3 X18.396 Y92.106 I-3.6888 J0.9424
G3 X18.2525 Y92.9244 I-2.1263 J0.0491
G3 X17.8644 Y93.4855 I-1.3763 J-0.5372
G3 X17.2907 Y93.8061 I-1.0085 J-1.131
G3 X16.5904 Y93.9116 I-0.686 J-2.177
G1 X14.7004
G3 X14.0127 Y93.7808 I0.0381 J-2.0735
G3 X13.4474 Y93.4433 I0.5626 J-1.5846
G3 X13.0593 Y92.9202 I1.0396 J-1.1768
G3 X12.9158 Y92.2367 I1.4407 J-0.6591
G3 X13.0424 Y91.5449 I1.8686 J-0.0157
G3 X13.4094 Y90.9922 I1.4426 J0.5598
G3 X13.9958 Y90.6252 I1.1744 J1.2244
G3 X14.7847 Y90.4902 I0.7569 J2.0507
G3 X15.5061 Y90.6336 I0.0266 J1.7519
G3 X16.0504 Y91.0133 I-0.7125 J1.6011
G3 X16.3963 Y91.5744 I-1.2071 J1.1314
G3 X16.5144 Y92.262 I-1.879 J0.6767
G3 X16.4132 Y92.8485 I-1.726 J0.0039
G2 X16.5144 Y92.262 I-1.6246 J-0.5825
G2 X16.3963 Y91.5744 I-1.997 J-0.0109
G2 X16.0504 Y91.0133 I-1.553 J0.5703
G2 X15.5061 Y90.6336 I-1.2567 J1.2214
G2 X14.7847 Y90.4902 I-0.6947 J1.6083
G2 X13.9958 Y90.6252 I-0.0319 J2.1859
G2 X13.4094 Y90.9922 I0.5881 J1.5916
G2 X13.0424 Y91.5449 I1.0756 J1.1125
G2 X12.9158 Y92.2367 I1.7422 J0.6762
G2 X13.0593 Y92.9202 I1.5841 J0.0243
G2 X13.4474 Y93.4433 I1.4276 J-0.6536
G2 X14.0127 Y93.7808 I1.1279 J-1.2471
G2 X14.7004 Y93.9116 I0.7258 J-1.9429
G1 X16.5904
G2 X17.2907 Y93.8061 I0.0143 J-2.2825
G2 X17.8644 Y93.4855 I-0.4348 J-1.4517
G2 X18.2525 Y92.9244 I-0.9881 J-1.0983
G2 X18.3914 Y92.3035 I-1.9826 J-0.7693
G0 Z3.0
G0 X15.8633 Y95.6147
G0 Z0.408
G1 F1000.0 Z-0.002
G3 F2000.0 X16.0039 Y95.7341 I-1.0801 J1.4147
G3 X16.3794 Y96.291 I-1.1876 J1.2057
G3 X16.5144 Y96.9997 I-1.6954 J0.6902
G3 X16.3499 Y97.6452 I-1.2089 J0.0356
G2 X16.5144 Y96.9997 I-1.0443 J-0.6099
G2 X16.3794 Y96.291 I-1.8305 J-0.0186
G2 X16.0039 Y95.7341 I-1.563 J0.6488
G2 X15.4302 Y95.3713 I-1.2207 J1.2954
G2 X14.6961 Y95.2447 I-0.7106 J1.9294
G2 X13.9747 Y95.3713 I-0.0251 J1.9762
G2 X13.4094 Y95.7341 I0.6088 J1.5705
G2 X13.0339 Y96.291 I1.1876 J1.2057
G2 X12.8989 Y96.9997 I1.6954 J0.6902
G2 X13.0171 Y97.6916 I1.9453 J0.0239
G2 X13.3419 Y98.2358 I1.5699 J-0.568
G2 X13.8439 Y98.5902 I1.0147 J-0.9048
G2 X14.4894 Y98.7167 I0.6249 J-1.4779
G1 X16.4089
G1 X14.4894
G3 X13.8439 Y98.5902 I-0.0205 J-1.6044
G3 X13.3419 Y98.2358 I0.5128 J-1.2592
G3 X13.0171 Y97.6916 I1.245 J-1.1122
G3 X12.8989 Y96.9997 I1.8272 J-0.668
G3 X13.0339 Y96.291 I1.8305 J-0.0186
G3 X13.4094 Y95.7341 I1.563 J0.6488
G3 X13.9747 Y95.3713 I1.1741 J1.2076
G3 X14.6961 Y95.2447 I0.6963 J1.8497
G3 X15.4302 Y95.3713 I0.0235 J2.0557
G3 X15.8633 Y95.6147 I-0.6469 J1.6581
G0 Z3.0
G0 X15.5964 Y100.3346
G0 Z0.408
G1 F1000.0 Z-0.002
G3 F2000.0 X15.8733 Y100.3777 I-0.081 J1.4318
G3 X16.2022 Y100.573 I-0.1548 J0.6355
G3 X16.3644 Y100.8836 I-0.6364 J0.5299
G3 X16.4089 Y101.2311 I-1.221 J0.3332
G1 Y101.8217
G1 Y101.2311
G2 X16.3644 Y100.8836 I-1.2655 J-0.0144
G2 X16.2022 Y100.573 I-0.7986 J0.2193
G2 X15.8733 Y100.3777 I-0.4837 J0.4402
G2 X15.4935 Y100.3325 I-0.3579 J1.389
G1 X11.9835
G1 X15.4935
G3 X15.5964 Y100.3346 I0.0219 J1.4339
G0 Z3.0
G0 X13.0044 Y101.8217
G0 Z0.408
G1 F1000.0 Z-0.002
G1 F2000.0 Y100.3325
G1 Y101.8217
G0 Z3.0
G0 X13.7772 Y103.2038
G0 Z0.408
G1 F1000.0 Z-0.002
G3 F2000.0 X13.9874 Y103.1042 I0.8438 J1.509
G3 X14.713 Y102.9692 I0.7032 J1.762
G3 X15.4471 Y103.1042 I0.0225 J1.9408
G3 X16.0166 Y103.4713 I-0.6665 J1.6597
G3 X16.3836 Y104.0281 I-1.137 J1.1487
G3 X16.5102 Y104.7327 I-1.799 J0.6868
G3 X16.4378 Y105.2888 I-2.0517 J0.0158
G3 X16.198 Y105.7958 I-1.5864 J-0.4402
G3 X15.7879 Y106.1898 I-1.2363 J-0.8765
G3 X15.2699 Y106.4244 I-1.0552 J-1.6406
G2 X15.7879 Y106.1898 I-0.5374 J-1.8757
G2 X16.198 Y105.7958 I-0.8261 J-1.2703
G2 X16.5102 Y104.7327 I-1.4897 J-1.0149
G2 X16.3836 Y104.0281 I-1.9258 J-0.0177
G2 X16.0166 Y103.4713 I-1.5039 J0.5918
G2 X15.4471 Y103.1042 I-1.236 J1.2925
G2 X14.713 Y102.9692 I-0.7115 J1.8056
G2 X13.9874 Y103.1042 I-0.0224 J1.8971
G2 X13.4179 Y103.4713 I0.6337 J1.6087
G2 X13.0466 Y104.0281 I1.1052 J1.139
G2 X12.9158 Y104.7327 I1.7396 J0.6873
G2 X13.1521 Y105.6524 I1.8071 J0.026
G2 X13.4123 Y105.9863 I1.1946 J-0.6624
G2 X13.7722 Y106.2092 I0.753 J-0.8138
G1 X14.9324 Y104.1167
G1 X13.7722 Y106.2092
G3 X13.1521 Y105.6524 I0.4424 J-1.1164
G3 X12.9158 Y104.7327 I1.5708 J-0.8937
G3 X13.0466 Y104.0281 I1.8706 J-0.0172
G3 X13.4179 Y103.4713 I1.4764 J0.5821
G3 X13.7772 Y103.2038 I1.2031 J1.2416
G0 Z3.0
G0 X25.4078 Y10.4395
G0 Z0.408
G1 F1000.0 Z-0.002
G1 F2000.0 Y3.0919
G1 Y10.4395
G0 Z3.0
G0 X29.2691 Y5.9278
G0 Z0.408
G1 F1000.0 Z-0.002
G3 F2000.0 X29.1578 Y6.6426 I-2.3928 J-0.0066
G3 X28.818 Y7.293 I-1.7494 J-0.5001
G3 X28.2262 Y7.7618 I-1.3347 J-1.0771
G3 X27.3707 Y7.9434 I-0.8033 J-1.6779
G3 X26.5035 Y7.7618 I-0.0393 J-1.9734
G3 X25.8941 Y7.293 I0.7335 J-1.584
G3 X25.5309 Y6.6426 I1.5404 J-1.287
G3 X25.4078 Y5.9278 I2.0619 J-0.7229
G1 Y3.0977
G1 Y5.9278
G2 X25.5309 Y6.6426 I2.185 J-0.0081
G2 X25.8941 Y7.293 I1.9037 J-0.6367
G2 X26.5035 Y7.7618 I1.3428 J-1.1152
G2 X27.3707 Y7.9434 I0.8279 J-1.7918
G2 X28.2262 Y7.7618 I0.0522 J-1.8597
G2 X28.818 Y7.293 I-0.7429 J-1.5458
G2 X29.1578 Y6.6426 I-1.4095 J-1.1505
G2 X29.2691 Y5.9278 I-2.282 J-0.7215
G1 Y3.0977
G1 Y5.9278
G0 Z3.0
G0 X31.2848 Y5.8282
G0 Z0.408
G1 F1000.0 Z-0.002
G3 F2000.0 X31.15 Y5.5528 I2.1828 J-1.2388
G3 X31.109 Y5.3829 I0.4765 J-0.2049
G3 X31.2379 Y5.1133 I0.2962 J-0.0239
G3 X31.5016 Y5.0372 I0.2758 J0.4602
G1 X36.148
G1 X31.5016
G2 X31.2379 Y5.1133 I0.0121 J0.5364
G2 X31.109 Y5.3829 I0.1673 J0.2456
G2 X31.15 Y5.5528 I0.5176 J-0.035
G2 X31.2848 Y5.8282 I2.3246 J-0.9669
G1 X33.857 Y10.4395
G1 X31.2848 Y5.8282
G0 Z3.0
G0 X34.8414 Y9.1915
G0 Z0.408
G1 F1000.0 Z-0.002
G1 F2000.0 Y3.0977
G1 Y9.1915
G0 Z3.0
G0 X23.5562 Y7.8262
G0 Z0.408
G1 F1000.0 Z-0.002
G1 F2000.0 X23.0289
G3 X22.1852 Y7.6504 I0.0019 J-2.1221
G3 X21.4527 Y7.1641 I1.0076 J-2.3122
G3 X20.9312 Y6.4141 I1.6839 J-1.7271
G3 X20.7379 Y5.4473 I2.1836 J-0.9395
G3 X20.9254 Y4.4805 I2.4414 J-0.0281
G3 X21.4469 Y3.7364 I2.0433 J0.8772
G3 X22.2262 Y3.2618 I1.6302 J1.7996
G3 X23.1754 Y3.0977 I0.9314 J2.561
G1 X23.5562
G1 X23.1754
G2 X22.2262 Y3.2618 I-0.0178 J2.7252
G2 X21.4469 Y3.7364 I0.8509 J2.2742
G2 X20.9254 Y4.4805 I1.5218 J1.6213
G2 X20.7379 Y5.4473 I2.254 J0.9387
G2 X20.9312 Y6.4141 I2.3769 J0.0274
G2 X21.4527 Y7.1641 I2.2053 J-0.9771
G2 X22.1852 Y7.6504 I1.7403 J-1.8262
G2 X23.0289 Y7.8262 I0.8457 J-1.9464
G1 X23.5562
( holes )
G0 Z3.0
( T3 : 3.175 )
T3 M6
M3 S1000
G0 X32.5878 Y81.5844
G0 Z3.0
G0 X32.6003 Y81.5844
G0 Z0.01
G1 F1000.0 Z0.0
G2 F2000.0 X32.5815 Y81.5736 Z-0.0333 I-0.0125 J0.0
G2 Y81.5953 Z-0.0667 I0.0062 J0.0108
G2 X32.6003 Y81.5844 Z-0.1 I0.0063 J-0.0108
G2 X32.5815 Y81.5736 Z-0.1333 I-0.0125 J0.0
G2 Y81.5953 Z-0.1667 I0.0062 J0.0108
G2 X32.6003 Y81.5844 Z-0.2 I0.0063 J-0.0108
G2 X32.5815 Y81.5736 Z-0.2333 I-0.0125 J0.0
G2 Y81.5953 Z-0.2667 I0.0062 J0.0108
G2 X32.6003 Y81.5844 Z-0.3 I0.0063 J-0.0108
G2 X32.5815 Y81.5736 Z-0.3333 I-0.0125 J0.0
G2 Y81.5953 Z-0.3667 I0.0062 J0.0108
G2 X32.6003 Y81.5844 Z-0.4 I0.0063 J-0.0108
G2 X32.5815 Y81.5736 Z-0.4333 I-0.0125 J0.0
G2 Y81.5953 Z-0.4667 I0.0062 J0.0108
G2 X32.6003 Y81.5844 Z-0.5 I0.0063 J-0.0108
G2 X32.5815 Y81.5736 Z-0.5333 I-0.0125 J0.0
G2 Y81.5953 Z-0.5667 I0.0062 J0.0108
G2 X32.6003 Y81.5844 Z-0.6 I0.0063 J-0.0108
G2 X32.5815 Y81.5736 Z-0.6333 I-0.0125 J0.0
G2 Y81.5953 Z-0.6667 I0.0062 J0.0108
G2 X32.6003 Y81.5844 Z-0.7 I0.0063 J-0.0108
G2 X32.5815 Y81.5736 Z-0.7333 I-0.0125 J0.0
G2 Y81.5953 Z-0.7667 I0.0062 J0.0108
G2 X32.6003 Y81.5844 Z-0.8 I0.0063 J-0.0108
G2 X32.5815 Y81.5736 Z-0.8333 I-0.0125 J0.0
G2 Y81.5953 Z-0.8667 I0.0062 J0.0108
G2 X32.6003 Y81.5844 Z-0.9 I0.0063 J-0.0108
G2 X32.5815 Y81.5736 Z-0.9333 I-0.0125 J0.0
G2 Y81.5953 Z-0.9667 I0.0062 J0.0108
G2 X32.6003 Y81.5844 Z-1.0 I0.0063 J-0.0108
G2 X32.5815 Y81.5736 Z-1.0333 I-0.0125 J0.0
G2 Y81.5953 Z-1.0667 I0.0062 J0.0108
G2 X32.6003 Y81.5844 Z-1.1 I0.0063 J-0.0108
G2 X32.5815 Y81.5736 Z-1.1333 I-0.0125 J0.0
G2 Y81.5953 Z-1.1667 I0.0062 J0.0108
G2 X32.6003 Y81.5844 Z-1.2 I0.0063 J-0.0108
G2 X32.5815 Y81.5736 Z-1.2333 I-0.0125 J0.0
G2 Y81.5953 Z-1.2667 I0.0062 J0.0108
G2 X32.6003 Y81.5844 Z-1.3 I0.0063 J-0.0108
G2 X32.5815 Y81.5736 Z-1.3333 I-0.0125 J0.0
G2 Y81.5953 Z-1.3667 I0.0062 J0.0108
G2 X32.6003 Y81.5844 Z-1.4 I0.0063 J-0.0108
G2 X32.5815 Y81.5736 Z-1.4333 I-0.0125 J0.0
G2 Y81.5953 Z-1.4667 I0.0062 J0.0108
G2 X32.6003 Y81.5844 Z-1.5 I0.0063 J-0.0108
G2 X32.5815 Y81.5736 Z-1.5333 I-0.0125 J0.0
G2 Y81.5953 Z-1.5667 I0.0062 J0.0108
G2 X32.6003 Y81.5844 Z-1.6 I0.0063 J-0.0108
G2 X32.5815 Y81.5736 Z-1.6333 I-0.0125 J0.0
G2 Y81.5953 Z-1.6667 I0.0062 J0.0108
G2 X32.6003 Y81.5844 Z-1.7 I0.0063 J-0.0108
G2 X32.5815 Y81.5736 Z-1.7333 I-0.0125 J0.0
G2 Y81.5953 Z-1.7667 I0.0062 J0.0108
G2 X32.6003 Y81.5844 Z-1.8 I0.0063 J-0.0108
G2 X32.5815 Y81.5736 Z-1.8333 I-0.0125 J0.0
G2 Y81.5953 Z-1.8667 I0.0062 J0.0108
G2 X32.6003 Y81.5844 Z-1.9 I0.0063 J-0.0108
G2 X32.5815 Y81.5736 Z-1.9333 I-0.0125 J0.0
G2 Y81.5953 Z-1.9667 I0.0062 J0.0108
G2 X32.6003 Y81.5844 Z-2.0 I0.0063 J-0.0108
G2 X32.5815 Y81.5736 Z-2.0333 I-0.0125 J0.0
G2 Y81.5953 Z-2.0667 I0.0062 J0.0108
G2 X32.6003 Y81.5844 Z-2.1 I0.0063 J-0.0108
G2 X32.5815 Y81.5736 Z-2.1333 I-0.0125 J0.0
G2 Y81.5953 Z-2.1667 I0.0062 J0.0108
G2 X32.6003 Y81.5844 Z-2.2 I0.0063 J-0.0108
G2 X32.5815 Y81.5736 Z-2.2333 I-0.0125 J0.0
G2 Y81.5953 Z-2.2667 I0.0062 J0.0108
G2 X32.6003 Y81.5844 Z-2.3 I0.0063 J-0.0108
G2 X32.5815 Y81.5736 Z-2.3333 I-0.0125 J0.0
G2 Y81.5953 Z-2.3667 I0.0062 J0.0108
G2 X32.6003 Y81.5844 Z-2.4 I0.0063 J-0.0108
G2 X32.5815 Y81.5736 Z-2.4333 I-0.0125 J0.0
G2 Y81.5953 Z-2.4667 I0.0062 J0.0108
G2 X32.6003 Y81.5844 Z-2.5 I0.0063 J-0.0108
G2 X32.5815 Y81.5736 Z-2.5333 I-0.0125 J0.0
G2 Y81.5953 Z-2.5667 I0.0062 J0.0108
G2 X32.6003 Y81.5844 Z-2.6 I0.0063 J-0.0108
G2 X32.5815 Y81.5736 Z-2.6333 I-0.0125 J0.0
G2 Y81.5953 Z-2.6667 I0.0062 J0.0108
G2 X32.6003 Y81.5844 Z-2.7 I0.0063 J-0.0108
G2 X32.5815 Y81.5736 Z-2.7333 I-0.0125 J0.0
G2 Y81.5953 Z-2.7667 I0.0062 J0.0108
G2 X32.6003 Y81.5844 Z-2.8 I0.0063 J-0.0108
G2 X32.5815 Y81.5736 Z-2.8333 I-0.0125 J0.0
G2 Y81.5953 Z-2.8667 I0.0062 J0.0108
G2 X32.6003 Y81.5844 Z-2.9 I0.0063 J-0.0108
G2 X32.5815 Y81.5736 Z-2.9333 I-0.0125 J0.0
G2 Y81.5953 Z-2.9667 I0.0063 J0.0108
G2 X32.6003 Y81.5844 Z-3.0 I0.0063 J-0.0108
G2 X32.5815 Y81.5736 Z-3.0333 I-0.0125 J0.0
G2 Y81.5953 Z-3.0667 I0.0063 J0.0108
G2 X32.6003 Y81.5844 Z-3.1 I0.0063 J-0.0108
G2 X32.5815 Y81.5736 Z-3.1333 I-0.0125 J0.0
G2 Y81.5953 Z-3.1667 I0.0063 J0.0108
G2 X32.6003 Y81.5844 Z-3.2 I0.0063 J-0.0108
G2 X32.5815 Y81.5736 I-0.0125 J0.0
G2 Y81.5953 I0.0063 J0.0108
G2 X32.6003 Y81.5844 I0.0062 J-0.0108
G0 Z0.0
G2 X32.5815 Y81.5736 Z-0.0333 I-0.0125 J0.0
G2 Y81.5953 Z-0.0667 I0.0062 J0.0108
G2 X32.6003 Y81.5844 Z-0.1 I0.0063 J-0.0108
G2 X32.5815 Y81.5736 Z-0.1333 I-0.0125 J0.0
G2 Y81.5953 Z-0.1667 I0.0062 J0.0108
G2 X32.6003 Y81.5844 Z-0.2 I0.0063 J-0.0108
G2 X32.5815 Y81.5736 Z-0.2333 I-0.0125 J0.0
G2 Y81.5953 Z-0.2667 I0.0062 J0.0108
G2 X32.6003 Y81.5844 Z-0.3 I0.0063 J-0.0108
G2 X32.5815 Y81.5736 Z-0.3333 I-0.0125 J0.0
G2 Y81.5953 Z-0.3667 I0.0062 J0.0108
G2 X32.6003 Y81.5844 Z-0.4 I0.0063 J-0.0108
G2 X32.5815 Y81.5736 Z-0.4333 I-0.0125 J0.0
G2 Y81.5953 Z-0.4667 I0.0062 J0.0108
G2 X32.6003 Y81.5844 Z-0.5 I0.0063 J-0.0108
G2 X32.5815 Y81.5736 Z-0.5333 I-0.0125 J0.0
G2 Y81.5953 Z-0.5667 I0.0062 J0.0108
G2 X32.6003 Y81.5844 Z-0.6 I0.0063 J-0.0108
G2 X32.5815 Y81.5736 Z-0.6333 I-0.0125 J0.0
G2 Y81.5953 Z-0.6667 I0.0062 J0.0108
G2 X32.6003 Y81.5844 Z-0.7 I0.0063 J-0.0108
G2 X32.5815 Y81.5736 Z-0.7333 I-0.0125 J0.0
G2 Y81.5953 Z-0.7667 I0.0062 J0.0108
G2 X32.6003 Y81.5844 Z-0.8 I0.0063 J-0.0108
G2 X32.5815 Y81.5736 Z-0.8333 I-0.0125 J0.0
G2 Y81.5953 Z-0.8667 I0.0062 J0.0108
G2 X32.6003 Y81.5844 Z-0.9 I0.0063 J-0.0108
G2 X32.5815 Y81.5736 Z-0.9333 I-0.0125 J0.0
G2 Y81.5953 Z-0.9667 I0.0062 J0.0108
G2 X32.6003 Y81.5844 Z-1.0 I0.0063 J-0.0108
G2 X32.5815 Y81.5736 Z-1.0333 I-0.0125 J0.0
G2 Y81.5953 Z-1.0667 I0.0062 J0.0108
G2 X32.6003 Y81.5844 Z-1.1 I0.0063 J-0.0108
G2 X32.5815 Y81.5736 Z-1.1333 I-0.0125 J0.0
G2 Y81.5953 Z-1.1667 I0.0062 J0.0108
G2 X32.6003 Y81.5844 Z-1.2 I0.0063 J-0.0108
G2 X32.5815 Y81.5736 Z-1.2333 I-0.0125 J0.0
G2 Y81.5953 Z-1.2667 I0.0062 J0.0108
G2 X32.6003 Y81.5844 Z-1.3 I0.0063 J-0.0108
G2 X32.5815 Y81.5736 Z-1.3333 I-0.0125 J0.0
G2 Y81.5953 Z-1.3667 I0.0062 J0.0108
G2 X32.6003 Y81.5844 Z-1.4 I0.0063 J-0.0108
G2 X32.5815 Y81.5736 Z-1.4333 I-0.0125 J0.0
G2 Y81.5953 Z-1.4667 I0.0062 J0.0108
G2 X32.6003 Y81.5844 Z-1.5 I0.0063 J-0.0108
G2 X32.5815 Y81.5736 Z-1.5333 I-0.0125 J0.0
G2 Y81.5953 Z-1.5667 I0.0062 J0.0108
G2 X32.6003 Y81.5844 Z-1.6 I0.0063 J-0.0108
G2 X32.5815 Y81.5736 Z-1.6333 I-0.0125 J0.0
G2 Y81.5953 Z-1.6667 I0.0062 J0.0108
G2 X32.6003 Y81.5844 Z-1.7 I0.0063 J-0.0108
G2 X32.5815 Y81.5736 Z-1.7333 I-0.0125 J0.0
G2 Y81.5953 Z-1.7667 I0.0062 J0.0108
G2 X32.6003 Y81.5844 Z-1.8 I0.0063 J-0.0108
G2 X32.5815 Y81.5736 Z-1.8333 I-0.0125 J0.0
G2 Y81.5953 Z-1.8667 I0.0062 J0.0108
G2 X32.6003 Y81.5844 Z-1.9 I0.0063 J-0.0108
G2 X32.5815 Y81.5736 Z-1.9333 I-0.0125 J0.0
G2 Y81.5953 Z-1.9667 I0.0062 J0.0108
G2 X32.6003 Y81.5844 Z-2.0 I0.0063 J-0.0108
G2 X32.5815 Y81.5736 Z-2.0333 I-0.0125 J0.0
G2 Y81.5953 Z-2.0667 I0.0062 J0.0108
G2 X32.6003 Y81.5844 Z-2.1 I0.0063 J-0.0108
G2 X32.5815 Y81.5736 Z-2.1333 I-0.0125 J0.0
G2 Y81.5953 Z-2.1667 I0.0062 J0.0108
G2 X32.6003 Y81.5844 Z-2.2 I0.0063 J-0.0108
G2 X32.5815 Y81.5736 Z-2.2333 I-0.0125 J0.0
G2 Y81.5953 Z-2.2667 I0.0062 J0.0108
G2 X32.6003 Y81.5844 Z-2.3 I0.0063 J-0.0108
G2 X32.5815 Y81.5736 Z-2.3333 I-0.0125 J0.0
G2 Y81.5953 Z-2.3667 I0.0062 J0.0108
G2 X32.6003 Y81.5844 Z-2.4 I0.0063 J-0.0108
G2 X32.5815 Y81.5736 Z-2.4333 I-0.0125 J0.0
G2 Y81.5953 Z-2.4667 I0.0062 J0.0108
G2 X32.6003 Y81.5844 Z-2.5 I0.0063 J-0.0108
G2 X32.5815 Y81.5736 Z-2.5333 I-0.0125 J0.0
G2 Y81.5953 Z-2.5667 I0.0062 J0.0108
G2 X32.6003 Y81.5844 Z-2.6 I0.0063 J-0.0108
G2 X32.5815 Y81.5736 Z-2.6333 I-0.0125 J0.0
G2 Y81.5953 Z-2.6667 I0.0062 J0.0108
G2 X32.6003 Y81.5844 Z-2.7 I0.0063 J-0.0108
G2 X32.5815 Y81.5736 Z-2.7333 I-0.0125 J0.0
G2 Y81.5953 Z-2.7667 I0.0062 J0.0108
G2 X32.6003 Y81.5844 Z-2.8 I0.0063 J-0.0108
G2 X32.5815 Y81.5736 Z-2.8333 I-0.0125 J0.0
G2 Y81.5953 Z-2.8667 I0.0062 J0.0108
G2 X32.6003 Y81.5844 Z-2.9 I0.0063 J-0.0108
G2 X32.5815 Y81.5736 Z-2.9333 I-0.0125 J0.0
G2 Y81.5953 Z-2.9667 I0.0063 J0.0108
G2 X32.6003 Y81.5844 Z-3.0 I0.0063 J-0.0108
G2 X32.5815 Y81.5736 Z-3.0333 I-0.0125 J0.0
G2 Y81.5953 Z-3.0667 I0.0063 J0.0108
G2 X32.6003 Y81.5844 Z-3.1 I0.0063 J-0.0108
G2 X32.5815 Y81.5736 Z-3.1333 I-0.0125 J0.0
G2 Y81.5953 Z-3.1667 I0.0063 J0.0108
G2 X32.6003 Y81.5844 Z-3.2 I0.0063 J-0.0108
G2 X32.5815 Y81.5736 I-0.0125 J0.0
G2 Y81.5953 I0.0063 J0.0108
G2 X32.6003 Y81.5844 I0.0062 J-0.0108
G0 Z3.0
G0 X20.3603 Y81.4244
G0 Z0.01
G1 F1000.0 Z0.0
G2 F2000.0 X20.3415 Y81.4136 Z-0.0333 I-0.0125 J0.0
G2 Y81.4353 Z-0.0667 I0.0062 J0.0108
G2 X20.3603 Y81.4244 Z-0.1 I0.0063 J-0.0108
G2 X20.3415 Y81.4136 Z-0.1333 I-0.0125 J0.0
G2 Y81.4353 Z-0.1667 I0.0062 J0.0108
G2 X20.3603 Y81.4244 Z-0.2 I0.0063 J-0.0108
G2 X20.3415 Y81.4136 Z-0.2333 I-0.0125 J0.0
G2 Y81.4353 Z-0.2667 I0.0062 J0.0108
G2 X20.3603 Y81.4244 Z-0.3 I0.0063 J-0.0108
G2 X20.3415 Y81.4136 Z-0.3333 I-0.0125 J0.0
G2 Y81.4353 Z-0.3667 I0.0062 J0.0108
G2 X20.3603 Y81.4244 Z-0.4 I0.0063 J-0.0108
G2 X20.3415 Y81.4136 Z-0.4333 I-0.0125 J0.0
G2 Y81.4353 Z-0.4667 I0.0062 J0.0108
G2 X20.3603 Y81.4244 Z-0.5 I0.0063 J-0.0108
G2 X20.3415 Y81.4136 Z-0.5333 I-0.0125 J0.0
G2 Y81.4353 Z-0.5667 I0.0062 J0.0108
G2 X20.3603 Y81.4244 Z-0.6 I0.0063 J-0.0108
G2 X20.3415 Y81.4136 Z-0.6333 I-0.0125 J0.0
G2 Y81.4353 Z-0.6667 I0.0062 J0.0108
G2 X20.3603 Y81.4244 Z-0.7 I0.0063 J-0.0108
G2 X20.3415 Y81.4136 Z-0.7333 I-0.0125 J0.0
G2 Y81.4353 Z-0.7667 I0.0062 J0.0108
G2 X20.3603 Y81.4244 Z-0.8 I0.0063 J-0.0108
G2 X20.3415 Y81.4136 Z-0.8333 I-0.0125 J0.0
G2 Y81.4353 Z-0.8667 I0.0062 J0.0108
G2 X20.3603 Y81.4244 Z-0.9 I0.0063 J-0.0108
G2 X20.3415 Y81.4136 Z-0.9333 I-0.0125 J0.0
G2 Y81.4353 Z-0.9667 I0.0062 J0.0108
G2 X20.3603 Y81.4244 Z-1.0 I0.0063 J-0.0108
G2 X20.3415 Y81.4136 Z-1.0333 I-0.0125 J0.0
G2 Y81.4353 Z-1.0667 I0.0062 J0.0108
G2 X20.3603 Y81.4244 Z-1.1 I0.0063 J-0.0108
G2 X20.3415 Y81.4136 Z-1.1333 I-0.0125 J0.0
G2 Y81.4353 Z-1.1667 I0.0062 J0.0108
G2 X20.3603 Y81.4244 Z-1.2 I0.0063 J-0.0108
G2 X20.3415 Y81.4136 Z-1.2333 I-0.0125 J0.0
G2 Y81.4353 Z-1.2667 I0.0062 J0.0108
G2 X20.3603 Y81.4244 Z-1.3 I0.0063 J-0.0108
G2 X20.3415 Y81.4136 Z-1.3333 I-0.0125 J0.0
G2 Y81.4353 Z-1.3667 I0.0062 J0.0108
G2 X20.3603 Y81.4244 Z-1.4 I0.0063 J-0.0108
G2 X20.3415 Y81.4136 Z-1.4333 I-0.0125 J0.0
G2 Y81.4353 Z-1.4667 I0.0062 J0.0108
G2 X20.3603 Y81.4244 Z-1.5 I0.0063 J-0.0108
G2 X20.3415 Y81.4136 Z-1.5333 I-0.0125 J0.0
G2 Y81.4353 Z-1.5667 I0.0062 J0.0108
G2 X20.3603 Y81.4244 Z-1.6 I0.0063 J-0.0108
G2 X20.3415 Y81.4136 Z-1.6333 I-0.0125 J0.0
G2 Y81.4353 Z-1.6667 I0.0062 J0.0108
G2 X20.3603 Y81.4244 Z-1.7 I0.0063 J-0.0108
G2 X20.3415 Y81.4136 Z-1.7333 I-0.0125 J0.0
G2 Y81.4353 Z-1.7667 I0.0062 J0.0108
G2 X20.3603 Y81.4244 Z-1.8 I0.0063 J-0.0108
G2 X20.3415 Y81.4136 Z-1.8333 I-0.0125 J0.0
G2 Y81.4353 Z-1.8667 I0.0062 J0.0108
G2 X20.3603 Y81.4244 Z-1.9 I0.0063 J-0.0108
G2 X20.3415 Y81.4136 Z-1.9333 I-0.0125 J0.0
G2 Y81.4353 Z-1.9667 I0.0062 J0.0108
G2 X20.3603 Y81.4244 Z-2.0 I0.0063 J-0.0108
G2 X20.3415 Y81.4136 Z-2.0333 I-0.0125 J0.0
G2 Y81.4353 Z-2.0667 I0.0062 J0.0108
G2 X20.3603 Y81.4244 Z-2.1 I0.0063 J-0.0108
G2 X20.3415 Y81.4136 Z-2.1333 I-0.0125 J0.0
G2 Y81.4353 Z-2.1667 I0.0062 J0.0108
G2 X20.3603 Y81.4244 Z-2.2 I0.0063 J-0.0108
G2 X20.3415 Y81.4136 Z-2.2333 I-0.0125 J0.0
G2 Y81.4353 Z-2.2667 I0.0062 J0.0108
G2 X20.3603 Y81.4244 Z-2.3 I0.0063 J-0.0108
G2 X20.3415 Y81.4136 Z-2.3333 I-0.0125 J0.0
G2 Y81.4353 Z-2.3667 I0.0062 J0.0108
G2 X20.3603 Y81.4244 Z-2.4 I0.0063 J-0.0108
G2 X20.3415 Y81.4136 Z-2.4333 I-0.0125 J0.0
G2 Y81.4353 Z-2.4667 I0.0062 J0.0108
G2 X20.3603 Y81.4244 Z-2.5 I0.0063 J-0.0108
G2 X20.3415 Y81.4136 Z-2.5333 I-0.0125 J0.0
G2 Y81.4353 Z-2.5667 I0.0062 J0.0108
G2 X20.3603 Y81.4244 Z-2.6 I0.0063 J-0.0108
G2 X20.3415 Y81.4136 Z-2.6333 I-0.0125 J0.0
G2 Y81.4353 Z-2.6667 I0.0062 J0.0108
G2 X20.3603 Y81.4244 Z-2.7 I0.0063 J-0.0108
G2 X20.3415 Y81.4136 Z-2.7333 I-0.0125 J0.0
G2 Y81.4353 Z-2.7667 I0.0062 J0.0108
G2 X20.3603 Y81.4244 Z-2.8 I0.0063 J-0.0108
G2 X20.3415 Y81.4136 Z-2.8333 I-0.0125 J0.0
G2 Y81.4353 Z-2.8667 I0.0062 J0.0108
G2 X20.3603 Y81.4244 Z-2.9 I0.0063 J-0.0108
G2 X20.3415 Y81.4136 Z-2.9333 I-0.0125 J0.0
G2 Y81.4353 Z-2.9667 I0.0062 J0.0108
G2 X20.3603 Y81.4244 Z-3.0 I0.0063 J-0.0108
G2 X20.3415 Y81.4136 Z-3.0333 I-0.0125 J0.0
G2 Y81.4353 Z-3.0667 I0.0062 J0.0108
G2 X20.3603 Y81.4244 Z-3.1 I0.0063 J-0.0108
G2 X20.3415 Y81.4136 Z-3.1333 I-0.0125 J0.0
G2 Y81.4353 Z-3.1667 I0.0062 J0.0108
G2 X20.3603 Y81.4244 Z-3.2 I0.0063 J-0.0108
G2 X20.3415 Y81.4136 I-0.0125 J0.0
G2 Y81.4353 I0.0063 J0.0108
G2 X20.3603 Y81.4244 I0.0062 J-0.0108
G0 Z0.0
G2 X20.3415 Y81.4136 Z-0.0333 I-0.0125 J0.0
G2 Y81.4353 Z-0.0667 I0.0062 J0.0108
G2 X20.3603 Y81.4244 Z-0.1 I0.0063 J-0.0108
G2 X20.3415 Y81.4136 Z-0.1333 I-0.0125 J0.0
G2 Y81.4353 Z-0.1667 I0.0062 J0.0108
G2 X20.3603 Y81.4244 Z-0.2 I0.0063 J-0.0108
G2 X20.3415 Y81.4136 Z-0.2333 I-0.0125 J0.0
G2 Y81.4353 Z-0.2667 I0.0062 J0.0108
G2 X20.3603 Y81.4244 Z-0.3 I0.0063 J-0.0108
G2 X20.3415 Y81.4136 Z-0.3333 I-0.0125 J0.0
G2 Y81.4353 Z-0.3667 I0.0062 J0.0108
G2 X20.3603 Y81.4244 Z-0.4 I0.0063 J-0.0108
G2 X20.3415 Y81.4136 Z-0.4333 I-0.0125 J0.0
G2 Y81.4353 Z-0.4667 I0.0062 J0.0108
G2 X20.3603 Y81.4244 Z-0.5 I0.0063 J-0.0108
G2 X20.3415 Y81.4136 Z-0.5333 I-0.0125 J0.0
G2 Y81.4353 Z-0.5667 I0.0062 J0.0108
G2 X20.3603 Y81.4244 Z-0.6 I0.0063 J-0.0108
G2 X20.3415 Y81.4136 Z-0.6333 I-0.0125 J0.0
G2 Y81.4353 Z-0.6667 I0.0062 J0.0108
G2 X20.3603 Y81.4244 Z-0.7 I0.0063 J-0.0108
G2 X20.3415 Y81.4136 Z-0.7333 I-0.0125 J0.0
G2 Y81.4353 Z-0.7667 I0.0062 J0.0108
G2 X20.3603 Y81.4244 Z-0.8 I0.0063 J-0.0108
G2 X20.3415 Y81.4136 Z-0.8333 I-0.0125 J0.0
G2 Y81.4353 Z-0.8667 I0.0062 J0.0108
G2 X20.3603 Y81.4244 Z-0.9 I0.0063 J-0.0108
G2 X20.3415 Y81.4136 Z-0.9333 I-0.0125 J0.0
G2 Y81.4353 Z-0.9667 I0.0062 J0.0108
G2 X20.3603 Y81.4244 Z-1.0 I0.0063 J-0.0108
G2 X20.3415 Y81.4136 Z-1.0333 I-0.0125 J0.0
G2 Y81.4353 Z-1.0667 I0.0062 J0.0108
G2 X20.3603 Y81.4244 Z-1.1 I0.0063 J-0.0108
G2 X20.3415 Y81.4136 Z-1.1333 I-0.0125 J0.0
G2 Y81.4353 Z-1.1667 I0.0062 J0.0108
G2 X20.3603 Y81.4244 Z-1.2 I0.0063 J-0.0108
G2 X20.3415 Y81.4136 Z-1.2333 I-0.0125 J0.0
G2 Y81.4353 Z-1.2667 I0.0062 J0.0108
G2 X20.3603 Y81.4244 Z-1.3 I0.0063 J-0.0108
G2 X20.3415 Y81.4136 Z-1.3333 I-0.0125 J0.0
G2 Y81.4353 Z-1.3667 I0.0062 J0.0108
G2 X20.3603 Y81.4244 Z-1.4 I0.0063 J-0.0108
G2 X20.3415 Y81.4136 Z-1.4333 I-0.0125 J0.0
G2 Y81.4353 Z-1.4667 I0.0062 J0.0108
G2 X20.3603 Y81.4244 Z-1.5 I0.0063 J-0.0108
G2 X20.3415 Y81.4136 Z-1.5333 I-0.0125 J0.0
G2 Y81.4353 Z-1.5667 I0.0062 J0.0108
G2 X20.3603 Y81.4244 Z-1.6 I0.0063 J-0.0108
G2 X20.3415 Y81.4136 Z-1.6333 I-0.0125 J0.0
G2 Y81.4353 Z-1.6667 I0.0062 J0.0108
G2 X20.3603 Y81.4244 Z-1.7 I0.0063 J-0.0108
G2 X20.3415 Y81.4136 Z-1.7333 I-0.0125 J0.0
G2 Y81.4353 Z-1.7667 I0.0062 J0.0108
G2 X20.3603 Y81.4244 Z-1.8 I0.0063 J-0.0108
G2 X20.3415 Y81.4136 Z-1.8333 I-0.0125 J0.0
G2 Y81.4353 Z-1.8667 I0.0062 J0.0108
G2 X20.3603 Y81.4244 Z-1.9 I0.0063 J-0.0108
G2 X20.3415 Y81.4136 Z-1.9333 I-0.0125 J0.0
G2 Y81.4353 Z-1.9667 I0.0062 J0.0108
G2 X20.3603 Y81.4244 Z-2.0 I0.0063 J-0.0108
G2 X20.3415 Y81.4136 Z-2.0333 I-0.0125 J0.0
G2 Y81.4353 Z-2.0667 I0.0062 J0.0108
G2 X20.3603 Y81.4244 Z-2.1 I0.0063 J-0.0108
G2 X20.3415 Y81.4136 Z-2.1333 I-0.0125 J0.0
G2 Y81.4353 Z-2.1667 I0.0062 J0.0108
G2 X20.3603 Y81.4244 Z-2.2 I0.0063 J-0.0108
G2 X20.3415 Y81.4136 Z-2.2333 I-0.0125 J0.0
G2 Y81.4353 Z-2.2667 I0.0062 J0.0108
G2 X20.3603 Y81.4244 Z-2.3 I0.0063 J-0.0108
G2 X20.3415 Y81.4136 Z-2.3333 I-0.0125 J0.0
G2 Y81.4353 Z-2.3667 I0.0062 J0.0108
G2 X20.3603 Y81.4244 Z-2.4 I0.0063 J-0.0108
G2 X20.3415 Y81.4136 Z-2.4333 I-0.0125 J0.0
G2 Y81.4353 Z-2.4667 I0.0062 J0.0108
G2 X20.3603 Y81.4244 Z-2.5 I0.0063 J-0.0108
G2 X20.3415 Y81.4136 Z-2.5333 I-0.0125 J0.0
G2 Y81.4353 Z-2.5667 I0.0062 J0.0108
G2 X20.3603 Y81.4244 Z-2.6 I0.0063 J-0.0108
G2 X20.3415 Y81.4136 Z-2.6333 I-0.0125 J0.0
G2 Y81.4353 Z-2.6667 I0.0062 J0.0108
G2 X20.3603 Y81.4244 Z-2.7 I0.0063 J-0.0108
G2 X20.3415 Y81.4136 Z-2.7333 I-0.0125 J0.0
G2 Y81.4353 Z-2.7667 I0.0062 J0.0108
G2 X20.3603 Y81.4244 Z-2.8 I0.0063 J-0.0108
G2 X20.3415 Y81.4136 Z-2.8333 I-0.0125 J0.0
G2 Y81.4353 Z-2.8667 I0.0062 J0.0108
G2 X20.3603 Y81.4244 Z-2.9 I0.0063 J-0.0108
G2 X20.3415 Y81.4136 Z-2.9333 I-0.0125 J0.0
G2 Y81.4353 Z-2.9667 I0.0062 J0.0108
G2 X20.3603 Y81.4244 Z-3.0 I0.0063 J-0.0108
G2 X20.3415 Y81.4136 Z-3.0333 I-0.0125 J0.0
G2 Y81.4353 Z-3.0667 I0.0062 J0.0108
G2 X20.3603 Y81.4244 Z-3.1 I0.0063 J-0.0108
G2 X20.3415 Y81.4136 Z-3.1333 I-0.0125 J0.0
G2 Y81.4353 Z-3.1667 I0.0062 J0.0108
G2 X20.3603 Y81.4244 Z-3.2 I0.0063 J-0.0108
G2 X20.3415 Y81.4136 I-0.0125 J0.0
G2 Y81.4353 I0.0063 J0.0108
G2 X20.3603 Y81.4244 I0.0062 J-0.0108
G0 Z3.0
G0 X8.1203 Y81.2644
G0 Z0.01
G1 F1000.0 Z0.0
G2 F2000.0 X8.1015 Y81.2536 Z-0.0333 I-0.0125 J0.0
G2 Y81.2753 Z-0.0667 I0.0062 J0.0108
G2 X8.1203 Y81.2644 Z-0.1 I0.0063 J-0.0108
G2 X8.1015 Y81.2536 Z-0.1333 I-0.0125 J0.0
G2 Y81.2753 Z-0.1667 I0.0062 J0.0108
G2 X8.1203 Y81.2644 Z-0.2 I0.0063 J-0.0108
G2 X8.1015 Y81.2536 Z-0.2333 I-0.0125 J0.0
G2 Y81.2753 Z-0.2667 I0.0062 J0.0108
G2 X8.1203 Y81.2644 Z-0.3 I0.0063 J-0.0108
G2 X8.1015 Y81.2536 Z-0.3333 I-0.0125 J0.0
G2 Y81.2753 Z-0.3667 I0.0062 J0.0108
G2 X8.1203 Y81.2644 Z-0.4 I0.0063 J-0.0108
G2 X8.1015 Y81.2536 Z-0.4333 I-0.0125 J0.0
G2 Y81.2753 Z-0.4667 I0.0062 J0.0108
G2 X8.1203 Y81.2644 Z-0.5 I0.0063 J-0.0108
G2 X8.1015 Y81.2536 Z-0.5333 I-0.0125 J0.0
G2 Y81.2753 Z-0.5667 I0.0062 J0.0108
G2 X8.1203 Y81.2644 Z-0.6 I0.0063 J-0.0108
G2 X8.1015 Y81.2536 Z-0.6333 I-0.0125 J0.0
G2 Y81.2753 Z-0.6667 I0.0062 J0.0108
G2 X8.1203 Y81.2644 Z-0.7 I0.0063 J-0.0108
G2 X8.1015 Y81.2536 Z-0.7333 I-0.0125 J0.0
G2 Y81.2753 Z-0.7667 I0.0062 J0.0108
G2 X8.1203 Y81.2644 Z-0.8 I0.0063 J-0.0108
G2 X8.1015 Y81.2536 Z-0.8333 I-0.0125 J0.0
G2 Y81.2753 Z-0.8667 I0.0062 J0.0108
G2 X8.1203 Y81.2644 Z-0.9 I0.0063 J-0.0108
G2 X8.1015 Y81.2536 Z-0.9333 I-0.0125 J0.0
G2 Y81.2753 Z-0.9667 I0.0062 J0.0108
G2 X8.1203 Y81.2644 Z-1.0 I0.0063 J-0.0108
G2 X8.1015 Y81.2536 Z-1.0333 I-0.0125 J0.0
G2 Y81.2753 Z-1.0667 I0.0062 J0.0108
G2 X8.1203 Y81.2644 Z-1.1 I0.0063 J-0.0108
G2 X8.1015 Y81.2536 Z-1.1333 I-0.0125 J0.0
G2 Y81.2753 Z-1.1667 I0.0062 J0.0108
G2 X8.1203 Y81.2644 Z-1.2 I0.0063 J-0.0108
G2 X8.1015 Y81.2536 Z-1.2333 I-0.0125 J0.0
G2 Y81.2753 Z-1.2667 I0.0062 J0.0108
G2 X8.1203 Y81.2644 Z-1.3 I0.0063 J-0.0108
G2 X8.1015 Y81.2536 Z-1.3333 I-0.0125 J0.0
G2 Y81.2753 Z-1.3667 I0.0062 J0.0108
G2 X8.1203 Y81.2644 Z-1.4 I0.0063 J-0.0108
G2 X8.1015 Y81.2536 Z-1.4333 I-0.0125 J0.0
G2 Y81.2753 Z-1.4667 I0.0062 J0.0108
G2 X8.1203 Y81.2644 Z-1.5 I0.0063 J-0.0108
G2 X8.1015 Y81.2536 Z-1.5333 I-0.0125 J0.0
G2 Y81.2753 Z-1.5667 I0.0062 J0.0108
G2 X8.1203 Y81.2644 Z-1.6 I0.0063 J-0.0108
G2 X8.1015 Y81.2536 Z-1.6333 I-0.0125 J0.0
G2 Y81.2753 Z-1.6667 I0.0062 J0.0108
G2 X8.1203 Y81.2644 Z-1.7 I0.0063 J-0.0108
G2 X8.1015 Y81.2536 Z-1.7333 I-0.0125 J0.0
G2 Y81.2753 Z-1.7667 I0.0062 J0.0108
G2 X8.1203 Y81.2644 Z-1.8 I0.0063 J-0.0108
G2 X8.1015 Y81.2536 Z-1.8333 I-0.0125 J0.0
G2 Y81.2753 Z-1.8667 I0.0062 J0.0108
G2 X8.1203 Y81.2644 Z-1.9 I0.0063 J-0.0108
G2 X8.1015 Y81.2536 Z-1.9333 I-0.0125 J0.0
G2 Y81.2753 Z-1.9667 I0.0062 J0.0108
G2 X8.1203 Y81.2644 Z-2.0 I0.0063 J-0.0108
G2 X8.1015 Y81.2536 Z-2.0333 I-0.0125 J0.0
G2 Y81.2753 Z-2.0667 I0.0062 J0.0108
G2 X8.1203 Y81.2644 Z-2.1 I0.0063 J-0.0108
G2 X8.1015 Y81.2536 Z-2.1333 I-0.0125 J0.0
G2 Y81.2753 Z-2.1667 I0.0062 J0.0108
G2 X8.1203 Y81.2644 Z-2.2 I0.0063 J-0.0108
G2 X8.1015 Y81.2536 Z-2.2333 I-0.0125 J0.0
G2 Y81.2753 Z-2.2667 I0.0062 J0.0108
G2 X8.1203 Y81.2644 Z-2.3 I0.0063 J-0.0108
G2 X8.1015 Y81.2536 Z-2.3333 I-0.0125 J0.0
G2 Y81.2753 Z-2.3667 I0.0062 J0.0108
G2 X8.1203 Y81.2644 Z-2.4 I0.0063 J-0.0108
G2 X8.1015 Y81.2536 Z-2.4333 I-0.0125 J0.0
G2 Y81.2753 Z-2.4667 I0.0062 J0.0108
G2 X8.1203 Y81.2644 Z-2.5 I0.0063 J-0.0108
G2 X8.1015 Y81.2536 Z-2.5333 I-0.0125 J0.0
G2 Y81.2753 Z-2.5667 I0.0062 J0.0108
G2 X8.1203 Y81.2644 Z-2.6 I0.0063 J-0.0108
G2 X8.1015 Y81.2536 Z-2.6333 I-0.0125 J0.0
G2 Y81.2753 Z-2.6667 I0.0062 J0.0108
G2 X8.1203 Y81.2644 Z-2.7 I0.0063 J-0.0108
G2 X8.1015 Y81.2536 Z-2.7333 I-0.0125 J0.0
G2 Y81.2753 Z-2.7667 I0.0062 J0.0108
G2 X8.1203 Y81.2644 Z-2.8 I0.0062 J-0.0108
G2 X8.1015 Y81.2536 Z-2.8333 I-0.0125 J0.0
G2 Y81.2753 Z-2.8667 I0.0062 J0.0108
G2 X8.1203 Y81.2644 Z-2.9 I0.0062 J-0.0108
G2 X8.1015 Y81.2536 Z-2.9333 I-0.0125 J0.0
G2 Y81.2753 Z-2.9667 I0.0062 J0.0108
G2 X8.1203 Y81.2644 Z-3.0 I0.0062 J-0.0108
G2 X8.1015 Y81.2536 Z-3.0333 I-0.0125 J0.0
G2 Y81.2753 Z-3.0667 I0.0062 J0.0108
G2 X8.1203 Y81.2644 Z-3.1 I0.0062 J-0.0108
G2 X8.1015 Y81.2536 Z-3.1333 I-0.0125 J0.0
G2 Y81.2753 Z-3.1667 I0.0063 J0.0108
G2 X8.1203 Y81.2644 Z-3.2 I0.0062 J-0.0108
G2 X8.1015 Y81.2536 I-0.0125 J0.0
G2 Y81.2753 I0.0063 J0.0108
G2 X8.1203 Y81.2644 I0.0062 J-0.0108
G0 Z0.0
G2 X8.1015 Y81.2536 Z-0.0333 I-0.0125 J0.0
G2 Y81.2753 Z-0.0667 I0.0062 J0.0108
G2 X8.1203 Y81.2644 Z-0.1 I0.0063 J-0.0108
G2 X8.1015 Y81.2536 Z-0.1333 I-0.0125 J0.0
G2 Y81.2753 Z-0.1667 I0.0062 J0.0108
G2 X8.1203 Y81.2644 Z-0.2 I0.0063 J-0.0108
G2 X8.1015 Y81.2536 Z-0.2333 I-0.0125 J0.0
G2 Y81.2753 Z-0.2667 I0.0062 J0.0108
G2 X8.1203 Y81.2644 Z-0.3 I0.0063 J-0.0108
G2 X8.1015 Y81.2536 Z-0.3333 I-0.0125 J0.0
G2 Y81.2753 Z-0.3667 I0.0062 J0.0108
G2 X8.1203 Y81.2644 Z-0.4 I0.0063 J-0.0108
G2 X8.1015 Y81.2536 Z-0.4333 I-0.0125 J0.0
G2 Y81.2753 Z-0.4667 I0.0062 J0.0108
G2 X8.1203 Y81.2644 Z-0.5 I0.0063 J-0.0108
G2 X8.1015 Y81.2536 Z-0.5333 I-0.0125 J0.0
G2 Y81.2753 Z-0.5667 I0.0062 J0.0108
G2 X8.1203 Y81.2644 Z-0.6 I0.0063 J-0.0108
G2 X8.1015 Y81.2536 Z-0.6333 I-0.0125 J0.0
G2 Y81.2753 Z-0.6667 I0.0062 J0.0108
G2 X8.1203 Y81.2644 Z-0.7 I0.0063 J-0.0108
G2 X8.1015 Y81.2536 Z-0.7333 I-0.0125 J0.0
G2 Y81.2753 Z-0.7667 I0.0062 J0.0108
G2 X8.1203 Y81.2644 Z-0.8 I0.0063 J-0.0108
G2 X8.1015 Y81.2536 Z-0.8333 I-0.0125 J0.0
G2 Y81.2753 Z-0.8667 I0.0062 J0.0108
G2 X8.1203 Y81.2644 Z-0.9 I0.0063 J-0.0108
G2 X8.1015 Y81.2536 Z-0.9333 I-0.0125 J0.0
G2 Y81.2753 Z-0.9667 I0.0062 J0.0108
G2 X8.1203 Y81.2644 Z-1.0 I0.0063 J-0.0108
G2 X8.1015 Y81.2536 Z-1.0333 I-0.0125 J0.0
G2 Y81.2753 Z-1.0667 I0.0062 J0.0108
G2 X8.1203 Y81.2644 Z-1.1 I0.0063 J-0.0108
G2 X8.1015 Y81.2536 Z-1.1333 I-0.0125 J0.0
G2 Y81.2753 Z-1.1667 I0.0062 J0.0108
G2 X8.1203 Y81.2644 Z-1.2 I0.0063 J-0.0108
G2 X8.1015 Y81.2536 Z-1.2333 I-0.0125 J0.0
G2 Y81.2753 Z-1.2667 I0.0062 J0.0108
G2 X8.1203 Y81.2644 Z-1.3 I0.0063 J-0.0108
G2 X8.1015 Y81.2536 Z-1.3333 I-0.0125 J0.0
G2 Y81.2753 Z-1.3667 I0.0062 J0.0108
G2 X8.1203 Y81.2644 Z-1.4 I0.0063 J-0.0108
G2 X8.1015 Y81.2536 Z-1.4333 I-0.0125 J0.0
G2 Y81.2753 Z-1.4667 I0.0062 J0.0108
G2 X8.1203 Y81.2644 Z-1.5 I0.0063 J-0.0108
G2 X8.1015 Y81.2536 Z-1.5333 I-0.0125 J0.0
G2 Y81.2753 Z-1.5667 I0.0062 J0.0108
G2 X8.1203 Y81.2644 Z-1.6 I0.0063 J-0.0108
G2 X8.1015 Y81.2536 Z-1.6333 I-0.0125 J0.0
G2 Y81.2753 Z-1.6667 I0.0062 J0.0108
G2 X8.1203 Y81.2644 Z-1.7 I0.0063 J-0.0108
G2 X8.1015 Y81.2536 Z-1.7333 I-0.0125 J0.0
G2 Y81.2753 Z-1.7667 I0.0062 J0.0108
G2 X8.1203 Y81.2644 Z-1.8 I0.0063 J-0.0108
G2 X8.1015 Y81.2536 Z-1.8333 I-0.0125 J0.0
G2 Y81.2753 Z-1.8667 I0.0062 J0.0108
G2 X8.1203 Y81.2644 Z-1.9 I0.0063 J-0.0108
G2 X8.1015 Y81.2536 Z-1.9333 I-0.0125 J0.0
G2 Y81.2753 Z-1.9667 I0.0062 J0.0108
G2 X8.1203 Y81.2644 Z-2.0 I0.0063 J-0.0108
G2 X8.1015 Y81.2536 Z-2.0333 I-0.0125 J0.0
G2 Y81.2753 Z-2.0667 I0.0062 J0.0108
G2 X8.1203 Y81.2644 Z-2.1 I0.0063 J-0.0108
G2 X8.1015 Y81.2536 Z-2.1333 I-0.0125 J0.0
G2 Y81.2753 Z-2.1667 I0.0062 J0.0108
G2 X8.1203 Y81.2644 Z-2.2 I0.0063 J-0.0108
G2 X8.1015 Y81.2536 Z-2.2333 I-0.0125 J0.0
G2 Y81.2753 Z-2.2667 I0.0062 J0.0108
G2 X8.1203 Y81.2644 Z-2.3 I0.0063 J-0.0108
G2 X8.1015 Y81.2536 Z-2.3333 I-0.0125 J0.0
G2 Y81.2753 Z-2.3667 I0.0062 J0.0108
G2 X8.1203 Y81.2644 Z-2.4 I0.0063 J-0.0108
G2 X8.1015 Y81.2536 Z-2.4333 I-0.0125 J0.0
G2 Y81.2753 Z-2.4667 I0.0062 J0.0108
G2 X8.1203 Y81.2644 Z-2.5 I0.0063 J-0.0108
G2 X8.1015 Y81.2536 Z-2.5333 I-0.0125 J0.0
G2 Y81.2753 Z-2.5667 I0.0062 J0.0108
G2 X8.1203 Y81.2644 Z-2.6 I0.0063 J-0.0108
G2 X8.1015 Y81.2536 Z-2.6333 I-0.0125 J0.0
G2 Y81.2753 Z-2.6667 I0.0062 J0.0108
G2 X8.1203 Y81.2644 Z-2.7 I0.0063 J-0.0108
G2 X8.1015 Y81.2536 Z-2.7333 I-0.0125 J0.0
G2 Y81.2753 Z-2.7667 I0.0062 J0.0108
G2 X8.1203 Y81.2644 Z-2.8 I0.0062 J-0.0108
G2 X8.1015 Y81.2536 Z-2.8333 I-0.0125 J0.0
G2 Y81.2753 Z-2.8667 I0.0062 J0.0108
G2 X8.1203 Y81.2644 Z-2.9 I0.0062 J-0.0108
G2 X8.1015 Y81.2536 Z-2.9333 I-0.0125 J0.0
G2 Y81.2753 Z-2.9667 I0.0062 J0.0108
G2 X8.1203 Y81.2644 Z-3.0 I0.0062 J-0.0108
G2 X8.1015 Y81.2536 Z-3.0333 I-0.0125 J0.0
G2 Y81.2753 Z-3.0667 I0.0062 J0.0108
G2 X8.1203 Y81.2644 Z-3.1 I0.0062 J-0.0108
G2 X8.1015 Y81.2536 Z-3.1333 I-0.0125 J0.0
G2 Y81.2753 Z-3.1667 I0.0063 J0.0108
G2 X8.1203 Y81.2644 Z-3.2 I0.0062 J-0.0108
G2 X8.1015 Y81.2536 I-0.0125 J0.0
G2 Y81.2753 I0.0063 J0.0108
G2 X8.1203 Y81.2644 I0.0062 J-0.0108
G0 Z3.0
G0 X8.4355 Y68.1463
G0 Z0.01
G1 F1000.0 Z0.0
G2 F2000.0 X8.4167 Y68.1355 Z-0.0333 I-0.0125 J0.0
G2 Y68.1571 Z-0.0667 I0.0062 J0.0108
G2 X8.4355 Y68.1463 Z-0.1 I0.0063 J-0.0108
G2 X8.4167 Y68.1355 Z-0.1333 I-0.0125 J0.0
G2 Y68.1571 Z-0.1667 I0.0062 J0.0108
G2 X8.4355 Y68.1463 Z-0.2 I0.0063 J-0.0108
G2 X8.4167 Y68.1355 Z-0.2333 I-0.0125 J0.0
G2 Y68.1571 Z-0.2667 I0.0062 J0.0108
G2 X8.4355 Y68.1463 Z-0.3 I0.0063 J-0.0108
G2 X8.4167 Y68.1355 Z-0.3333 I-0.0125 J0.0
G2 Y68.1571 Z-0.3667 I0.0062 J0.0108
G2 X8.4355 Y68.1463 Z-0.4 I0.0063 J-0.0108
G2 X8.4167 Y68.1355 Z-0.4333 I-0.0125 J0.0
G2 Y68.1571 Z-0.4667 I0.0062 J0.0108
G2 X8.4355 Y68.1463 Z-0.5 I0.0063 J-0.0108
G2 X8.4167 Y68.1355 Z-0.5333 I-0.0125 J0.0
G2 Y68.1571 Z-0.5667 I0.0062 J0.0108
G2 X8.4355 Y68.1463 Z-0.6 I0.0063 J-0.0108
G2 X8.4167 Y68.1355 Z-0.6333 I-0.0125 J0.0
G2 Y68.1571 Z-0.6667 I0.0062 J0.0108
G2 X8.4355 Y68.1463 Z-0.7 I0.0063 J-0.0108
G2 X8.4167 Y68.1355 Z-0.7333 I-0.0125 J0.0
G2 Y68.1571 Z-0.7667 I0.0062 J0.0108
G2 X8.4355 Y68.1463 Z-0.8 I0.0063 J-0.0108
G2 X8.4167 Y68.1355 Z-0.8333 I-0.0125 J0.0
G2 Y68.1571 Z-0.8667 I0.0062 J0.0108
G2 X8.4355 Y68.1463 Z-0.9 I0.0063 J-0.0108
G2 X8.4167 Y68.1355 Z-0.9333 I-0.0125 J0.0
G2 Y68.1571 Z-0.9667 I0.0062 J0.0108
G2 X8.4355 Y68.1463 Z-1.0 I0.0063 J-0.0108
G2 X8.4167 Y68.1355 Z-1.0333 I-0.0125 J0.0
G2 Y68.1571 Z-1.0667 I0.0062 J0.0108
G2 X8.4355 Y68.1463 Z-1.1 I0.0063 J-0.0108
G2 X8.4167 Y68.1355 Z-1.1333 I-0.0125 J0.0
G2 Y68.1571 Z-1.1667 I0.0062 J0.0108
G2 X8.4355 Y68.1463 Z-1.2 I0.0063 J-0.0108
G2 X8.4167 Y68.1355 Z-1.2333 I-0.0125 J0.0
G2 Y68.1571 Z-1.2667 I0.0062 J0.0108
G2 X8.4355 Y68.1463 Z-1.3 I0.0063 J-0.0108
G2 X8.4167 Y68.1355 Z-1.3333 I-0.0125 J0.0
G2 Y68.1571 Z-1.3667 I0.0062 J0.0108
G2 X8.4355 Y68.1463 Z-1.4 I0.0063 J-0.0108
G2 X8.4167 Y68.1355 Z-1.4333 I-0.0125 J0.0
G2 Y68.1571 Z-1.4667 I0.0062 J0.0108
G2 X8.4355 Y68.1463 Z-1.5 I0.0063 J-0.0108
G2 X8.4167 Y68.1355 Z-1.5333 I-0.0125 J0.0
G2 Y68.1571 Z-1.5667 I0.0062 J0.0108
G2 X8.4355 Y68.1463 Z-1.6 I0.0063 J-0.0108
G2 X8.4167 Y68.1355 Z-1.6333 I-0.0125 J0.0
G2 Y68.1571 Z-1.6667 I0.0062 J0.0108
G2 X8.4355 Y68.1463 Z-1.7 I0.0063 J-0.0108
G2 X8.4167 Y68.1355 Z-1.7333 I-0.0125 J0.0
G2 Y68.1571 Z-1.7667 I0.0062 J0.0108
G2 X8.4355 Y68.1463 Z-1.8 I0.0063 J-0.0108
G2 X8.4167 Y68.1355 Z-1.8333 I-0.0125 J0.0
G2 Y68.1571 Z-1.8667 I0.0062 J0.0108
G2 X8.4355 Y68.1463 Z-1.9 I0.0063 J-0.0108
G2 X8.4167 Y68.1355 Z-1.9333 I-0.0125 J0.0
G2 Y68.1571 Z-1.9667 I0.0062 J0.0108
G2 X8.4355 Y68.1463 Z-2.0 I0.0063 J-0.0108
G2 X8.4167 Y68.1355 Z-2.0333 I-0.0125 J0.0
G2 Y68.1571 Z-2.0667 I0.0062 J0.0108
G2 X8.4355 Y68.1463 Z-2.1 I0.0063 J-0.0108
G2 X8.4167 Y68.1355 Z-2.1333 I-0.0125 J0.0
G2 Y68.1571 Z-2.1667 I0.0062 J0.0108
G2 X8.4355 Y68.1463 Z-2.2 I0.0063 J-0.0108
G2 X8.4167 Y68.1355 Z-2.2333 I-0.0125 J0.0
G2 Y68.1571 Z-2.2667 I0.0062 J0.0108
G2 X8.4355 Y68.1463 Z-2.3 I0.0063 J-0.0108
G2 X8.4167 Y68.1355 Z-2.3333 I-0.0125 J0.0
G2 Y68.1571 Z-2.3667 I0.0062 J0.0108
G2 X8.4355 Y68.1463 Z-2.4 I0.0063 J-0.0108
G2 X8.4167 Y68.1355 Z-2.4333 I-0.0125 J0.0
G2 Y68.1571 Z-2.4667 I0.0062 J0.0108
G2 X8.4355 Y68.1463 Z-2.5 I0.0063 J-0.0108
G2 X8.4167 Y68.1355 Z-2.5333 I-0.0125 J0.0
G2 Y68.1571 Z-2.5667 I0.0062 J0.0108
G2 X8.4355 Y68.1463 Z-2.6 I0.0063 J-0.0108
G2 X8.4167 Y68.1355 Z-2.6333 I-0.0125 J0.0
G2 Y68.1571 Z-2.6667 I0.0062 J0.0108
G2 X8.4355 Y68.1463 Z-2.7 I0.0063 J-0.0108
G2 X8.4167 Y68.1355 Z-2.7333 I-0.0125 J0.0
G2 Y68.1571 Z-2.7667 I0.0062 J0.0108
G2 X8.4355 Y68.1463 Z-2.8 I0.0062 J-0.0108
G2 X8.4167 Y68.1355 Z-2.8333 I-0.0125 J0.0
G2 Y68.1571 Z-2.8667 I0.0062 J0.0108
G2 X8.4355 Y68.1463 Z-2.9 I0.0062 J-0.0108
G2 X8.4167 Y68.1355 Z-2.9333 I-0.0125 J0.0
G2 Y68.1571 Z-2.9667 I0.0062 J0.0108
G2 X8.4355 Y68.1463 Z-3.0 I0.0062 J-0.0108
G2 X8.4167 Y68.1355 Z-3.0333 I-0.0125 J0.0
G2 Y68.1571 Z-3.0667 I0.0062 J0.0108
G2 X8.4355 Y68.1463 Z-3.1 I0.0062 J-0.0108
G2 X8.4167 Y68.1355 Z-3.1333 I-0.0125 J0.0
G2 Y68.1571 Z-3.1667 I0.0063 J0.0108
G2 X8.4355 Y68.1463 Z-3.2 I0.0062 J-0.0108
G2 X8.4167 Y68.1355 I-0.0125 J0.0
G2 Y68.1571 I0.0063 J0.0108
G2 X8.4355 Y68.1463 I0.0062 J-0.0108
G0 Z0.0
G2 X8.4167 Y68.1355 Z-0.0333 I-0.0125 J0.0
G2 Y68.1571 Z-0.0667 I0.0062 J0.0108
G2 X8.4355 Y68.1463 Z-0.1 I0.0063 J-0.0108
G2 X8.4167 Y68.1355 Z-0.1333 I-0.0125 J0.0
G2 Y68.1571 Z-0.1667 I0.0062 J0.0108
G2 X8.4355 Y68.1463 Z-0.2 I0.0063 J-0.0108
G2 X8.4167 Y68.1355 Z-0.2333 I-0.0125 J0.0
G2 Y68.1571 Z-0.2667 I0.0062 J0.0108
G2 X8.4355 Y68.1463 Z-0.3 I0.0063 J-0.0108
G2 X8.4167 Y68.1355 Z-0.3333 I-0.0125 J0.0
G2 Y68.1571 Z-0.3667 I0.0062 J0.0108
G2 X8.4355 Y68.1463 Z-0.4 I0.0063 J-0.0108
G2 X8.4167 Y68.1355 Z-0.4333 I-0.0125 J0.0
G2 Y68.1571 Z-0.4667 I0.0062 J0.0108
G2 X8.4355 Y68.1463 Z-0.5 I0.0063 J-0.0108
G2 X8.4167 Y68.1355 Z-0.5333 I-0.0125 J0.0
G2 Y68.1571 Z-0.5667 I0.0062 J0.0108
G2 X8.4355 Y68.1463 Z-0.6 I0.0063 J-0.0108
G2 X8.4167 Y68.1355 Z-0.6333 I-0.0125 J0.0
G2 Y68.1571 Z-0.6667 I0.0062 J0.0108
G2 X8.4355 Y68.1463 Z-0.7 I0.0063 J-0.0108
G2 X8.4167 Y68.1355 Z-0.7333 I-0.0125 J0.0
G2 Y68.1571 Z-0.7667 I0.0062 J0.0108
G2 X8.4355 Y68.1463 Z-0.8 I0.0063 J-0.0108
G2 X8.4167 Y68.1355 Z-0.8333 I-0.0125 J0.0
G2 Y68.1571 Z-0.8667 I0.0062 J0.0108
G2 X8.4355 Y68.1463 Z-0.9 I0.0063 J-0.0108
G2 X8.4167 Y68.1355 Z-0.9333 I-0.0125 J0.0
G2 Y68.1571 Z-0.9667 I0.0062 J0.0108
G2 X8.4355 Y68.1463 Z-1.0 I0.0063 J-0.0108
G2 X8.4167 Y68.1355 Z-1.0333 I-0.0125 J0.0
G2 Y68.1571 Z-1.0667 I0.0062 J0.0108
G2 X8.4355 Y68.1463 Z-1.1 I0.0063 J-0.0108
G2 X8.4167 Y68.1355 Z-1.1333 I-0.0125 J0.0
G2 Y68.1571 Z-1.1667 I0.0062 J0.0108
G2 X8.4355 Y68.1463 Z-1.2 I0.0063 J-0.0108
G2 X8.4167 Y68.1355 Z-1.2333 I-0.0125 J0.0
G2 Y68.1571 Z-1.2667 I0.0062 J0.0108
G2 X8.4355 Y68.1463 Z-1.3 I0.0063 J-0.0108
G2 X8.4167 Y68.1355 Z-1.3333 I-0.0125 J0.0
G2 Y68.1571 Z-1.3667 I0.0062 J0.0108
G2 X8.4355 Y68.1463 Z-1.4 I0.0063 J-0.0108
G2 X8.4167 Y68.1355 Z-1.4333 I-0.0125 J0.0
G2 Y68.1571 Z-1.4667 I0.0062 J0.0108
G2 X8.4355 Y68.1463 Z-1.5 I0.0063 J-0.0108
G2 X8.4167 Y68.1355 Z-1.5333 I-0.0125 J0.0
G2 Y68.1571 Z-1.5667 I0.0062 J0.0108
G2 X8.4355 Y68.1463 Z-1.6 I0.0063 J-0.0108
G2 X8.4167 Y68.1355 Z-1.6333 I-0.0125 J0.0
G2 Y68.1571 Z-1.6667 I0.0062 J0.0108
G2 X8.4355 Y68.1463 Z-1.7 I0.0063 J-0.0108
G2 X8.4167 Y68.1355 Z-1.7333 I-0.0125 J0.0
G2 Y68.1571 Z-1.7667 I0.0062 J0.0108
G2 X8.4355 Y68.1463 Z-1.8 I0.0063 J-0.0108
G2 X8.4167 Y68.1355 Z-1.8333 I-0.0125 J0.0
G2 Y68.1571 Z-1.8667 I0.0062 J0.0108
G2 X8.4355 Y68.1463 Z-1.9 I0.0063 J-0.0108
G2 X8.4167 Y68.1355 Z-1.9333 I-0.0125 J0.0
G2 Y68.1571 Z-1.9667 I0.0062 J0.0108
G2 X8.4355 Y68.1463 Z-2.0 I0.0063 J-0.0108
G2 X8.4167 Y68.1355 Z-2.0333 I-0.0125 J0.0
G2 Y68.1571 Z-2.0667 I0.0062 J0.0108
G2 X8.4355 Y68.1463 Z-2.1 I0.0063 J-0.0108
G2 X8.4167 Y68.1355 Z-2.1333 I-0.0125 J0.0
G2 Y68.1571 Z-2.1667 I0.0062 J0.0108
G2 X8.4355 Y68.1463 Z-2.2 I0.0063 J-0.0108
G2 X8.4167 Y68.1355 Z-2.2333 I-0.0125 J0.0
G2 Y68.1571 Z-2.2667 I0.0062 J0.0108
G2 X8.4355 Y68.1463 Z-2.3 I0.0063 J-0.0108
G2 X8.4167 Y68.1355 Z-2.3333 I-0.0125 J0.0
G2 Y68.1571 Z-2.3667 I0.0062 J0.0108
G2 X8.4355 Y68.1463 Z-2.4 I0.0063 J-0.0108
G2 X8.4167 Y68.1355 Z-2.4333 I-0.0125 J0.0
G2 Y68.1571 Z-2.4667 I0.0062 J0.0108
G2 X8.4355 Y68.1463 Z-2.5 I0.0063 J-0.0108
G2 X8.4167 Y68.1355 Z-2.5333 I-0.0125 J0.0
G2 Y68.1571 Z-2.5667 I0.0062 J0.0108
G2 X8.4355 Y68.1463 Z-2.6 I0.0063 J-0.0108
G2 X8.4167 Y68.1355 Z-2.6333 I-0.0125 J0.0
G2 Y68.1571 Z-2.6667 I0.0062 J0.0108
G2 X8.4355 Y68.1463 Z-2.7 I0.0063 J-0.0108
G2 X8.4167 Y68.1355 Z-2.7333 I-0.0125 J0.0
G2 Y68.1571 Z-2.7667 I0.0062 J0.0108
G2 X8.4355 Y68.1463 Z-2.8 I0.0062 J-0.0108
G2 X8.4167 Y68.1355 Z-2.8333 I-0.0125 J0.0
G2 Y68.1571 Z-2.8667 I0.0062 J0.0108
G2 X8.4355 Y68.1463 Z-2.9 I0.0062 J-0.0108
G2 X8.4167 Y68.1355 Z-2.9333 I-0.0125 J0.0
G2 Y68.1571 Z-2.9667 I0.0062 J0.0108
G2 X8.4355 Y68.1463 Z-3.0 I0.0062 J-0.0108
G2 X8.4167 Y68.1355 Z-3.0333 I-0.0125 J0.0
G2 Y68.1571 Z-3.0667 I0.0062 J0.0108
G2 X8.4355 Y68.1463 Z-3.1 I0.0062 J-0.0108
G2 X8.4167 Y68.1355 Z-3.1333 I-0.0125 J0.0
G2 Y68.1571 Z-3.1667 I0.0063 J0.0108
G2 X8.4355 Y68.1463 Z-3.2 I0.0062 J-0.0108
G2 X8.4167 Y68.1355 I-0.0125 J0.0
G2 Y68.1571 I0.0063 J0.0108
G2 X8.4355 Y68.1463 I0.0062 J-0.0108
G0 Z3.0
G0 X20.6755 Y68.3063
G0 Z0.01
G1 F1000.0 Z0.0
G2 F2000.0 X20.6567 Y68.2955 Z-0.0333 I-0.0125 J0.0
G2 Y68.3171 Z-0.0667 I0.0062 J0.0108
G2 X20.6755 Y68.3063 Z-0.1 I0.0063 J-0.0108
G2 X20.6567 Y68.2955 Z-0.1333 I-0.0125 J0.0
G2 Y68.3171 Z-0.1667 I0.0062 J0.0108
G2 X20.6755 Y68.3063 Z-0.2 I0.0063 J-0.0108
G2 X20.6567 Y68.2955 Z-0.2333 I-0.0125 J0.0
G2 Y68.3171 Z-0.2667 I0.0062 J0.0108
G2 X20.6755 Y68.3063 Z-0.3 I0.0063 J-0.0108
G2 X20.6567 Y68.2955 Z-0.3333 I-0.0125 J0.0
G2 Y68.3171 Z-0.3667 I0.0062 J0.0108
G2 X20.6755 Y68.3063 Z-0.4 I0.0063 J-0.0108
G2 X20.6567 Y68.2955 Z-0.4333 I-0.0125 J0.0
G2 Y68.3171 Z-0.4667 I0.0062 J0.0108
G2 X20.6755 Y68.3063 Z-0.5 I0.0063 J-0.0108
G2 X20.6567 Y68.2955 Z-0.5333 I-0.0125 J0.0
G2 Y68.3171 Z-0.5667 I0.0062 J0.0108
G2 X20.6755 Y68.3063 Z-0.6 I0.0063 J-0.0108
G2 X20.6567 Y68.2955 Z-0.6333 I-0.0125 J0.0
G2 Y68.3171 Z-0.6667 I0.0062 J0.0108
G2 X20.6755 Y68.3063 Z-0.7 I0.0063 J-0.0108
G2 X20.6567 Y68.2955 Z-0.7333 I-0.0125 J0.0
G2 Y68.3171 Z-0.7667 I0.0062 J0.0108
G2 X20.6755 Y68.3063 Z-0.8 I0.0063 J-0.0108
G2 X20.6567 Y68.2955 Z-0.8333 I-0.0125 J0.0
G2 Y68.3171 Z-0.8667 I0.0062 J0.0108
G2 X20.6755 Y68.3063 Z-0.9 I0.0063 J-0.0108
G2 X20.6567 Y68.2955 Z-0.9333 I-0.0125 J0.0
G2 Y68.3171 Z-0.9667 I0.0062 J0.0108
G2 X20.6755 Y68.3063 Z-1.0 I0.0063 J-0.0108
G2 X20.6567 Y68.2955 Z-1.0333 I-0.0125 J0.0
G2 Y68.3171 Z-1.0667 I0.0062 J0.0108
G2 X20.6755 Y68.3063 Z-1.1 I0.0063 J-0.0108
G2 X20.6567 Y68.2955 Z-1.1333 I-0.0125 J0.0
G2 Y68.3171 Z-1.1667 I0.0062 J0.0108
G2 X20.6755 Y68.3063 Z-1.2 I0.0063 J-0.0108
G2 X20.6567 Y68.2955 Z-1.2333 I-0.0125 J0.0
G2 Y68.3171 Z-1.2667 I0.0062 J0.0108
G2 X20.6755 Y68.3063 Z-1.3 I0.0063 J-0.0108
G2 X20.6567 Y68.2955 Z-1.3333 I-0.0125 J0.0
G2 Y68.3171 Z-1.3667 I0.0062 J0.0108
G2 X20.6755 Y68.3063 Z-1.4 I0.0063 J-0.0108
G2 X20.6567 Y68.2955 Z-1.4333 I-0.0125 J0.0
G2 Y68.3171 Z-1.4667 I0.0062 J0.0108
G2 X20.6755 Y68.3063 Z-1.5 I0.0063 J-0.0108
G2 X20.6567 Y68.2955 Z-1.5333 I-0.0125 J0.0
G2 Y68.3171 Z-1.5667 I0.0062 J0.0108
G2 X20.6755 Y68.3063 Z-1.6 I0.0063 J-0.0108
G2 X20.6567 Y68.2955 Z-1.6333 I-0.0125 J0.0
G2 Y68.3171 Z-1.6667 I0.0062 J0.0108
G2 X20.6755 Y68.3063 Z-1.7 I0.0063 J-0.0108
G2 X20.6567 Y68.2955 Z-1.7333 I-0.0125 J0.0
G2 Y68.3171 Z-1.7667 I0.0062 J0.0108
G2 X20.6755 Y68.3063 Z-1.8 I0.0063 J-0.0108
G2 X20.6567 Y68.2955 Z-1.8333 I-0.0125 J0.0
G2 Y68.3171 Z-1.8667 I0.0062 J0.0108
G2 X20.6755 Y68.3063 Z-1.9 I0.0063 J-0.0108
G2 X20.6567 Y68.2955 Z-1.9333 I-0.0125 J0.0
G2 Y68.3171 Z-1.9667 I0.0062 J0.0108
G2 X20.6755 Y68.3063 Z-2.0 I0.0063 J-0.0108
G2 X20.6567 Y68.2955 Z-2.0333 I-0.0125 J0.0
G2 Y68.3171 Z-2.0667 I0.0062 J0.0108
G2 X20.6755 Y68.3063 Z-2.1 I0.0063 J-0.0108
G2 X20.6567 Y68.2955 Z-2.1333 I-0.0125 J0.0
G2 Y68.3171 Z-2.1667 I0.0062 J0.0108
G2 X20.6755 Y68.3063 Z-2.2 I0.0063 J-0.0108
G2 X20.6567 Y68.2955 Z-2.2333 I-0.0125 J0.0
G2 Y68.3171 Z-2.2667 I0.0062 J0.0108
G2 X20.6755 Y68.3063 Z-2.3 I0.0063 J-0.0108
G2 X20.6567 Y68.2955 Z-2.3333 I-0.0125 J0.0
G2 Y68.3171 Z-2.3667 I0.0062 J0.0108
G2 X20.6755 Y68.3063 Z-2.4 I0.0063 J-0.0108
G2 X20.6567 Y68.2955 Z-2.4333 I-0.0125 J0.0
G2 Y68.3171 Z-2.4667 I0.0062 J0.0108
G2 X20.6755 Y68.3063 Z-2.5 I0.0063 J-0.0108
G2 X20.6567 Y68.2955 Z-2.5333 I-0.0125 J0.0
G2 Y68.3171 Z-2.5667 I0.0062 J0.0108
G2 X20.6755 Y68.3063 Z-2.6 I0.0063 J-0.0108
G2 X20.6567 Y68.2955 Z-2.6333 I-0.0125 J0.0
G2 Y68.3171 Z-2.6667 I0.0062 J0.0108
G2 X20.6755 Y68.3063 Z-2.7 I0.0063 J-0.0108
G2 X20.6567 Y68.2955 Z-2.7333 I-0.0125 J0.0
G2 Y68.3171 Z-2.7667 I0.0062 J0.0108
G2 X20.6755 Y68.3063 Z-2.8 I0.0063 J-0.0108
G2 X20.6567 Y68.2955 Z-2.8333 I-0.0125 J0.0
G2 Y68.3171 Z-2.8667 I0.0062 J0.0108
G2 X20.6755 Y68.3063 Z-2.9 I0.0063 J-0.0108
G2 X20.6567 Y68.2955 Z-2.9333 I-0.0125 J0.0
G2 Y68.3171 Z-2.9667 I0.0062 J0.0108
G2 X20.6755 Y68.3063 Z-3.0 I0.0063 J-0.0108
G2 X20.6567 Y68.2955 Z-3.0333 I-0.0125 J0.0
G2 Y68.3171 Z-3.0667 I0.0062 J0.0108
G2 X20.6755 Y68.3063 Z-3.1 I0.0063 J-0.0108
G2 X20.6567 Y68.2955 Z-3.1333 I-0.0125 J0.0
G2 Y68.3171 Z-3.1667 I0.0062 J0.0108
G2 X20.6755 Y68.3063 Z-3.2 I0.0063 J-0.0108
G2 X20.6567 Y68.2955 I-0.0125 J0.0
G2 Y68.3171 I0.0063 J0.0108
G2 X20.6755 Y68.3063 I0.0062 J-0.0108
G0 Z0.0
G2 X20.6567 Y68.2955 Z-0.0333 I-0.0125 J0.0
G2 Y68.3171 Z-0.0667 I0.0062 J0.0108
G2 X20.6755 Y68.3063 Z-0.1 I0.0063 J-0.0108
G2 X20.6567 Y68.2955 Z-0.1333 I-0.0125 J0.0
G2 Y68.3171 Z-0.1667 I0.0062 J0.0108
G2 X20.6755 Y68.3063 Z-0.2 I0.0063 J-0.0108
G2 X20.6567 Y68.2955 Z-0.2333 I-0.0125 J0.0
G2 Y68.3171 Z-0.2667 I0.0062 J0.0108
G2 X20.6755 Y68.3063 Z-0.3 I0.0063 J-0.0108
G2 X20.6567 Y68.2955 Z-0.3333 I-0.0125 J0.0
G2 Y68.3171 Z-0.3667 I0.0062 J0.0108
G2 X20.6755 Y68.3063 Z-0.4 I0.0063 J-0.0108
G2 X20.6567 Y68.2955 Z-0.4333 I-0.0125 J0.0
G2 Y68.3171 Z-0.4667 I0.0062 J0.0108
G2 X20.6755 Y68.3063 Z-0.5 I0.0063 J-0.0108
G2 X20.6567 Y68.2955 Z-0.5333 I-0.0125 J0.0
G2 Y68.3171 Z-0.5667 I0.0062 J0.0108
G2 X20.6755 Y68.3063 Z-0.6 I0.0063 J-0.0108
G2 X20.6567 Y68.2955 Z-0.6333 I-0.0125 J0.0
G2 Y68.3171 Z-0.6667 I0.0062 J0.0108
G2 X20.6755 Y68.3063 Z-0.7 I0.0063 J-0.0108
G2 X20.6567 Y68.2955 Z-0.7333 I-0.0125 J0.0
G2 Y68.3171 Z-0.7667 I0.0062 J0.0108
G2 X20.6755 Y68.3063 Z-0.8 I0.0063 J-0.0108
G2 X20.6567 Y68.2955 Z-0.8333 I-0.0125 J0.0
G2 Y68.3171 Z-0.8667 I0.0062 J0.0108
G2 X20.6755 Y68.3063 Z-0.9 I0.0063 J-0.0108
G2 X20.6567 Y68.2955 Z-0.9333 I-0.0125 J0.0
G2 Y68.3171 Z-0.9667 I0.0062 J0.0108
G2 X20.6755 Y68.3063 Z-1.0 I0.0063 J-0.0108
G2 X20.6567 Y68.2955 Z-1.0333 I-0.0125 J0.0
G2 Y68.3171 Z-1.0667 I0.0062 J0.0108
G2 X20.6755 Y68.3063 Z-1.1 I0.0063 J-0.0108
G2 X20.6567 Y68.2955 Z-1.1333 I-0.0125 J0.0
G2 Y68.3171 Z-1.1667 I0.0062 J0.0108
G2 X20.6755 Y68.3063 Z-1.2 I0.0063 J-0.0108
G2 X20.6567 Y68.2955 Z-1.2333 I-0.0125 J0.0
G2 Y68.3171 Z-1.2667 I0.0062 J0.0108
G2 X20.6755 Y68.3063 Z-1.3 I0.0063 J-0.0108
G2 X20.6567 Y68.2955 Z-1.3333 I-0.0125 J0.0
G2 Y68.3171 Z-1.3667 I0.0062 J0.0108
G2 X20.6755 Y68.3063 Z-1.4 I0.0063 J-0.0108
G2 X20.6567 Y68.2955 Z-1.4333 I-0.0125 J0.0
G2 Y68.3171 Z-1.4667 I0.0062 J0.0108
G2 X20.6755 Y68.3063 Z-1.5 I0.0063 J-0.0108
G2 X20.6567 Y68.2955 Z-1.5333 I-0.0125 J0.0
G2 Y68.3171 Z-1.5667 I0.0062 J0.0108
G2 X20.6755 Y68.3063 Z-1.6 I0.0063 J-0.0108
G2 X20.6567 Y68.2955 Z-1.6333 I-0.0125 J0.0
G2 Y68.3171 Z-1.6667 I0.0062 J0.0108
G2 X20.6755 Y68.3063 Z-1.7 I0.0063 J-0.0108
G2 X20.6567 Y68.2955 Z-1.7333 I-0.0125 J0.0
G2 Y68.3171 Z-1.7667 I0.0062 J0.0108
G2 X20.6755 Y68.3063 Z-1.8 I0.0063 J-0.0108
G2 X20.6567 Y68.2955 Z-1.8333 I-0.0125 J0.0
G2 Y68.3171 Z-1.8667 I0.0062 J0.0108
G2 X20.6755 Y68.3063 Z-1.9 I0.0063 J-0.0108
G2 X20.6567 Y68.2955 Z-1.9333 I-0.0125 J0.0
G2 Y68.3171 Z-1.9667 I0.0062 J0.0108
G2 X20.6755 Y68.3063 Z-2.0 I0.0063 J-0.0108
G2 X20.6567 Y68.2955 Z-2.0333 I-0.0125 J0.0
G2 Y68.3171 Z-2.0667 I0.0062 J0.0108
G2 X20.6755 Y68.3063 Z-2.1 I0.0063 J-0.0108
G2 X20.6567 Y68.2955 Z-2.1333 I-0.0125 J0.0
G2 Y68.3171 Z-2.1667 I0.0062 J0.0108
G2 X20.6755 Y68.3063 Z-2.2 I0.0063 J-0.0108
G2 X20.6567 Y68.2955 Z-2.2333 I-0.0125 J0.0
G2 Y68.3171 Z-2.2667 I0.0062 J0.0108
G2 X20.6755 Y68.3063 Z-2.3 I0.0063 J-0.0108
G2 X20.6567 Y68.2955 Z-2.3333 I-0.0125 J0.0
G2 Y68.3171 Z-2.3667 I0.0062 J0.0108
G2 X20.6755 Y68.3063 Z-2.4 I0.0063 J-0.0108
G2 X20.6567 Y68.2955 Z-2.4333 I-0.0125 J0.0
G2 Y68.3171 Z-2.4667 I0.0062 J0.0108
G2 X20.6755 Y68.3063 Z-2.5 I0.0063 J-0.0108
G2 X20.6567 Y68.2955 Z-2.5333 I-0.0125 J0.0
G2 Y68.3171 Z-2.5667 I0.0062 J0.0108
G2 X20.6755 Y68.3063 Z-2.6 I0.0063 J-0.0108
G2 X20.6567 Y68.2955 Z-2.6333 I-0.0125 J0.0
G2 Y68.3171 Z-2.6667 I0.0062 J0.0108
G2 X20.6755 Y68.3063 Z-2.7 I0.0063 J-0.0108
G2 X20.6567 Y68.2955 Z-2.7333 I-0.0125 J0.0
G2 Y68.3171 Z-2.7667 I0.0062 J0.0108
G2 X20.6755 Y68.3063 Z-2.8 I0.0063 J-0.0108
G2 X20.6567 Y68.2955 Z-2.8333 I-0.0125 J0.0
G2 Y68.3171 Z-2.8667 I0.0062 J0.0108
G2 X20.6755 Y68.3063 Z-2.9 I0.0063 J-0.0108
G2 X20.6567 Y68.2955 Z-2.9333 I-0.0125 J0.0
G2 Y68.3171 Z-2.9667 I0.0062 J0.0108
G2 X20.6755 Y68.3063 Z-3.0 I0.0063 J-0.0108
G2 X20.6567 Y68.2955 Z-3.0333 I-0.0125 J0.0
G2 Y68.3171 Z-3.0667 I0.0062 J0.0108
G2 X20.6755 Y68.3063 Z-3.1 I0.0063 J-0.0108
G2 X20.6567 Y68.2955 Z-3.1333 I-0.0125 J0.0
G2 Y68.3171 Z-3.1667 I0.0062 J0.0108
G2 X20.6755 Y68.3063 Z-3.2 I0.0063 J-0.0108
G2 X20.6567 Y68.2955 I-0.0125 J0.0
G2 Y68.3171 I0.0063 J0.0108
G2 X20.6755 Y68.3063 I0.0062 J-0.0108
G0 Z3.0
G0 X32.9155 Y68.4663
G0 Z0.01
G1 F1000.0 Z0.0
G2 F2000.0 X32.8967 Y68.4555 Z-0.0333 I-0.0125 J0.0
G2 Y68.4771 Z-0.0667 I0.0062 J0.0108
G2 X32.9155 Y68.4663 Z-0.1 I0.0063 J-0.0108
G2 X32.8967 Y68.4555 Z-0.1333 I-0.0125 J0.0
G2 Y68.4771 Z-0.1667 I0.0062 J0.0108
G2 X32.9155 Y68.4663 Z-0.2 I0.0063 J-0.0108
G2 X32.8967 Y68.4555 Z-0.2333 I-0.0125 J0.0
G2 Y68.4771 Z-0.2667 I0.0062 J0.0108
G2 X32.9155 Y68.4663 Z-0.3 I0.0063 J-0.0108
G2 X32.8967 Y68.4555 Z-0.3333 I-0.0125 J0.0
G2 Y68.4771 Z-0.3667 I0.0062 J0.0108
G2 X32.9155 Y68.4663 Z-0.4 I0.0063 J-0.0108
G2 X32.8967 Y68.4555 Z-0.4333 I-0.0125 J0.0
G2 Y68.4771 Z-0.4667 I0.0062 J0.0108
G2 X32.9155 Y68.4663 Z-0.5 I0.0063 J-0.0108
G2 X32.8967 Y68.4555 Z-0.5333 I-0.0125 J0.0
G2 Y68.4771 Z-0.5667 I0.0062 J0.0108
G2 X32.9155 Y68.4663 Z-0.6 I0.0063 J-0.0108
G2 X32.8967 Y68.4555 Z-0.6333 I-0.0125 J0.0
G2 Y68.4771 Z-0.6667 I0.0062 J0.0108
G2 X32.9155 Y68.4663 Z-0.7 I0.0063 J-0.0108
G2 X32.8967 Y68.4555 Z-0.7333 I-0.0125 J0.0
G2 Y68.4771 Z-0.7667 I0.0062 J0.0108
G2 X32.9155 Y68.4663 Z-0.8 I0.0063 J-0.0108
G2 X32.8967 Y68.4555 Z-0.8333 I-0.0125 J0.0
G2 Y68.4771 Z-0.8667 I0.0062 J0.0108
G2 X32.9155 Y68.4663 Z-0.9 I0.0063 J-0.0108
G2 X32.8967 Y68.4555 Z-0.9333 I-0.0125 J0.0
G2 Y68.4771 Z-0.9667 I0.0062 J0.0108
G2 X32.9155 Y68.4663 Z-1.0 I0.0063 J-0.0108
G2 X32.8967 Y68.4555 Z-1.0333 I-0.0125 J0.0
G2 Y68.4771 Z-1.0667 I0.0062 J0.0108
G2 X32.9155 Y68.4663 Z-1.1 I0.0063 J-0.0108
G2 X32.8967 Y68.4555 Z-1.1333 I-0.0125 J0.0
G2 Y68.4771 Z-1.1667 I0.0062 J0.0108
G2 X32.9155 Y68.4663 Z-1.2 I0.0063 J-0.0108
G2 X32.8967 Y68.4555 Z-1.2333 I-0.0125 J0.0
G2 Y68.4771 Z-1.2667 I0.0062 J0.0108
G2 X32.9155 Y68.4663 Z-1.3 I0.0063 J-0.0108
G2 X32.8967 Y68.4555 Z-1.3333 I-0.0125 J0.0
G2 Y68.4771 Z-1.3667 I0.0062 J0.0108
G2 X32.9155 Y68.4663 Z-1.4 I0.0063 J-0.0108
G2 X32.8967 Y68.4555 Z-1.4333 I-0.0125 J0.0
G2 Y68.4771 Z-1.4667 I0.0062 J0.0108
G2 X32.9155 Y68.4663 Z-1.5 I0.0063 J-0.0108
G2 X32.8967 Y68.4555 Z-1.5333 I-0.0125 J0.0
G2 Y68.4771 Z-1.5667 I0.0062 J0.0108
G2 X32.9155 Y68.4663 Z-1.6 I0.0063 J-0.0108
G2 X32.8967 Y68.4555 Z-1.6333 I-0.0125 J0.0
G2 Y68.4771 Z-1.6667 I0.0062 J0.0108
G2 X32.9155 Y68.4663 Z-1.7 I0.0063 J-0.0108
G2 X32.8967 Y68.4555 Z-1.7333 I-0.0125 J0.0
G2 Y68.4771 Z-1.7667 I0.0062 J0.0108
G2 X32.9155 Y68.4663 Z-1.8 I0.0063 J-0.0108
G2 X32.8967 Y68.4555 Z-1.8333 I-0.0125 J0.0
G2 Y68.4771 Z-1.8667 I0.0062 J0.0108
G2 X32.9155 Y68.4663 Z-1.9 I0.0063 J-0.0108
G2 X32.8967 Y68.4555 Z-1.9333 I-0.0125 J0.0
G2 Y68.4771 Z-1.9667 I0.0062 J0.0108
G2 X32.9155 Y68.4663 Z-2.0 I0.0063 J-0.0108
G2 X32.8967 Y68.4555 Z-2.0333 I-0.0125 J0.0
G2 Y68.4771 Z-2.0667 I0.0062 J0.0108
G2 X32.9155 Y68.4663 Z-2.1 I0.0063 J-0.0108
G2 X32.8967 Y68.4555 Z-2.1333 I-0.0125 J0.0
G2 Y68.4771 Z-2.1667 I0.0062 J0.0108
G2 X32.9155 Y68.4663 Z-2.2 I0.0063 J-0.0108
G2 X32.8967 Y68.4555 Z-2.2333 I-0.0125 J0.0
G2 Y68.4771 Z-2.2667 I0.0062 J0.0108
G2 X32.9155 Y68.4663 Z-2.3 I0.0063 J-0.0108
G2 X32.8967 Y68.4555 Z-2.3333 I-0.0125 J0.0
G2 Y68.4771 Z-2.3667 I0.0062 J0.0108
G2 X32.9155 Y68.4663 Z-2.4 I0.0063 J-0.0108
G2 X32.8967 Y68.4555 Z-2.4333 I-0.0125 J0.0
G2 Y68.4771 Z-2.4667 I0.0062 J0.0108
G2 X32.9155 Y68.4663 Z-2.5 I0.0063 J-0.0108
G2 X32.8967 Y68.4555 Z-2.5333 I-0.0125 J0.0
G2 Y68.4771 Z-2.5667 I0.0062 J0.0108
G2 X32.9155 Y68.4663 Z-2.6 I0.0063 J-0.0108
G2 X32.8967 Y68.4555 Z-2.6333 I-0.0125 J0.0
G2 Y68.4771 Z-2.6667 I0.0062 J0.0108
G2 X32.9155 Y68.4663 Z-2.7 I0.0063 J-0.0108
G2 X32.8967 Y68.4555 Z-2.7333 I-0.0125 J0.0
G2 Y68.4771 Z-2.7667 I0.0062 J0.0108
G2 X32.9155 Y68.4663 Z-2.8 I0.0063 J-0.0108
G2 X32.8967 Y68.4555 Z-2.8333 I-0.0125 J0.0
G2 Y68.4771 Z-2.8667 I0.0062 J0.0108
G2 X32.9155 Y68.4663 Z-2.9 I0.0063 J-0.0108
G2 X32.8967 Y68.4555 Z-2.9333 I-0.0125 J0.0
G2 Y68.4771 Z-2.9667 I0.0063 J0.0108
G2 X32.9155 Y68.4663 Z-3.0 I0.0063 J-0.0108
G2 X32.8967 Y68.4555 Z-3.0333 I-0.0125 J0.0
G2 Y68.4771 Z-3.0667 I0.0063 J0.0108
G2 X32.9155 Y68.4663 Z-3.1 I0.0063 J-0.0108
G2 X32.8967 Y68.4555 Z-3.1333 I-0.0125 J0.0
G2 Y68.4771 Z-3.1667 I0.0063 J0.0108
G2 X32.9155 Y68.4663 Z-3.2 I0.0063 J-0.0108
G2 X32.8967 Y68.4555 I-0.0125 J0.0
G2 Y68.4771 I0.0063 J0.0108
G2 X32.9155 Y68.4663 I0.0062 J-0.0108
G0 Z0.0
G2 X32.8967 Y68.4555 Z-0.0333 I-0.0125 J0.0
G2 Y68.4771 Z-0.0667 I0.0062 J0.0108
G2 X32.9155 Y68.4663 Z-0.1 I0.0063 J-0.0108
G2 X32.8967 Y68.4555 Z-0.1333 I-0.0125 J0.0
G2 Y68.4771 Z-0.1667 I0.0062 J0.0108
G2 X32.9155 Y68.4663 Z-0.2 I0.0063 J-0.0108
G2 X32.8967 Y68.4555 Z-0.2333 I-0.0125 J0.0
G2 Y68.4771 Z-0.2667 I0.0062 J0.0108
G2 X32.9155 Y68.4663 Z-0.3 I0.0063 J-0.0108
G2 X32.8967 Y68.4555 Z-0.3333 I-0.0125 J0.0
G2 Y68.4771 Z-0.3667 I0.0062 J0.0108
G2 X32.9155 Y68.4663 Z-0.4 I0.0063 J-0.0108
G2 X32.8967 Y68.4555 Z-0.4333 I-0.0125 J0.0
G2 Y68.4771 Z-0.4667 I0.0062 J0.0108
G2 X32.9155 Y68.4663 Z-0.5 I0.0063 J-0.0108
G2 X32.8967 Y68.4555 Z-0.5333 I-0.0125 J0.0
G2 Y68.4771 Z-0.5667 I0.0062 J0.0108
G2 X32.9155 Y68.4663 Z-0.6 I0.0063 J-0.0108
G2 X32.8967 Y68.4555 Z-0.6333 I-0.0125 J0.0
G2 Y68.4771 Z-0.6667 I0.0062 J0.0108
G2 X32.9155 Y68.4663 Z-0.7 I0.0063 J-0.0108
G2 X32.8967 Y68.4555 Z-0.7333 I-0.0125 J0.0
G2 Y68.4771 Z-0.7667 I0.0062 J0.0108
G2 X32.9155 Y68.4663 Z-0.8 I0.0063 J-0.0108
G2 X32.8967 Y68.4555 Z-0.8333 I-0.0125 J0.0
G2 Y68.4771 Z-0.8667 I0.0062 J0.0108
G2 X32.9155 Y68.4663 Z-0.9 I0.0063 J-0.0108
G2 X32.8967 Y68.4555 Z-0.9333 I-0.0125 J0.0
G2 Y68.4771 Z-0.9667 I0.0062 J0.0108
G2 X32.9155 Y68.4663 Z-1.0 I0.0063 J-0.0108
G2 X32.8967 Y68.4555 Z-1.0333 I-0.0125 J0.0
G2 Y68.4771 Z-1.0667 I0.0062 J0.0108
G2 X32.9155 Y68.4663 Z-1.1 I0.0063 J-0.0108
G2 X32.8967 Y68.4555 Z-1.1333 I-0.0125 J0.0
G2 Y68.4771 Z-1.1667 I0.0062 J0.0108
G2 X32.9155 Y68.4663 Z-1.2 I0.0063 J-0.0108
G2 X32.8967 Y68.4555 Z-1.2333 I-0.0125 J0.0
G2 Y68.4771 Z-1.2667 I0.0062 J0.0108
G2 X32.9155 Y68.4663 Z-1.3 I0.0063 J-0.0108
G2 X32.8967 Y68.4555 Z-1.3333 I-0.0125 J0.0
G2 Y68.4771 Z-1.3667 I0.0062 J0.0108
G2 X32.9155 Y68.4663 Z-1.4 I0.0063 J-0.0108
G2 X32.8967 Y68.4555 Z-1.4333 I-0.0125 J0.0
G2 Y68.4771 Z-1.4667 I0.0062 J0.0108
G2 X32.9155 Y68.4663 Z-1.5 I0.0063 J-0.0108
G2 X32.8967 Y68.4555 Z-1.5333 I-0.0125 J0.0
G2 Y68.4771 Z-1.5667 I0.0062 J0.0108
G2 X32.9155 Y68.4663 Z-1.6 I0.0063 J-0.0108
G2 X32.8967 Y68.4555 Z-1.6333 I-0.0125 J0.0
G2 Y68.4771 Z-1.6667 I0.0062 J0.0108
G2 X32.9155 Y68.4663 Z-1.7 I0.0063 J-0.0108
G2 X32.8967 Y68.4555 Z-1.7333 I-0.0125 J0.0
G2 Y68.4771 Z-1.7667 I0.0062 J0.0108
G2 X32.9155 Y68.4663 Z-1.8 I0.0063 J-0.0108
G2 X32.8967 Y68.4555 Z-1.8333 I-0.0125 J0.0
G2 Y68.4771 Z-1.8667 I0.0062 J0.0108
G2 X32.9155 Y68.4663 Z-1.9 I0.0063 J-0.0108
G2 X32.8967 Y68.4555 Z-1.9333 I-0.0125 J0.0
G2 Y68.4771 Z-1.9667 I0.0062 J0.0108
G2 X32.9155 Y68.4663 Z-2.0 I0.0063 J-0.0108
G2 X32.8967 Y68.4555 Z-2.0333 I-0.0125 J0.0
G2 Y68.4771 Z-2.0667 I0.0062 J0.0108
G2 X32.9155 Y68.4663 Z-2.1 I0.0063 J-0.0108
G2 X32.8967 Y68.4555 Z-2.1333 I-0.0125 J0.0
G2 Y68.4771 Z-2.1667 I0.0062 J0.0108
G2 X32.9155 Y68.4663 Z-2.2 I0.0063 J-0.0108
G2 X32.8967 Y68.4555 Z-2.2333 I-0.0125 J0.0
G2 Y68.4771 Z-2.2667 I0.0062 J0.0108
G2 X32.9155 Y68.4663 Z-2.3 I0.0063 J-0.0108
G2 X32.8967 Y68.4555 Z-2.3333 I-0.0125 J0.0
G2 Y68.4771 Z-2.3667 I0.0062 J0.0108
G2 X32.9155 Y68.4663 Z-2.4 I0.0063 J-0.0108
G2 X32.8967 Y68.4555 Z-2.4333 I-0.0125 J0.0
G2 Y68.4771 Z-2.4667 I0.0062 J0.0108
G2 X32.9155 Y68.4663 Z-2.5 I0.0063 J-0.0108
G2 X32.8967 Y68.4555 Z-2.5333 I-0.0125 J0.0
G2 Y68.4771 Z-2.5667 I0.0062 J0.0108
G2 X32.9155 Y68.4663 Z-2.6 I0.0063 J-0.0108
G2 X32.8967 Y68.4555 Z-2.6333 I-0.0125 J0.0
G2 Y68.4771 Z-2.6667 I0.0062 J0.0108
G2 X32.9155 Y68.4663 Z-2.7 I0.0063 J-0.0108
G2 X32.8967 Y68.4555 Z-2.7333 I-0.0125 J0.0
G2 Y68.4771 Z-2.7667 I0.0062 J0.0108
G2 X32.9155 Y68.4663 Z-2.8 I0.0063 J-0.0108
G2 X32.8967 Y68.4555 Z-2.8333 I-0.0125 J0.0
G2 Y68.4771 Z-2.8667 I0.0062 J0.0108
G2 X32.9155 Y68.4663 Z-2.9 I0.0063 J-0.0108
G2 X32.8967 Y68.4555 Z-2.9333 I-0.0125 J0.0
G2 Y68.4771 Z-2.9667 I0.0063 J0.0108
G2 X32.9155 Y68.4663 Z-3.0 I0.0063 J-0.0108
G2 X32.8967 Y68.4555 Z-3.0333 I-0.0125 J0.0
G2 Y68.4771 Z-3.0667 I0.0063 J0.0108
G2 X32.9155 Y68.4663 Z-3.1 I0.0063 J-0.0108
G2 X32.8967 Y68.4555 Z-3.1333 I-0.0125 J0.0
G2 Y68.4771 Z-3.1667 I0.0063 J0.0108
G2 X32.9155 Y68.4663 Z-3.2 I0.0063 J-0.0108
G2 X32.8967 Y68.4555 I-0.0125 J0.0
G2 Y68.4771 I0.0063 J0.0108
G2 X32.9155 Y68.4663 I0.0062 J-0.0108
G0 Z3.0
G0 X32.9332 Y56.2189
G0 Z0.01
G1 F1000.0 Z0.0
G2 F2000.0 X32.9145 Y56.2081 Z-0.0333 I-0.0125 J0.0
G2 Y56.2297 Z-0.0667 I0.0063 J0.0108
G2 X32.9332 Y56.2189 Z-0.1 I0.0063 J-0.0108
G2 X32.9145 Y56.2081 Z-0.1333 I-0.0125 J0.0
G2 Y56.2297 Z-0.1667 I0.0063 J0.0108
G2 X32.9332 Y56.2189 Z-0.2 I0.0063 J-0.0108
G2 X32.9145 Y56.2081 Z-0.2333 I-0.0125 J0.0
G2 Y56.2297 Z-0.2667 I0.0063 J0.0108
G2 X32.9332 Y56.2189 Z-0.3 I0.0063 J-0.0108
G2 X32.9145 Y56.2081 Z-0.3333 I-0.0125 J0.0
G2 Y56.2297 Z-0.3667 I0.0063 J0.0108
G2 X32.9332 Y56.2189 Z-0.4 I0.0063 J-0.0108
G2 X32.9145 Y56.2081 Z-0.4333 I-0.0125 J0.0
G2 Y56.2297 Z-0.4667 I0.0063 J0.0108
G2 X32.9332 Y56.2189 Z-0.5 I0.0063 J-0.0108
G2 X32.9145 Y56.2081 Z-0.5333 I-0.0125 J0.0
G2 Y56.2297 Z-0.5667 I0.0063 J0.0108
G2 X32.9332 Y56.2189 Z-0.6 I0.0063 J-0.0108
G2 X32.9145 Y56.2081 Z-0.6333 I-0.0125 J0.0
G2 Y56.2297 Z-0.6667 I0.0063 J0.0108
G2 X32.9332 Y56.2189 Z-0.7 I0.0063 J-0.0108
G2 X32.9145 Y56.2081 Z-0.7333 I-0.0125 J0.0
G2 Y56.2297 Z-0.7667 I0.0063 J0.0108
G2 X32.9332 Y56.2189 Z-0.8 I0.0063 J-0.0108
G2 X32.9145 Y56.2081 Z-0.8333 I-0.0125 J0.0
G2 Y56.2297 Z-0.8667 I0.0063 J0.0108
G2 X32.9332 Y56.2189 Z-0.9 I0.0063 J-0.0108
G2 X32.9145 Y56.2081 Z-0.9333 I-0.0125 J0.0
G2 Y56.2297 Z-0.9667 I0.0063 J0.0108
G2 X32.9332 Y56.2189 Z-1.0 I0.0063 J-0.0108
G2 X32.9145 Y56.2081 Z-1.0333 I-0.0125 J0.0
G2 Y56.2297 Z-1.0667 I0.0063 J0.0108
G2 X32.9332 Y56.2189 Z-1.1 I0.0063 J-0.0108
G2 X32.9145 Y56.2081 Z-1.1333 I-0.0125 J0.0
G2 Y56.2297 Z-1.1667 I0.0063 J0.0108
G2 X32.9332 Y56.2189 Z-1.2 I0.0063 J-0.0108
G2 X32.9145 Y56.2081 Z-1.2333 I-0.0125 J0.0
G2 Y56.2297 Z-1.2667 I0.0063 J0.0108
G2 X32.9332 Y56.2189 Z-1.3 I0.0063 J-0.0108
G2 X32.9145 Y56.2081 Z-1.3333 I-0.0125 J0.0
G2 Y56.2297 Z-1.3667 I0.0063 J0.0108
G2 X32.9332 Y56.2189 Z-1.4 I0.0063 J-0.0108
G2 X32.9145 Y56.2081 Z-1.4333 I-0.0125 J0.0
G2 Y56.2297 Z-1.4667 I0.0063 J0.0108
G2 X32.9332 Y56.2189 Z-1.5 I0.0063 J-0.0108
G2 X32.9145 Y56.2081 Z-1.5333 I-0.0125 J0.0
G2 Y56.2297 Z-1.5667 I0.0063 J0.0108
G2 X32.9332 Y56.2189 Z-1.6 I0.0063 J-0.0108
G2 X32.9145 Y56.2081 Z-1.6333 I-0.0125 J0.0
G2 Y56.2297 Z-1.6667 I0.0063 J0.0108
G2 X32.9332 Y56.2189 Z-1.7 I0.0063 J-0.0108
G2 X32.9145 Y56.2081 Z-1.7333 I-0.0125 J0.0
G2 Y56.2297 Z-1.7667 I0.0063 J0.0108
G2 X32.9332 Y56.2189 Z-1.8 I0.0063 J-0.0108
G2 X32.9145 Y56.2081 Z-1.8333 I-0.0125 J0.0
G2 Y56.2297 Z-1.8667 I0.0063 J0.0108
G2 X32.9332 Y56.2189 Z-1.9 I0.0063 J-0.0108
G2 X32.9145 Y56.2081 Z-1.9333 I-0.0125 J0.0
G2 Y56.2297 Z-1.9667 I0.0063 J0.0108
G2 X32.9332 Y56.2189 Z-2.0 I0.0063 J-0.0108
G2 X32.9145 Y56.2081 Z-2.0333 I-0.0125 J0.0
G2 Y56.2297 Z-2.0667 I0.0063 J0.0108
G2 X32.9332 Y56.2189 Z-2.1 I0.0063 J-0.0108
G2 X32.9145 Y56.2081 Z-2.1333 I-0.0125 J0.0
G2 Y56.2297 Z-2.1667 I0.0063 J0.0108
G2 X32.9332 Y56.2189 Z-2.2 I0.0063 J-0.0108
G2 X32.9145 Y56.2081 Z-2.2333 I-0.0125 J0.0
G2 Y56.2297 Z-2.2667 I0.0063 J0.0108
G2 X32.9332 Y56.2189 Z-2.3 I0.0063 J-0.0108
G2 X32.9145 Y56.2081 Z-2.3333 I-0.0125 J0.0
G2 Y56.2297 Z-2.3667 I0.0063 J0.0108
G2 X32.9332 Y56.2189 Z-2.4 I0.0063 J-0.0108
G2 X32.9145 Y56.2081 Z-2.4333 I-0.0125 J0.0
G2 Y56.2297 Z-2.4667 I0.0063 J0.0108
G2 X32.9332 Y56.2189 Z-2.5 I0.0063 J-0.0108
G2 X32.9145 Y56.2081 Z-2.5333 I-0.0125 J0.0
G2 Y56.2297 Z-2.5667 I0.0063 J0.0108
G2 X32.9332 Y56.2189 Z-2.6 I0.0063 J-0.0108
G2 X32.9145 Y56.2081 Z-2.6333 I-0.0125 J0.0
G2 Y56.2297 Z-2.6667 I0.0063 J0.0108
G2 X32.9332 Y56.2189 Z-2.7 I0.0063 J-0.0108
G2 X32.9145 Y56.2081 Z-2.7333 I-0.0125 J0.0
G2 Y56.2297 Z-2.7667 I0.0063 J0.0108
G2 X32.9332 Y56.2189 Z-2.8 I0.0063 J-0.0108
G2 X32.9145 Y56.2081 Z-2.8333 I-0.0125 J0.0
G2 Y56.2297 Z-2.8667 I0.0063 J0.0108
G2 X32.9332 Y56.2189 Z-2.9 I0.0063 J-0.0108
G2 X32.9145 Y56.2081 Z-2.9333 I-0.0125 J0.0
G2 Y56.2297 Z-2.9667 I0.0063 J0.0108
G2 X32.9332 Y56.2189 Z-3.0 I0.0062 J-0.0108
G2 X32.9145 Y56.2081 Z-3.0333 I-0.0125 J0.0
G2 Y56.2297 Z-3.0667 I0.0063 J0.0108
G2 X32.9332 Y56.2189 Z-3.1 I0.0062 J-0.0108
G2 X32.9145 Y56.2081 Z-3.1333 I-0.0125 J0.0
G2 Y56.2297 Z-3.1667 I0.0063 J0.0108
G2 X32.9332 Y56.2189 Z-3.2 I0.0062 J-0.0108
G2 X32.9145 Y56.2081 I-0.0125 J0.0
G2 Y56.2297 I0.0063 J0.0108
G2 X32.9332 Y56.2189 I0.0062 J-0.0108
G0 Z3.0
G0 X20.6932 Y56.0589
G0 Z0.01
G1 F1000.0 Z0.0
G2 F2000.0 X20.6745 Y56.0481 Z-0.0333 I-0.0125 J0.0
G2 Y56.0697 Z-0.0667 I0.0063 J0.0108
G2 X20.6932 Y56.0589 Z-0.1 I0.0062 J-0.0108
G2 X20.6745 Y56.0481 Z-0.1333 I-0.0125 J0.0
G2 Y56.0697 Z-0.1667 I0.0063 J0.0108
G2 X20.6932 Y56.0589 Z-0.2 I0.0062 J-0.0108
G2 X20.6745 Y56.0481 Z-0.2333 I-0.0125 J0.0
G2 Y56.0697 Z-0.2667 I0.0063 J0.0108
G2 X20.6932 Y56.0589 Z-0.3 I0.0062 J-0.0108
G2 X20.6745 Y56.0481 Z-0.3333 I-0.0125 J0.0
G2 Y56.0697 Z-0.3667 I0.0063 J0.0108
G2 X20.6932 Y56.0589 Z-0.4 I0.0062 J-0.0108
G2 X20.6745 Y56.0481 Z-0.4333 I-0.0125 J0.0
G2 Y56.0697 Z-0.4667 I0.0063 J0.0108
G2 X20.6932 Y56.0589 Z-0.5 I0.0062 J-0.0108
G2 X20.6745 Y56.0481 Z-0.5333 I-0.0125 J0.0
G2 Y56.0697 Z-0.5667 I0.0063 J0.0108
G2 X20.6932 Y56.0589 Z-0.6 I0.0062 J-0.0108
G2 X20.6745 Y56.0481 Z-0.6333 I-0.0125 J0.0
G2 Y56.0697 Z-0.6667 I0.0063 J0.0108
G2 X20.6932 Y56.0589 Z-0.7 I0.0062 J-0.0108
G2 X20.6745 Y56.0481 Z-0.7333 I-0.0125 J0.0
G2 Y56.0697 Z-0.7667 I0.0063 J0.0108
G2 X20.6932 Y56.0589 Z-0.8 I0.0062 J-0.0108
G2 X20.6745 Y56.0481 Z-0.8333 I-0.0125 J0.0
G2 Y56.0697 Z-0.8667 I0.0063 J0.0108
G2 X20.6932 Y56.0589 Z-0.9 I0.0062 J-0.0108
G2 X20.6745 Y56.0481 Z-0.9333 I-0.0125 J0.0
G2 Y56.0697 Z-0.9667 I0.0063 J0.0108
G2 X20.6932 Y56.0589 Z-1.0 I0.0062 J-0.0108
G2 X20.6745 Y56.0481 Z-1.0333 I-0.0125 J0.0
G2 Y56.0697 Z-1.0667 I0.0063 J0.0108
G2 X20.6932 Y56.0589 Z-1.1 I0.0062 J-0.0108
G2 X20.6745 Y56.0481 Z-1.1333 I-0.0125 J0.0
G2 Y56.0697 Z-1.1667 I0.0063 J0.0108
G2 X20.6932 Y56.0589 Z-1.2 I0.0062 J-0.0108
G2 X20.6745 Y56.0481 Z-1.2333 I-0.0125 J0.0
G2 Y56.0697 Z-1.2667 I0.0063 J0.0108
G2 X20.6932 Y56.0589 Z-1.3 I0.0062 J-0.0108
G2 X20.6745 Y56.0481 Z-1.3333 I-0.0125 J0.0
G2 Y56.0697 Z-1.3667 I0.0063 J0.0108
G2 X20.6932 Y56.0589 Z-1.4 I0.0062 J-0.0108
G2 X20.6745 Y56.0481 Z-1.4333 I-0.0125 J0.0
G2 Y56.0697 Z-1.4667 I0.0063 J0.0108
G2 X20.6932 Y56.0589 Z-1.5 I0.0062 J-0.0108
G2 X20.6745 Y56.0481 Z-1.5333 I-0.0125 J0.0
G2 Y56.0697 Z-1.5667 I0.0063 J0.0108
G2 X20.6932 Y56.0589 Z-1.6 I0.0062 J-0.0108
G2 X20.6745 Y56.0481 Z-1.6333 I-0.0125 J0.0
G2 Y56.0697 Z-1.6667 I0.0063 J0.0108
G2 X20.6932 Y56.0589 Z-1.7 I0.0062 J-0.0108
G2 X20.6745 Y56.0481 Z-1.7333 I-0.0125 J0.0
G2 Y56.0697 Z-1.7667 I0.0063 J0.0108
G2 X20.6932 Y56.0589 Z-1.8 I0.0062 J-0.0108
G2 X20.6745 Y56.0481 Z-1.8333 I-0.0125 J0.0
G2 Y56.0697 Z-1.8667 I0.0063 J0.0108
G2 X20.6932 Y56.0589 Z-1.9 I0.0062 J-0.0108
G2 X20.6745 Y56.0481 Z-1.9333 I-0.0125 J0.0
G2 Y56.0697 Z-1.9667 I0.0063 J0.0108
G2 X20.6932 Y56.0589 Z-2.0 I0.0062 J-0.0108
G2 X20.6745 Y56.0481 Z-2.0333 I-0.0125 J0.0
G2 Y56.0697 Z-2.0667 I0.0063 J0.0108
G2 X20.6932 Y56.0589 Z-2.1 I0.0062 J-0.0108
G2 X20.6745 Y56.0481 Z-2.1333 I-0.0125 J0.0
G2 Y56.0697 Z-2.1667 I0.0063 J0.0108
G2 X20.6932 Y56.0589 Z-2.2 I0.0062 J-0.0108
G2 X20.6745 Y56.0481 Z-2.2333 I-0.0125 J0.0
G2 Y56.0697 Z-2.2667 I0.0063 J0.0108
G2 X20.6932 Y56.0589 Z-2.3 I0.0062 J-0.0108
G2 X20.6745 Y56.0481 Z-2.3333 I-0.0125 J0.0
G2 Y56.0697 Z-2.3667 I0.0063 J0.0108
G2 X20.6932 Y56.0589 Z-2.4 I0.0062 J-0.0108
G2 X20.6745 Y56.0481 Z-2.4333 I-0.0125 J0.0
G2 Y56.0697 Z-2.4667 I0.0063 J0.0108
G2 X20.6932 Y56.0589 Z-2.5 I0.0062 J-0.0108
G2 X20.6745 Y56.0481 Z-2.5333 I-0.0125 J0.0
G2 Y56.0697 Z-2.5667 I0.0063 J0.0108
G2 X20.6932 Y56.0589 Z-2.6 I0.0062 J-0.0108
G2 X20.6745 Y56.0481 Z-2.6333 I-0.0125 J0.0
G2 Y56.0697 Z-2.6667 I0.0063 J0.0108
G2 X20.6932 Y56.0589 Z-2.7 I0.0062 J-0.0108
G2 X20.6745 Y56.0481 Z-2.7333 I-0.0125 J0.0
G2 Y56.0697 Z-2.7667 I0.0063 J0.0108
G2 X20.6932 Y56.0589 Z-2.8 I0.0062 J-0.0108
G2 X20.6745 Y56.0481 Z-2.8333 I-0.0125 J0.0
G2 Y56.0697 Z-2.8667 I0.0063 J0.0108
G2 X20.6932 Y56.0589 Z-2.9 I0.0062 J-0.0108
G2 X20.6745 Y56.0481 Z-2.9333 I-0.0125 J0.0
G2 Y56.0697 Z-2.9667 I0.0063 J0.0108
G2 X20.6932 Y56.0589 Z-3.0 I0.0062 J-0.0108
G2 X20.6745 Y56.0481 Z-3.0333 I-0.0125 J0.0
G2 Y56.0697 Z-3.0667 I0.0063 J0.0108
G2 X20.6932 Y56.0589 Z-3.1 I0.0062 J-0.0108
G2 X20.6745 Y56.0481 Z-3.1333 I-0.0125 J0.0
G2 Y56.0697 Z-3.1667 I0.0063 J0.0108
G2 X20.6932 Y56.0589 Z-3.2 I0.0062 J-0.0108
G2 X20.6745 Y56.0481 I-0.0125 J0.0
G2 Y56.0697 I0.0063 J0.0108
G2 X20.6932 Y56.0589 I0.0062 J-0.0108
G0 Z3.0
G0 X8.4532 Y55.8989
G0 Z0.01
G1 F1000.0 Z0.0
G2 F2000.0 X8.4345 Y55.8881 Z-0.0333 I-0.0125 J0.0
G2 Y55.9097 Z-0.0667 I0.0063 J0.0108
G2 X8.4532 Y55.8989 Z-0.1 I0.0062 J-0.0108
G2 X8.4345 Y55.8881 Z-0.1333 I-0.0125 J0.0
G2 Y55.9097 Z-0.1667 I0.0063 J0.0108
G2 X8.4532 Y55.8989 Z-0.2 I0.0062 J-0.0108
G2 X8.4345 Y55.8881 Z-0.2333 I-0.0125 J0.0
G2 Y55.9097 Z-0.2667 I0.0063 J0.0108
G2 X8.4532 Y55.8989 Z-0.3 I0.0062 J-0.0108
G2 X8.4345 Y55.8881 Z-0.3333 I-0.0125 J0.0
G2 Y55.9097 Z-0.3667 I0.0063 J0.0108
G2 X8.4532 Y55.8989 Z-0.4 I0.0062 J-0.0108
G2 X8.4345 Y55.8881 Z-0.4333 I-0.0125 J0.0
G2 Y55.9097 Z-0.4667 I0.0063 J0.0108
G2 X8.4532 Y55.8989 Z-0.5 I0.0062 J-0.0108
G2 X8.4345 Y55.8881 Z-0.5333 I-0.0125 J0.0
G2 Y55.9097 Z-0.5667 I0.0063 J0.0108
G2 X8.4532 Y55.8989 Z-0.6 I0.0062 J-0.0108
G2 X8.4345 Y55.8881 Z-0.6333 I-0.0125 J0.0
G2 Y55.9097 Z-0.6667 I0.0063 J0.0108
G2 X8.4532 Y55.8989 Z-0.7 I0.0062 J-0.0108
G2 X8.4345 Y55.8881 Z-0.7333 I-0.0125 J0.0
G2 Y55.9097 Z-0.7667 I0.0063 J0.0108
G2 X8.4532 Y55.8989 Z-0.8 I0.0062 J-0.0108
G2 X8.4345 Y55.8881 Z-0.8333 I-0.0125 J0.0
G2 Y55.9097 Z-0.8667 I0.0063 J0.0108
G2 X8.4532 Y55.8989 Z-0.9 I0.0062 J-0.0108
G2 X8.4345 Y55.8881 Z-0.9333 I-0.0125 J0.0
G2 Y55.9097 Z-0.9667 I0.0063 J0.0108
G2 X8.4532 Y55.8989 Z-1.0 I0.0062 J-0.0108
G2 X8.4345 Y55.8881 Z-1.0333 I-0.0125 J0.0
G2 Y55.9097 Z-1.0667 I0.0063 J0.0108
G2 X8.4532 Y55.8989 Z-1.1 I0.0062 J-0.0108
G2 X8.4345 Y55.8881 Z-1.1333 I-0.0125 J0.0
G2 Y55.9097 Z-1.1667 I0.0063 J0.0108
G2 X8.4532 Y55.8989 Z-1.2 I0.0062 J-0.0108
G2 X8.4345 Y55.8881 Z-1.2333 I-0.0125 J0.0
G2 Y55.9097 Z-1.2667 I0.0063 J0.0108
G2 X8.4532 Y55.8989 Z-1.3 I0.0062 J-0.0108
G2 X8.4345 Y55.8881 Z-1.3333 I-0.0125 J0.0
G2 Y55.9097 Z-1.3667 I0.0063 J0.0108
G2 X8.4532 Y55.8989 Z-1.4 I0.0062 J-0.0108
G2 X8.4345 Y55.8881 Z-1.4333 I-0.0125 J0.0
G2 Y55.9097 Z-1.4667 I0.0063 J0.0108
G2 X8.4532 Y55.8989 Z-1.5 I0.0062 J-0.0108
G2 X8.4345 Y55.8881 Z-1.5333 I-0.0125 J0.0
G2 Y55.9097 Z-1.5667 I0.0063 J0.0108
G2 X8.4532 Y55.8989 Z-1.6 I0.0062 J-0.0108
G2 X8.4345 Y55.8881 Z-1.6333 I-0.0125 J0.0
G2 Y55.9097 Z-1.6667 I0.0063 J0.0108
G2 X8.4532 Y55.8989 Z-1.7 I0.0062 J-0.0108
G2 X8.4345 Y55.8881 Z-1.7333 I-0.0125 J0.0
G2 Y55.9097 Z-1.7667 I0.0063 J0.0108
G2 X8.4532 Y55.8989 Z-1.8 I0.0062 J-0.0108
G2 X8.4345 Y55.8881 Z-1.8333 I-0.0125 J0.0
G2 Y55.9097 Z-1.8667 I0.0063 J0.0108
G2 X8.4532 Y55.8989 Z-1.9 I0.0062 J-0.0108
G2 X8.4345 Y55.8881 Z-1.9333 I-0.0125 J0.0
G2 Y55.9097 Z-1.9667 I0.0063 J0.0108
G2 X8.4532 Y55.8989 Z-2.0 I0.0062 J-0.0108
G2 X8.4345 Y55.8881 Z-2.0333 I-0.0125 J0.0
G2 Y55.9097 Z-2.0667 I0.0063 J0.0108
G2 X8.4532 Y55.8989 Z-2.1 I0.0062 J-0.0108
G2 X8.4345 Y55.8881 Z-2.1333 I-0.0125 J0.0
G2 Y55.9097 Z-2.1667 I0.0063 J0.0108
G2 X8.4532 Y55.8989 Z-2.2 I0.0062 J-0.0108
G2 X8.4345 Y55.8881 Z-2.2333 I-0.0125 J0.0
G2 Y55.9097 Z-2.2667 I0.0063 J0.0108
G2 X8.4532 Y55.8989 Z-2.3 I0.0062 J-0.0108
G2 X8.4345 Y55.8881 Z-2.3333 I-0.0125 J0.0
G2 Y55.9097 Z-2.3667 I0.0063 J0.0108
G2 X8.4532 Y55.8989 Z-2.4 I0.0062 J-0.0108
G2 X8.4345 Y55.8881 Z-2.4333 I-0.0125 J0.0
G2 Y55.9097 Z-2.4667 I0.0063 J0.0108
G2 X8.4532 Y55.8989 Z-2.5 I0.0062 J-0.0108
G2 X8.4345 Y55.8881 Z-2.5333 I-0.0125 J0.0
G2 Y55.9097 Z-2.5667 I0.0063 J0.0108
G2 X8.4532 Y55.8989 Z-2.6 I0.0062 J-0.0108
G2 X8.4345 Y55.8881 Z-2.6333 I-0.0125 J0.0
G2 Y55.9097 Z-2.6667 I0.0063 J0.0108
G2 X8.4532 Y55.8989 Z-2.7 I0.0062 J-0.0108
G2 X8.4345 Y55.8881 Z-2.7333 I-0.0125 J0.0
G2 Y55.9097 Z-2.7667 I0.0063 J0.0108
G2 X8.4532 Y55.8989 Z-2.8 I0.0062 J-0.0108
G2 X8.4345 Y55.8881 Z-2.8333 I-0.0125 J0.0
G2 Y55.9097 Z-2.8667 I0.0063 J0.0108
G2 X8.4532 Y55.8989 Z-2.9 I0.0062 J-0.0108
G2 X8.4345 Y55.8881 Z-2.9333 I-0.0125 J0.0
G2 Y55.9097 Z-2.9667 I0.0063 J0.0108
G2 X8.4532 Y55.8989 Z-3.0 I0.0062 J-0.0108
G2 X8.4345 Y55.8881 Z-3.0333 I-0.0125 J0.0
G2 Y55.9097 Z-3.0667 I0.0063 J0.0108
G2 X8.4532 Y55.8989 Z-3.1 I0.0062 J-0.0108
G2 X8.4345 Y55.8881 Z-3.1333 I-0.0125 J0.0
G2 Y55.9097 Z-3.1667 I0.0063 J0.0108
G2 X8.4532 Y55.8989 Z-3.2 I0.0062 J-0.0108
G2 X8.4345 Y55.8881 I-0.0125 J0.0
G2 Y55.9097 I0.0063 J0.0108
G2 X8.4532 Y55.8989 I0.0062 J-0.0108
G0 Z3.0
G0 X8.7684 Y42.5207
G0 Z0.01
G1 F1000.0 Z0.0
G2 F2000.0 X8.7497 Y42.5099 Z-0.0333 I-0.0125 J0.0
G2 Y42.5316 Z-0.0667 I0.0063 J0.0108
G2 X8.7684 Y42.5207 Z-0.1 I0.0062 J-0.0108
G2 X8.7497 Y42.5099 Z-0.1333 I-0.0125 J0.0
G2 Y42.5316 Z-0.1667 I0.0063 J0.0108
G2 X8.7684 Y42.5207 Z-0.2 I0.0062 J-0.0108
G2 X8.7497 Y42.5099 Z-0.2333 I-0.0125 J0.0
G2 Y42.5316 Z-0.2667 I0.0063 J0.0108
G2 X8.7684 Y42.5207 Z-0.3 I0.0062 J-0.0108
G2 X8.7497 Y42.5099 Z-0.3333 I-0.0125 J0.0
G2 Y42.5316 Z-0.3667 I0.0063 J0.0108
G2 X8.7684 Y42.5207 Z-0.4 I0.0062 J-0.0108
G2 X8.7497 Y42.5099 Z-0.4333 I-0.0125 J0.0
G2 Y42.5316 Z-0.4667 I0.0063 J0.0108
G2 X8.7684 Y42.5207 Z-0.5 I0.0062 J-0.0108
G2 X8.7497 Y42.5099 Z-0.5333 I-0.0125 J0.0
G2 Y42.5316 Z-0.5667 I0.0063 J0.0108
G2 X8.7684 Y42.5207 Z-0.6 I0.0062 J-0.0108
G2 X8.7497 Y42.5099 Z-0.6333 I-0.0125 J0.0
G2 Y42.5316 Z-0.6667 I0.0063 J0.0108
G2 X8.7684 Y42.5207 Z-0.7 I0.0062 J-0.0108
G2 X8.7497 Y42.5099 Z-0.7333 I-0.0125 J0.0
G2 Y42.5316 Z-0.7667 I0.0063 J0.0108
G2 X8.7684 Y42.5207 Z-0.8 I0.0062 J-0.0108
G2 X8.7497 Y42.5099 Z-0.8333 I-0.0125 J0.0
G2 Y42.5316 Z-0.8667 I0.0063 J0.0108
G2 X8.7684 Y42.5207 Z-0.9 I0.0062 J-0.0108
G2 X8.7497 Y42.5099 Z-0.9333 I-0.0125 J0.0
G2 Y42.5316 Z-0.9667 I0.0063 J0.0108
G2 X8.7684 Y42.5207 Z-1.0 I0.0062 J-0.0108
G2 X8.7497 Y42.5099 Z-1.0333 I-0.0125 J0.0
G2 Y42.5316 Z-1.0667 I0.0063 J0.0108
G2 X8.7684 Y42.5207 Z-1.1 I0.0062 J-0.0108
G2 X8.7497 Y42.5099 Z-1.1333 I-0.0125 J0.0
G2 Y42.5316 Z-1.1667 I0.0063 J0.0108
G2 X8.7684 Y42.5207 Z-1.2 I0.0062 J-0.0108
G2 X8.7497 Y42.5099 Z-1.2333 I-0.0125 J0.0
G2 Y42.5316 Z-1.2667 I0.0063 J0.0108
G2 X8.7684 Y42.5207 Z-1.3 I0.0062 J-0.0108
G2 X8.7497 Y42.5099 Z-1.3333 I-0.0125 J0.0
G2 Y42.5316 Z-1.3667 I0.0063 J0.0108
G2 X8.7684 Y42.5207 Z-1.4 I0.0062 J-0.0108
G2 X8.7497 Y42.5099 Z-1.4333 I-0.0125 J0.0
G2 Y42.5316 Z-1.4667 I0.0063 J0.0108
G2 X8.7684 Y42.5207 Z-1.5 I0.0062 J-0.0108
G2 X8.7497 Y42.5099 Z-1.5333 I-0.0125 J0.0
G2 Y42.5316 Z-1.5667 I0.0063 J0.0108
G2 X8.7684 Y42.5207 Z-1.6 I0.0062 J-0.0108
G2 X8.7497 Y42.5099 Z-1.6333 I-0.0125 J0.0
G2 Y42.5316 Z-1.6667 I0.0063 J0.0108
G2 X8.7684 Y42.5207 Z-1.7 I0.0062 J-0.0108
G2 X8.7497 Y42.5099 Z-1.7333 I-0.0125 J0.0
G2 Y42.5316 Z-1.7667 I0.0063 J0.0108
G2 X8.7684 Y42.5207 Z-1.8 I0.0062 J-0.0108
G2 X8.7497 Y42.5099 Z-1.8333 I-0.0125 J0.0
G2 Y42.5316 Z-1.8667 I0.0063 J0.0108
G2 X8.7684 Y42.5207 Z-1.9 I0.0062 J-0.0108
G2 X8.7497 Y42.5099 Z-1.9333 I-0.0125 J0.0
G2 Y42.5316 Z-1.9667 I0.0063 J0.0108
G2 X8.7684 Y42.5207 Z-2.0 I0.0062 J-0.0108
G2 X8.7497 Y42.5099 Z-2.0333 I-0.0125 J0.0
G2 Y42.5316 Z-2.0667 I0.0063 J0.0108
G2 X8.7684 Y42.5207 Z-2.1 I0.0062 J-0.0108
G2 X8.7497 Y42.5099 Z-2.1333 I-0.0125 J0.0
G2 Y42.5316 Z-2.1667 I0.0063 J0.0108
G2 X8.7684 Y42.5207 Z-2.2 I0.0062 J-0.0108
G2 X8.7497 Y42.5099 Z-2.2333 I-0.0125 J0.0
G2 Y42.5316 Z-2.2667 I0.0063 J0.0108
G2 X8.7684 Y42.5207 Z-2.3 I0.0062 J-0.0108
G2 X8.7497 Y42.5099 Z-2.3333 I-0.0125 J0.0
G2 Y42.5316 Z-2.3667 I0.0063 J0.0108
G2 X8.7684 Y42.5207 Z-2.4 I0.0062 J-0.0108
G2 X8.7497 Y42.5099 Z-2.4333 I-0.0125 J0.0
G2 Y42.5316 Z-2.4667 I0.0063 J0.0108
G2 X8.7684 Y42.5207 Z-2.5 I0.0062 J-0.0108
G2 X8.7497 Y42.5099 Z-2.5333 I-0.0125 J0.0
G2 Y42.5316 Z-2.5667 I0.0063 J0.0108
G2 X8.7684 Y42.5207 Z-2.6 I0.0062 J-0.0108
G2 X8.7497 Y42.5099 Z-2.6333 I-0.0125 J0.0
G2 Y42.5316 Z-2.6667 I0.0063 J0.0108
G2 X8.7684 Y42.5207 Z-2.7 I0.0062 J-0.0108
G2 X8.7497 Y42.5099 Z-2.7333 I-0.0125 J0.0
G2 Y42.5316 Z-2.7667 I0.0063 J0.0108
G2 X8.7684 Y42.5207 Z-2.8 I0.0062 J-0.0108
G2 X8.7497 Y42.5099 Z-2.8333 I-0.0125 J0.0
G2 Y42.5316 Z-2.8667 I0.0063 J0.0108
G2 X8.7684 Y42.5207 Z-2.9 I0.0062 J-0.0108
G2 X8.7497 Y42.5099 Z-2.9333 I-0.0125 J0.0
G2 Y42.5316 Z-2.9667 I0.0063 J0.0108
G2 X8.7684 Y42.5207 Z-3.0 I0.0062 J-0.0108
G2 X8.7497 Y42.5099 Z-3.0333 I-0.0125 J0.0
G2 Y42.5316 Z-3.0667 I0.0063 J0.0108
G2 X8.7684 Y42.5207 Z-3.1 I0.0062 J-0.0108
G2 X8.7497 Y42.5099 Z-3.1333 I-0.0125 J0.0
G2 Y42.5316 Z-3.1667 I0.0063 J0.0108
G2 X8.7684 Y42.5207 Z-3.2 I0.0062 J-0.0108
G2 X8.7497 Y42.5099 I-0.0125 J0.0
G2 Y42.5316 I0.0063 J0.0108
G2 X8.7684 Y42.5207 I0.0062 J-0.0108
G0 Z3.0
G0 X21.0084 Y42.6807
G0 Z0.01
G1 F1000.0 Z0.0
G2 F2000.0 X20.9897 Y42.6699 Z-0.0333 I-0.0125 J0.0
G2 Y42.6916 Z-0.0667 I0.0063 J0.0108
G2 X21.0084 Y42.6807 Z-0.1 I0.0062 J-0.0108
G2 X20.9897 Y42.6699 Z-0.1333 I-0.0125 J0.0
G2 Y42.6916 Z-0.1667 I0.0063 J0.0108
G2 X21.0084 Y42.6807 Z-0.2 I0.0062 J-0.0108
G2 X20.9897 Y42.6699 Z-0.2333 I-0.0125 J0.0
G2 Y42.6916 Z-0.2667 I0.0063 J0.0108
G2 X21.0084 Y42.6807 Z-0.3 I0.0062 J-0.0108
G2 X20.9897 Y42.6699 Z-0.3333 I-0.0125 J0.0
G2 Y42.6916 Z-0.3667 I0.0063 J0.0108
G2 X21.0084 Y42.6807 Z-0.4 I0.0062 J-0.0108
G2 X20.9897 Y42.6699 Z-0.4333 I-0.0125 J0.0
G2 Y42.6916 Z-0.4667 I0.0063 J0.0108
G2 X21.0084 Y42.6807 Z-0.5 I0.0062 J-0.0108
G2 X20.9897 Y42.6699 Z-0.5333 I-0.0125 J0.0
G2 Y42.6916 Z-0.5667 I0.0063 J0.0108
G2 X21.0084 Y42.6807 Z-0.6 I0.0062 J-0.0108
G2 X20.9897 Y42.6699 Z-0.6333 I-0.0125 J0.0
G2 Y42.6916 Z-0.6667 I0.0063 J0.0108
G2 X21.0084 Y42.6807 Z-0.7 I0.0062 J-0.0108
G2 X20.9897 Y42.6699 Z-0.7333 I-0.0125 J0.0
G2 Y42.6916 Z-0.7667 I0.0063 J0.0108
G2 X21.0084 Y42.6807 Z-0.8 I0.0062 J-0.0108
G2 X20.9897 Y42.6699 Z-0.8333 I-0.0125 J0.0
G2 Y42.6916 Z-0.8667 I0.0063 J0.0108
G2 X21.0084 Y42.6807 Z-0.9 I0.0062 J-0.0108
G2 X20.9897 Y42.6699 Z-0.9333 I-0.0125 J0.0
G2 Y42.6916 Z-0.9667 I0.0063 J0.0108
G2 X21.0084 Y42.6807 Z-1.0 I0.0062 J-0.0108
G2 X20.9897 Y42.6699 Z-1.0333 I-0.0125 J0.0
G2 Y42.6916 Z-1.0667 I0.0063 J0.0108
G2 X21.0084 Y42.6807 Z-1.1 I0.0062 J-0.0108
G2 X20.9897 Y42.6699 Z-1.1333 I-0.0125 J0.0
G2 Y42.6916 Z-1.1667 I0.0063 J0.0108
G2 X21.0084 Y42.6807 Z-1.2 I0.0062 J-0.0108
G2 X20.9897 Y42.6699 Z-1.2333 I-0.0125 J0.0
G2 Y42.6916 Z-1.2667 I0.0063 J0.0108
G2 X21.0084 Y42.6807 Z-1.3 I0.0062 J-0.0108
G2 X20.9897 Y42.6699 Z-1.3333 I-0.0125 J0.0
G2 Y42.6916 Z-1.3667 I0.0063 J0.0108
G2 X21.0084 Y42.6807 Z-1.4 I0.0062 J-0.0108
G2 X20.9897 Y42.6699 Z-1.4333 I-0.0125 J0.0
G2 Y42.6916 Z-1.4667 I0.0063 J0.0108
G2 X21.0084 Y42.6807 Z-1.5 I0.0062 J-0.0108
G2 X20.9897 Y42.6699 Z-1.5333 I-0.0125 J0.0
G2 Y42.6916 Z-1.5667 I0.0063 J0.0108
G2 X21.0084 Y42.6807 Z-1.6 I0.0062 J-0.0108
G2 X20.9897 Y42.6699 Z-1.6333 I-0.0125 J0.0
G2 Y42.6916 Z-1.6667 I0.0063 J0.0108
G2 X21.0084 Y42.6807 Z-1.7 I0.0062 J-0.0108
G2 X20.9897 Y42.6699 Z-1.7333 I-0.0125 J0.0
G2 Y42.6916 Z-1.7667 I0.0063 J0.0108
G2 X21.0084 Y42.6807 Z-1.8 I0.0062 J-0.0108
G2 X20.9897 Y42.6699 Z-1.8333 I-0.0125 J0.0
G2 Y42.6916 Z-1.8667 I0.0063 J0.0108
G2 X21.0084 Y42.6807 Z-1.9 I0.0062 J-0.0108
G2 X20.9897 Y42.6699 Z-1.9333 I-0.0125 J0.0
G2 Y42.6916 Z-1.9667 I0.0063 J0.0108
G2 X21.0084 Y42.6807 Z-2.0 I0.0062 J-0.0108
G2 X20.9897 Y42.6699 Z-2.0333 I-0.0125 J0.0
G2 Y42.6916 Z-2.0667 I0.0063 J0.0108
G2 X21.0084 Y42.6807 Z-2.1 I0.0062 J-0.0108
G2 X20.9897 Y42.6699 Z-2.1333 I-0.0125 J0.0
G2 Y42.6916 Z-2.1667 I0.0063 J0.0108
G2 X21.0084 Y42.6807 Z-2.2 I0.0062 J-0.0108
G2 X20.9897 Y42.6699 Z-2.2333 I-0.0125 J0.0
G2 Y42.6916 Z-2.2667 I0.0063 J0.0108
G2 X21.0084 Y42.6807 Z-2.3 I0.0062 J-0.0108
G2 X20.9897 Y42.6699 Z-2.3333 I-0.0125 J0.0
G2 Y42.6916 Z-2.3667 I0.0063 J0.0108
G2 X21.0084 Y42.6807 Z-2.4 I0.0062 J-0.0108
G2 X20.9897 Y42.6699 Z-2.4333 I-0.0125 J0.0
G2 Y42.6916 Z-2.4667 I0.0063 J0.0108
G2 X21.0084 Y42.6807 Z-2.5 I0.0062 J-0.0108
G2 X20.9897 Y42.6699 Z-2.5333 I-0.0125 J0.0
G2 Y42.6916 Z-2.5667 I0.0063 J0.0108
G2 X21.0084 Y42.6807 Z-2.6 I0.0062 J-0.0108
G2 X20.9897 Y42.6699 Z-2.6333 I-0.0125 J0.0
G2 Y42.6916 Z-2.6667 I0.0063 J0.0108
G2 X21.0084 Y42.6807 Z-2.7 I0.0062 J-0.0108
G2 X20.9897 Y42.6699 Z-2.7333 I-0.0125 J0.0
G2 Y42.6916 Z-2.7667 I0.0063 J0.0108
G2 X21.0084 Y42.6807 Z-2.8 I0.0062 J-0.0108
G2 X20.9897 Y42.6699 Z-2.8333 I-0.0125 J0.0
G2 Y42.6916 Z-2.8667 I0.0063 J0.0108
G2 X21.0084 Y42.6807 Z-2.9 I0.0062 J-0.0108
G2 X20.9897 Y42.6699 Z-2.9333 I-0.0125 J0.0
G2 Y42.6916 Z-2.9667 I0.0063 J0.0108
G2 X21.0084 Y42.6807 Z-3.0 I0.0062 J-0.0108
G2 X20.9897 Y42.6699 Z-3.0333 I-0.0125 J0.0
G2 Y42.6916 Z-3.0667 I0.0063 J0.0108
G2 X21.0084 Y42.6807 Z-3.1 I0.0062 J-0.0108
G2 X20.9897 Y42.6699 Z-3.1333 I-0.0125 J0.0
G2 Y42.6916 Z-3.1667 I0.0063 J0.0108
G2 X21.0084 Y42.6807 Z-3.2 I0.0062 J-0.0108
G2 X20.9897 Y42.6699 I-0.0125 J0.0
G2 Y42.6916 I0.0063 J0.0108
G2 X21.0084 Y42.6807 I0.0062 J-0.0108
G0 Z3.0
G0 X33.2484 Y42.8407
G0 Z0.01
G1 F1000.0 Z0.0
G2 F2000.0 X33.2297 Y42.8299 Z-0.0333 I-0.0125 J0.0
G2 Y42.8516 Z-0.0667 I0.0063 J0.0108
G2 X33.2484 Y42.8407 Z-0.1 I0.0063 J-0.0108
G2 X33.2297 Y42.8299 Z-0.1333 I-0.0125 J0.0
G2 Y42.8516 Z-0.1667 I0.0063 J0.0108
G2 X33.2484 Y42.8407 Z-0.2 I0.0063 J-0.0108
G2 X33.2297 Y42.8299 Z-0.2333 I-0.0125 J0.0
G2 Y42.8516 Z-0.2667 I0.0063 J0.0108
G2 X33.2484 Y42.8407 Z-0.3 I0.0063 J-0.0108
G2 X33.2297 Y42.8299 Z-0.3333 I-0.0125 J0.0
G2 Y42.8516 Z-0.3667 I0.0063 J0.0108
G2 X33.2484 Y42.8407 Z-0.4 I0.0063 J-0.0108
G2 X33.2297 Y42.8299 Z-0.4333 I-0.0125 J0.0
G2 Y42.8516 Z-0.4667 I0.0063 J0.0108
G2 X33.2484 Y42.8407 Z-0.5 I0.0063 J-0.0108
G2 X33.2297 Y42.8299 Z-0.5333 I-0.0125 J0.0
G2 Y42.8516 Z-0.5667 I0.0063 J0.0108
G2 X33.2484 Y42.8407 Z-0.6 I0.0063 J-0.0108
G2 X33.2297 Y42.8299 Z-0.6333 I-0.0125 J0.0
G2 Y42.8516 Z-0.6667 I0.0063 J0.0108
G2 X33.2484 Y42.8407 Z-0.7 I0.0063 J-0.0108
G2 X33.2297 Y42.8299 Z-0.7333 I-0.0125 J0.0
G2 Y42.8516 Z-0.7667 I0.0063 J0.0108
G2 X33.2484 Y42.8407 Z-0.8 I0.0063 J-0.0108
G2 X33.2297 Y42.8299 Z-0.8333 I-0.0125 J0.0
G2 Y42.8516 Z-0.8667 I0.0063 J0.0108
G2 X33.2484 Y42.8407 Z-0.9 I0.0063 J-0.0108
G2 X33.2297 Y42.8299 Z-0.9333 I-0.0125 J0.0
G2 Y42.8516 Z-0.9667 I0.0063 J0.0108
G2 X33.2484 Y42.8407 Z-1.0 I0.0063 J-0.0108
G2 X33.2297 Y42.8299 Z-1.0333 I-0.0125 J0.0
G2 Y42.8516 Z-1.0667 I0.0063 J0.0108
G2 X33.2484 Y42.8407 Z-1.1 I0.0063 J-0.0108
G2 X33.2297 Y42.8299 Z-1.1333 I-0.0125 J0.0
G2 Y42.8516 Z-1.1667 I0.0063 J0.0108
G2 X33.2484 Y42.8407 Z-1.2 I0.0063 J-0.0108
G2 X33.2297 Y42.8299 Z-1.2333 I-0.0125 J0.0
G2 Y42.8516 Z-1.2667 I0.0063 J0.0108
G2 X33.2484 Y42.8407 Z-1.3 I0.0063 J-0.0108
G2 X33.2297 Y42.8299 Z-1.3333 I-0.0125 J0.0
G2 Y42.8516 Z-1.3667 I0.0063 J0.0108
G2 X33.2484 Y42.8407 Z-1.4 I0.0063 J-0.0108
G2 X33.2297 Y42.8299 Z-1.4333 I-0.0125 J0.0
G2 Y42.8516 Z-1.4667 I0.0063 J0.0108
G2 X33.2484 Y42.8407 Z-1.5 I0.0063 J-0.0108
G2 X33.2297 Y42.8299 Z-1.5333 I-0.0125 J0.0
G2 Y42.8516 Z-1.5667 I0.0063 J0.0108
G2 X33.2484 Y42.8407 Z-1.6 I0.0063 J-0.0108
G2 X33.2297 Y42.8299 Z-1.6333 I-0.0125 J0.0
G2 Y42.8516 Z-1.6667 I0.0063 J0.0108
G2 X33.2484 Y42.8407 Z-1.7 I0.0063 J-0.0108
G2 X33.2297 Y42.8299 Z-1.7333 I-0.0125 J0.0
G2 Y42.8516 Z-1.7667 I0.0063 J0.0108
G2 X33.2484 Y42.8407 Z-1.8 I0.0063 J-0.0108
G2 X33.2297 Y42.8299 Z-1.8333 I-0.0125 J0.0
G2 Y42.8516 Z-1.8667 I0.0063 J0.0108
G2 X33.2484 Y42.8407 Z-1.9 I0.0063 J-0.0108
G2 X33.2297 Y42.8299 Z-1.9333 I-0.0125 J0.0
G2 Y42.8516 Z-1.9667 I0.0063 J0.0108
G2 X33.2484 Y42.8407 Z-2.0 I0.0063 J-0.0108
G2 X33.2297 Y42.8299 Z-2.0333 I-0.0125 J0.0
G2 Y42.8516 Z-2.0667 I0.0063 J0.0108
G2 X33.2484 Y42.8407 Z-2.1 I0.0063 J-0.0108
G2 X33.2297 Y42.8299 Z-2.1333 I-0.0125 J0.0
G2 Y42.8516 Z-2.1667 I0.0063 J0.0108
G2 X33.2484 Y42.8407 Z-2.2 I0.0063 J-0.0108
G2 X33.2297 Y42.8299 Z-2.2333 I-0.0125 J0.0
G2 Y42.8516 Z-2.2667 I0.0063 J0.0108
G2 X33.2484 Y42.8407 Z-2.3 I0.0063 J-0.0108
G2 X33.2297 Y42.8299 Z-2.3333 I-0.0125 J0.0
G2 Y42.8516 Z-2.3667 I0.0063 J0.0108
G2 X33.2484 Y42.8407 Z-2.4 I0.0063 J-0.0108
G2 X33.2297 Y42.8299 Z-2.4333 I-0.0125 J0.0
G2 Y42.8516 Z-2.4667 I0.0063 J0.0108
G2 X33.2484 Y42.8407 Z-2.5 I0.0063 J-0.0108
G2 X33.2297 Y42.8299 Z-2.5333 I-0.0125 J0.0
G2 Y42.8516 Z-2.5667 I0.0063 J0.0108
G2 X33.2484 Y42.8407 Z-2.6 I0.0063 J-0.0108
G2 X33.2297 Y42.8299 Z-2.6333 I-0.0125 J0.0
G2 Y42.8516 Z-2.6667 I0.0063 J0.0108
G2 X33.2484 Y42.8407 Z-2.7 I0.0063 J-0.0108
G2 X33.2297 Y42.8299 Z-2.7333 I-0.0125 J0.0
G2 Y42.8516 Z-2.7667 I0.0063 J0.0108
G2 X33.2484 Y42.8407 Z-2.8 I0.0063 J-0.0108
G2 X33.2297 Y42.8299 Z-2.8333 I-0.0125 J0.0
G2 Y42.8516 Z-2.8667 I0.0063 J0.0108
G2 X33.2484 Y42.8407 Z-2.9 I0.0063 J-0.0108
G2 X33.2297 Y42.8299 Z-2.9333 I-0.0125 J0.0
G2 Y42.8516 Z-2.9667 I0.0063 J0.0108
G2 X33.2484 Y42.8407 Z-3.0 I0.0062 J-0.0108
G2 X33.2297 Y42.8299 Z-3.0333 I-0.0125 J0.0
G2 Y42.8516 Z-3.0667 I0.0063 J0.0108
G2 X33.2484 Y42.8407 Z-3.1 I0.0062 J-0.0108
G2 X33.2297 Y42.8299 Z-3.1333 I-0.0125 J0.0
G2 Y42.8516 Z-3.1667 I0.0063 J0.0108
G2 X33.2484 Y42.8407 Z-3.2 I0.0062 J-0.0108
G2 X33.2297 Y42.8299 I-0.0125 J0.0
G2 Y42.8516 I0.0063 J0.0108
G2 X33.2484 Y42.8407 I0.0062 J-0.0108
G0 Z3.0
G0 X46.4684 Y42.7707
G0 Z0.01
G1 F1000.0 Z0.0
G2 F2000.0 X46.4497 Y42.7599 Z-0.0333 I-0.0125 J0.0
G2 Y42.7816 Z-0.0667 I0.0063 J0.0108
G2 X46.4684 Y42.7707 Z-0.1 I0.0063 J-0.0108
G2 X46.4497 Y42.7599 Z-0.1333 I-0.0125 J0.0
G2 Y42.7816 Z-0.1667 I0.0063 J0.0108
G2 X46.4684 Y42.7707 Z-0.2 I0.0063 J-0.0108
G2 X46.4497 Y42.7599 Z-0.2333 I-0.0125 J0.0
G2 Y42.7816 Z-0.2667 I0.0063 J0.0108
G2 X46.4684 Y42.7707 Z-0.3 I0.0063 J-0.0108
G2 X46.4497 Y42.7599 Z-0.3333 I-0.0125 J0.0
G2 Y42.7816 Z-0.3667 I0.0063 J0.0108
G2 X46.4684 Y42.7707 Z-0.4 I0.0063 J-0.0108
G2 X46.4497 Y42.7599 Z-0.4333 I-0.0125 J0.0
G2 Y42.7816 Z-0.4667 I0.0063 J0.0108
G2 X46.4684 Y42.7707 Z-0.5 I0.0063 J-0.0108
G2 X46.4497 Y42.7599 Z-0.5333 I-0.0125 J0.0
G2 Y42.7816 Z-0.5667 I0.0063 J0.0108
G2 X46.4684 Y42.7707 Z-0.6 I0.0063 J-0.0108
G2 X46.4497 Y42.7599 Z-0.6333 I-0.0125 J0.0
G2 Y42.7816 Z-0.6667 I0.0063 J0.0108
G2 X46.4684 Y42.7707 Z-0.7 I0.0063 J-0.0108
G2 X46.4497 Y42.7599 Z-0.7333 I-0.0125 J0.0
G2 Y42.7816 Z-0.7667 I0.0063 J0.0108
G2 X46.4684 Y42.7707 Z-0.8 I0.0063 J-0.0108
G2 X46.4497 Y42.7599 Z-0.8333 I-0.0125 J0.0
G2 Y42.7816 Z-0.8667 I0.0063 J0.0108
G2 X46.4684 Y42.7707 Z-0.9 I0.0063 J-0.0108
G2 X46.4497 Y42.7599 Z-0.9333 I-0.0125 J0.0
G2 Y42.7816 Z-0.9667 I0.0063 J0.0108
G2 X46.4684 Y42.7707 Z-1.0 I0.0063 J-0.0108
G2 X46.4497 Y42.7599 Z-1.0333 I-0.0125 J0.0
G2 Y42.7816 Z-1.0667 I0.0063 J0.0108
G2 X46.4684 Y42.7707 Z-1.1 I0.0063 J-0.0108
G2 X46.4497 Y42.7599 Z-1.1333 I-0.0125 J0.0
G2 Y42.7816 Z-1.1667 I0.0063 J0.0108
G2 X46.4684 Y42.7707 Z-1.2 I0.0063 J-0.0108
G2 X46.4497 Y42.7599 Z-1.2333 I-0.0125 J0.0
G2 Y42.7816 Z-1.2667 I0.0063 J0.0108
G2 X46.4684 Y42.7707 Z-1.3 I0.0063 J-0.0108
G2 X46.4497 Y42.7599 Z-1.3333 I-0.0125 J0.0
G2 Y42.7816 Z-1.3667 I0.0063 J0.0108
G2 X46.4684 Y42.7707 Z-1.4 I0.0063 J-0.0108
G2 X46.4497 Y42.7599 Z-1.4333 I-0.0125 J0.0
G2 Y42.7816 Z-1.4667 I0.0063 J0.0108
G2 X46.4684 Y42.7707 Z-1.5 I0.0063 J-0.0108
G2 X46.4497 Y42.7599 Z-1.5333 I-0.0125 J0.0
G2 Y42.7816 Z-1.5667 I0.0063 J0.0108
G2 X46.4684 Y42.7707 Z-1.6 I0.0063 J-0.0108
G2 X46.4497 Y42.7599 Z-1.6333 I-0.0125 J0.0
G2 Y42.7816 Z-1.6667 I0.0063 J0.0108
G2 X46.4684 Y42.7707 Z-1.7 I0.0063 J-0.0108
G2 X46.4497 Y42.7599 Z-1.7333 I-0.0125 J0.0
G2 Y42.7816 Z-1.7667 I0.0063 J0.0108
G2 X46.4684 Y42.7707 Z-1.8 I0.0063 J-0.0108
G2 X46.4497 Y42.7599 Z-1.8333 I-0.0125 J0.0
G2 Y42.7816 Z-1.8667 I0.0063 J0.0108
G2 X46.4684 Y42.7707 Z-1.9 I0.0063 J-0.0108
G2 X46.4497 Y42.7599 Z-1.9333 I-0.0125 J0.0
G2 Y42.7816 Z-1.9667 I0.0063 J0.0108
G2 X46.4684 Y42.7707 Z-2.0 I0.0063 J-0.0108
G2 X46.4497 Y42.7599 Z-2.0333 I-0.0125 J0.0
G2 Y42.7816 Z-2.0667 I0.0063 J0.0108
G2 X46.4684 Y42.7707 Z-2.1 I0.0063 J-0.0108
G2 X46.4497 Y42.7599 Z-2.1333 I-0.0125 J0.0
G2 Y42.7816 Z-2.1667 I0.0063 J0.0108
G2 X46.4684 Y42.7707 Z-2.2 I0.0063 J-0.0108
G2 X46.4497 Y42.7599 Z-2.2333 I-0.0125 J0.0
G2 Y42.7816 Z-2.2667 I0.0063 J0.0108
G2 X46.4684 Y42.7707 Z-2.3 I0.0063 J-0.0108
G2 X46.4497 Y42.7599 Z-2.3333 I-0.0125 J0.0
G2 Y42.7816 Z-2.3667 I0.0063 J0.0108
G2 X46.4684 Y42.7707 Z-2.4 I0.0063 J-0.0108
G2 X46.4497 Y42.7599 Z-2.4333 I-0.0125 J0.0
G2 Y42.7816 Z-2.4667 I0.0063 J0.0108
G2 X46.4684 Y42.7707 Z-2.5 I0.0063 J-0.0108
G2 X46.4497 Y42.7599 Z-2.5333 I-0.0125 J0.0
G2 Y42.7816 Z-2.5667 I0.0063 J0.0108
G2 X46.4684 Y42.7707 Z-2.6 I0.0063 J-0.0108
G2 X46.4497 Y42.7599 Z-2.6333 I-0.0125 J0.0
G2 Y42.7816 Z-2.6667 I0.0063 J0.0108
G2 X46.4684 Y42.7707 Z-2.7 I0.0063 J-0.0108
G2 X46.4497 Y42.7599 Z-2.7333 I-0.0125 J0.0
G2 Y42.7816 Z-2.7667 I0.0063 J0.0108
G2 X46.4684 Y42.7707 Z-2.8 I0.0063 J-0.0108
G2 X46.4497 Y42.7599 Z-2.8333 I-0.0125 J0.0
G2 Y42.7816 Z-2.8667 I0.0063 J0.0108
G2 X46.4684 Y42.7707 Z-2.9 I0.0063 J-0.0108
G2 X46.4497 Y42.7599 Z-2.9333 I-0.0125 J0.0
G2 Y42.7816 Z-2.9667 I0.0063 J0.0108
G2 X46.4684 Y42.7707 Z-3.0 I0.0062 J-0.0108
G2 X46.4497 Y42.7599 Z-3.0333 I-0.0125 J0.0
G2 Y42.7816 Z-3.0667 I0.0063 J0.0108
G2 X46.4684 Y42.7707 Z-3.1 I0.0062 J-0.0108
G2 X46.4497 Y42.7599 Z-3.1333 I-0.0125 J0.0
G2 Y42.7816 Z-3.1667 I0.0063 J0.0108
G2 X46.4684 Y42.7707 Z-3.2 I0.0062 J-0.0108
G2 X46.4497 Y42.7599 I-0.0125 J0.0
G2 Y42.7816 I0.0063 J0.0108
G2 X46.4684 Y42.7707 I0.0062 J-0.0108
G0 Z3.0
G0 X46.1532 Y56.1489
G0 Z0.01
G1 F1000.0 Z0.0
G2 F2000.0 X46.1345 Y56.1381 Z-0.0333 I-0.0125 J0.0
G2 Y56.1597 Z-0.0667 I0.0063 J0.0108
G2 X46.1532 Y56.1489 Z-0.1 I0.0063 J-0.0108
G2 X46.1345 Y56.1381 Z-0.1333 I-0.0125 J0.0
G2 Y56.1597 Z-0.1667 I0.0063 J0.0108
G2 X46.1532 Y56.1489 Z-0.2 I0.0063 J-0.0108
G2 X46.1345 Y56.1381 Z-0.2333 I-0.0125 J0.0
G2 Y56.1597 Z-0.2667 I0.0063 J0.0108
G2 X46.1532 Y56.1489 Z-0.3 I0.0063 J-0.0108
G2 X46.1345 Y56.1381 Z-0.3333 I-0.0125 J0.0
G2 Y56.1597 Z-0.3667 I0.0063 J0.0108
G2 X46.1532 Y56.1489 Z-0.4 I0.0063 J-0.0108
G2 X46.1345 Y56.1381 Z-0.4333 I-0.0125 J0.0
G2 Y56.1597 Z-0.4667 I0.0063 J0.0108
G2 X46.1532 Y56.1489 Z-0.5 I0.0063 J-0.0108
G2 X46.1345 Y56.1381 Z-0.5333 I-0.0125 J0.0
G2 Y56.1597 Z-0.5667 I0.0063 J0.0108
G2 X46.1532 Y56.1489 Z-0.6 I0.0063 J-0.0108
G2 X46.1345 Y56.1381 Z-0.6333 I-0.0125 J0.0
G2 Y56.1597 Z-0.6667 I0.0063 J0.0108
G2 X46.1532 Y56.1489 Z-0.7 I0.0063 J-0.0108
G2 X46.1345 Y56.1381 Z-0.7333 I-0.0125 J0.0
G2 Y56.1597 Z-0.7667 I0.0063 J0.0108
G2 X46.1532 Y56.1489 Z-0.8 I0.0063 J-0.0108
G2 X46.1345 Y56.1381 Z-0.8333 I-0.0125 J0.0
G2 Y56.1597 Z-0.8667 I0.0063 J0.0108
G2 X46.1532 Y56.1489 Z-0.9 I0.0063 J-0.0108
G2 X46.1345 Y56.1381 Z-0.9333 I-0.0125 J0.0
G2 Y56.1597 Z-0.9667 I0.0063 J0.0108
G2 X46.1532 Y56.1489 Z-1.0 I0.0063 J-0.0108
G2 X46.1345 Y56.1381 Z-1.0333 I-0.0125 J0.0
G2 Y56.1597 Z-1.0667 I0.0063 J0.0108
G2 X46.1532 Y56.1489 Z-1.1 I0.0063 J-0.0108
G2 X46.1345 Y56.1381 Z-1.1333 I-0.0125 J0.0
G2 Y56.1597 Z-1.1667 I0.0063 J0.0108
G2 X46.1532 Y56.1489 Z-1.2 I0.0063 J-0.0108
G2 X46.1345 Y56.1381 Z-1.2333 I-0.0125 J0.0
G2 Y56.1597 Z-1.2667 I0.0063 J0.0108
G2 X46.1532 Y56.1489 Z-1.3 I0.0063 J-0.0108
G2 X46.1345 Y56.1381 Z-1.3333 I-0.0125 J0.0
G2 Y56.1597 Z-1.3667 I0.0063 J0.0108
G2 X46.1532 Y56.1489 Z-1.4 I0.0063 J-0.0108
G2 X46.1345 Y56.1381 Z-1.4333 I-0.0125 J0.0
G2 Y56.1597 Z-1.4667 I0.0063 J0.0108
G2 X46.1532 Y56.1489 Z-1.5 I0.0063 J-0.0108
G2 X46.1345 Y56.1381 Z-1.5333 I-0.0125 J0.0
G2 Y56.1597 Z-1.5667 I0.0063 J0.0108
G2 X46.1532 Y56.1489 Z-1.6 I0.0063 J-0.0108
G2 X46.1345 Y56.1381 Z-1.6333 I-0.0125 J0.0
