( Made using CamBam - http://www.cambam.co.uk )
( midi_cv_panel 10/12/2014 11:07:56 PM )
( T3 : 3.175 )
( T10 : 0.0 )
G21 G90 G61 G40
G0 Z3.0
( T10 : 0.0 )
T10 M6
( Engrave1 )
G17
M3 S1000
G0 X20.7253 Y121.2595
G0 Z0.4
G1 F1000.0 Z-0.01
G1 F2000.0 X17.3892
G1 Y108.9914
G1 X20.7253
G1 Y121.2595
G0 Z3.0
G0 X16.0822 Y120.0928
G0 Z0.4
G1 F1000.0 Z-0.01
G3 F2000.0 X14.9114 Y121.2622 I-1.1699 J-0.0005
G1 X12.7406 Y121.2595
G1 X2.7045
G1 Y108.99
G1 X6.0392
G1 Y118.3122
G1 X7.7225
G1 Y108.99
G1 X11.06
G1 Y118.3122
G1 X12.7406
G1 Y108.99
G1 X16.0795
G1 X16.0822 Y120.0928
G0 Z3.0
G0 X25.3711 Y111.9358
G0 Z0.4
G1 F1000.0 Z-0.01
G1 F2000.0 X29.7781
G1 Y118.3122
G1 X22.035
G1 Y121.2595
G1 X31.9503 Y121.2622
G2 X33.117 Y120.0928 I-0.0025 J-1.1692
G1 X33.1142 Y110.1567
G2 X31.9447 Y108.99 I-1.1656 J-0.0011
G1 X22.035
G1 Y116.6275
G1 X25.3711
G1 Y111.9358
G0 Z3.0
G0 X34.4253
G0 Z0.4
G1 F1000.0 Z-0.01
G1 F2000.0 Y108.9914
G1 X37.7628
G1 Y121.2595
G1 X34.4253
G1 Y111.9358
G0 Z3.0
G0 X33.0574 Y87.1143
G0 Z0.4
G1 F1000.0 Z-0.01
G3 F2000.0 X33.3445 Y87.2269 I-1.7581 J4.9029
G3 X33.6164 Y87.3727 I-0.5352 J1.3248
G3 X33.7011 Y87.4575 I-0.3793 J0.4636
G3 X33.7482 Y87.5678 I-0.141 J0.1254
G3 X33.6987 Y87.6741 I-0.1874 J-0.0226
G3 X33.6164 Y87.7576 I-0.5509 J-0.4608
G3 X33.3474 Y87.9116 I-0.6763 J-0.8694
G3 X33.0574 Y88.0213 I-1.4844 J-3.4866
G1 X27.0088 Y89.9883
G1 X33.0574 Y88.0213
G2 X33.3474 Y87.9116 I-1.1928 J-3.5919
G2 X33.6164 Y87.7576 I-0.4073 J-1.0236
G2 X33.6987 Y87.6741 I-0.47 J-0.5456
G2 X33.7482 Y87.5678 I-0.1379 J-0.1289
G2 X33.7011 Y87.4575 I-0.1881 J0.0151
G2 X33.6164 Y87.3727 I-0.4654 J0.3801
G2 X33.3445 Y87.2269 I-0.8077 J1.1803
G2 X33.0574 Y87.1143 I-2.0349 J4.7639
G1 X27.0088 Y85.0734
G1 X33.0574 Y87.1143
G0 Z3.0
G0 X33.6217 Y83.7762
G0 Z0.4
G1 F1000.0 Z-0.01
G1 F2000.0 Y83.175
G2 X33.4055 Y82.0254 I-3.1893 J0.0047
G2 X32.7674 Y81.0234 I-2.8181 J1.0905
G2 X31.7338 Y80.3062 I-2.3276 J2.2511
G2 X30.3152 Y80.032 I-1.3545 J3.2005
G2 X29.1287 Y80.2588 I0.0195 J3.3195
G2 X28.0635 Y80.9232 I1.147 J3.0249
G2 X27.3041 Y82.0148 I2.3375 J2.436
G2 X27.0088 Y83.5072 I3.2845 J1.4253
G1 Y83.7762
G1 Y83.5072
G3 X27.0763 Y82.7452 I4.1234 J-0.0189
G3 X27.3041 Y82.0148 I3.1191 J0.5724
G3 X28.0635 Y80.9232 I3.0968 J1.3444
G3 X29.1287 Y80.2588 I2.2122 J2.3604
G3 X30.3152 Y80.032 I1.206 J3.0927
G3 X31.7338 Y80.3062 I0.0641 J3.4745
G3 X32.7674 Y81.0234 I-1.2941 J2.9684
G3 X33.4055 Y82.0254 I-2.18 J2.0925
G3 X33.6217 Y83.175 I-2.9727 J1.1542
G1 Y83.7762
G0 Z3.0
G0 X14.1213 Y82.117
G0 Z0.4
G1 F1000.0 Z-0.01
G2 F2000.0 X14.1302 Y81.8301 I-2.6487 J-0.2254
G2 X13.9825 Y80.7174 I-4.7592 J0.0654
G3 X14.1302 Y81.8301 I-4.611 J1.178
G3 X13.9509 Y82.8532 I-2.6578 J0.0614
G3 X13.4657 Y83.5545 I-1.7204 J-0.6716
G3 X12.7485 Y83.9553 I-1.2606 J-1.4137
G3 X11.8731 Y84.0871 I-0.8575 J-2.7213
G1 X9.5106
G3 X8.6511 Y83.9237 I0.0476 J-2.5919
G3 X7.9444 Y83.5018 I0.7033 J-1.9808
G3 X7.4593 Y82.8479 I1.2994 J-1.471
G3 X7.28 Y81.9936 I1.8009 J-0.8239
G3 X7.4382 Y81.1287 I2.3358 J-0.0196
G3 X7.897 Y80.4379 I1.8032 J0.6998
G3 X8.63 Y79.9791 I1.468 J1.5305
G3 X9.6161 Y79.8104 I0.9462 J2.5634
G3 X10.5179 Y79.9897 I0.0333 J2.1899
G3 X11.1981 Y80.4643 I-0.8906 J2.0013
G3 X11.6306 Y81.1657 I-1.5089 J1.4143
G3 X11.7782 Y82.0252 I-2.3488 J0.8459
G3 X11.6517 Y82.7582 I-2.1575 J0.0049
G2 X11.7782 Y82.0252 I-2.0308 J-0.7281
G2 X11.6306 Y81.1657 I-2.4962 J-0.0137
G2 X11.1981 Y80.4643 I-1.9412 J0.7128
G2 X10.5179 Y79.9897 I-1.5708 J1.5267
G2 X9.6161 Y79.8104 I-0.8684 J2.0104
G2 X8.63 Y79.9791 I-0.0399 J2.7324
G2 X7.897 Y80.4379 I0.7351 J1.9895
G2 X7.4382 Y81.1287 I1.3445 J1.3906
G2 X7.28 Y81.9936 I2.1777 J0.8453
G2 X7.4593 Y82.8479 I1.9802 J0.0304
G2 X7.9444 Y83.5018 I1.7845 J-0.817
G2 X8.6511 Y83.9237 I1.4099 J-1.5589
G2 X9.5106 Y84.0871 I0.9072 J-2.4286
G1 X11.8731
G2 X12.7485 Y83.9553 I0.0179 J-2.8531
G2 X13.4657 Y83.5545 I-0.5435 J-1.8146
G2 X13.9509 Y82.8532 I-1.2352 J-1.3729
G2 X14.1213 Y82.117 I-2.4783 J-0.9616
G0 Z3.0
G0 X10.9696 Y86.22
G0 Z0.4
G1 F1000.0 Z-0.01
G3 F2000.0 X11.1401 Y86.3653 I-1.3553 J1.7644
G3 X11.6095 Y87.0614 I-1.4845 J1.5072
G3 X11.7782 Y87.9473 I-2.1193 J0.8627
G3 X11.5726 Y88.7541 I-1.5111 J0.0444
G2 X11.7782 Y87.9473 I-1.3054 J-0.7624
G2 X11.6095 Y87.0614 I-2.2881 J-0.0232
G2 X11.1401 Y86.3653 I-1.9538 J0.8111
G2 X10.423 Y85.9117 I-1.5259 J1.6192
G2 X9.5054 Y85.7535 I-0.8882 J2.4117
G2 X8.6036 Y85.9117 I-0.0314 J2.4702
G2 X7.897 Y86.3653 I0.7611 J1.9631
G2 X7.4276 Y87.0614 I1.4845 J1.5072
G2 X7.2589 Y87.9473 I2.1193 J0.8627
G2 X7.4065 Y88.8121 I2.4316 J0.0299
G2 X7.8126 Y89.4924 I1.9624 J-0.71
G2 X8.4401 Y89.9354 I1.2684 J-1.1309
G2 X9.247 Y90.0936 I0.7812 J-1.8474
G1 X11.6464
G1 X9.247
G3 X8.4401 Y89.9354 I-0.0257 J-2.0056
G3 X7.8126 Y89.4924 I0.641 J-1.574
G3 X7.4065 Y88.8121 I1.5563 J-1.3903
G3 X7.2589 Y87.9473 I2.284 J-0.835
G3 X7.4276 Y87.0614 I2.2881 J-0.0232
G3 X7.897 Y86.3653 I1.9538 J0.8111
G3 X8.6036 Y85.9117 I1.4677 J1.5096
G3 X9.5054 Y85.7535 I0.8704 J2.3121
G3 X10.423 Y85.9117 I0.0294 J2.5696
G3 X10.9696 Y86.22 I-0.8087 J2.0727
G0 Z3.0
G0 X10.632 Y92.116
G0 Z0.4
G1 F1000.0 Z-0.01
G3 F2000.0 X10.9768 Y92.1698 I-0.1025 J1.7897
G3 X11.388 Y92.4139 I-0.1935 J0.7943
G3 X11.5907 Y92.8021 I-0.7955 J0.6623
G3 X11.6464 Y93.2366 I-1.5263 J0.4165
G1 Y93.9748
G1 Y93.2366
G2 X11.5907 Y92.8021 I-1.5819 J-0.0179
G2 X11.388 Y92.4139 I-0.9983 J0.2742
G2 X10.9768 Y92.1698 I-0.6046 J0.5502
G2 X10.5021 Y92.1133 I-0.4474 J1.7363
G1 X6.1146
G1 X10.5021
G3 X10.632 Y92.116 I0.0274 J1.7924
G0 Z3.0
G0 X7.3907 Y93.9748
G0 Z0.4
G1 F1000.0 Z-0.01
G1 F2000.0 Y92.1133
G1 Y93.9748
G0 Z3.0
G0 X8.3567 Y95.7024
G0 Z0.4
G1 F1000.0 Z-0.01
G3 F2000.0 X8.6194 Y95.578 I1.0547 J1.8862
G3 X9.5265 Y95.4092 I0.879 J2.2025
G3 X10.444 Y95.578 I0.0282 J2.426
G3 X11.156 Y96.0367 I-0.8332 J2.0746
G3 X11.6148 Y96.7328 I-1.4212 J1.4359
G3 X11.773 Y97.6135 I-2.2488 J0.8585
G3 X11.6825 Y98.3087 I-2.5647 J0.0197
G3 X11.3827 Y98.9424 I-1.983 J-0.5502
G3 X10.8701 Y99.4349 I-1.5454 J-1.0956
G3 X10.2226 Y99.7282 I-1.319 J-2.0508
G2 X10.8701 Y99.4349 I-0.6717 J-2.3446
G2 X11.3827 Y98.9424 I-1.0327 J-1.5879
G2 X11.773 Y97.6135 I-1.8621 J-1.2686
G2 X11.6148 Y96.7328 I-2.4073 J-0.0221
G2 X11.156 Y96.0367 I-1.8799 J0.7398
G2 X10.444 Y95.578 I-1.545 J1.6156
G2 X9.5265 Y95.4092 I-0.8894 J2.257
G2 X8.6194 Y95.578 I-0.028 J2.3714
G2 X7.9075 Y96.0367 I0.7921 J2.0109
G2 X7.4435 Y96.7328 I1.3815 J1.4238
G2 X7.28 Y97.6135 I2.1745 J0.8592
G2 X7.5753 Y98.7631 I2.2589 J0.0325
G2 X7.9006 Y99.1806 I1.4932 J-0.828
G2 X8.3505 Y99.4592 I0.9412 J-1.0173
G1 X9.8007 Y96.8436
G1 X8.3505 Y99.4592
G3 X7.5753 Y98.7631 I0.553 J-1.3955
G3 X7.28 Y97.6135 I1.9635 J-1.1171
G3 X7.4435 Y96.7328 I2.3382 J-0.0215
G3 X7.9075 Y96.0367 I1.8455 J0.7276
G3 X8.3567 Y95.7024 I1.5039 J1.5519
G0 Z3.0
G0 X9.8574 Y60.521
G0 Z0.4
G1 F1000.0 Z-0.01
G2 F2000.0 X10.9121 Y60.3628 I0.0521 J-3.2471
G2 X11.6926 Y59.9251 I-0.6754 J-2.1189
G2 X12.1778 Y59.2501 I-1.2338 J-1.3986
G2 X12.3412 Y58.3853 I-2.0573 J-0.8368
G2 X12.1936 Y57.5204 I-2.4846 J-0.0208
G2 X11.7453 Y56.819 I-1.8841 J0.7102
G2 X11.0176 Y56.3497 I-1.5447 J1.5963
G2 X10.0209 Y56.181 I-0.9483 J2.5731
G2 X9.1244 Y56.3444 I-0.0329 J2.3594
G2 X8.4389 Y56.798 I0.8059 J1.9632
G2 X8.0012 Y57.4677 I1.4453 J1.4224
G2 X7.8483 Y58.2851 I2.0409 J0.8048
G2 X8.0117 Y59.1921 I2.439 J0.0287
G3 X7.8483 Y58.2851 I2.2756 J-0.8784
G3 X8.0012 Y57.4677 I2.1941 J-0.0125
G3 X8.4389 Y56.798 I1.8829 J0.7526
G3 X9.1244 Y56.3444 I1.4916 J1.5098
G3 X10.0209 Y56.181 I0.8636 J2.1959
G3 X11.0176 Y56.3497 I0.0484 J2.7421
G3 X11.7453 Y56.819 I-0.8169 J2.0655
G3 X12.1936 Y57.5204 I-1.4359 J1.4116
G3 X12.3412 Y58.3853 I-2.3369 J0.844
G3 X12.1778 Y59.2501 I-2.2208 J0.0281
G3 X11.6926 Y59.9251 I-1.719 J-0.7237
G3 X10.9121 Y60.3628 I-1.4558 J-1.6812
G3 X9.8574 Y60.521 I-1.0026 J-3.0892
G1 X5.6018
G1 X9.8574
G0 Z3.0
G0 X10.0014 Y54.6142
G0 Z0.4
G1 F1000.0 Z-0.01
G3 F2000.0 X9.1824 Y54.4513 I0.0594 J-2.4385
G3 X8.4705 Y53.9978 I0.7464 J-1.9572
G3 X8.0065 Y53.3017 I1.3815 J-1.4238
G3 X7.843 Y52.421 I2.1745 J-0.8592
G3 X8.0065 Y51.5403 I2.3382 J-0.0215
G3 X8.4705 Y50.8442 I1.8455 J0.7276
G3 X9.1824 Y50.3907 I1.4582 J1.5035
G3 X10.0895 Y50.2273 I0.8784 J2.2756
G3 X11.007 Y50.3907 I0.0288 J2.4954
G3 X11.719 Y50.8442 I-0.7846 J2.0171
G3 X12.1778 Y51.5403 I-1.4212 J1.4359
G3 X12.336 Y52.421 I-2.2488 J0.8585
G3 X12.1778 Y53.3017 I-2.4073 J0.0221
G3 X11.719 Y53.9978 I-1.8799 J-0.7398
G3 X11.007 Y54.4513 I-1.4964 J-1.5634
G3 X10.0895 Y54.6148 I-0.8888 J-2.3318
G3 X10.0014 Y54.6142 I-0.0287 J-2.439
G3 X9.1824 Y54.4513 I0.0594 J-2.4385
G3 X8.4705 Y53.9978 I0.7464 J-1.9572
G3 X8.0065 Y53.3017 I1.3815 J-1.4238
G3 X7.843 Y52.421 I2.1745 J-0.8592
G3 X8.0065 Y51.5403 I2.3382 J-0.0215
G3 X8.4705 Y50.8442 I1.8455 J0.7276
G3 X9.1824 Y50.3907 I1.4582 J1.5035
G3 X10.0895 Y50.2273 I0.8784 J2.2756
G3 X11.007 Y50.3907 I0.0288 J2.4954
G3 X11.719 Y50.8442 I-0.7846 J2.0171
G3 X12.1778 Y51.5403 I-1.4212 J1.4359
G3 X12.336 Y52.421 I-2.2488 J0.8585
G3 X12.1778 Y53.3017 I-2.4073 J0.0221
G3 X11.719 Y53.9978 I-1.8799 J-0.7398
G3 X11.007 Y54.4513 I-1.4964 J-1.5634
G3 X10.0895 Y54.6148 I-0.8888 J-2.3318
G3 X10.0014 Y54.6142 I-0.0287 J-2.439
G2 X10.0895 Y54.6148 I0.0594 J-2.4386
G2 X11.007 Y54.4513 I0.0288 J-2.4954
G2 X11.719 Y53.9978 I-0.7846 J-2.0171
G2 X12.1778 Y53.3017 I-1.4212 J-1.4359
G2 X12.336 Y52.421 I-2.2488 J-0.8585
G2 X12.1778 Y51.5403 I-2.4073 J-0.0221
G2 X11.719 Y50.8442 I-1.8799 J0.7398
G2 X11.007 Y50.3907 I-1.4964 J1.5634
G2 X10.0895 Y50.2273 I-0.8888 J2.3318
G2 X9.1824 Y50.3907 I-0.0287 J2.439
G2 X8.4705 Y50.8442 I0.7464 J1.9572
G2 X8.0065 Y51.5403 I1.3815 J1.4238
G2 X7.843 Y52.421 I2.1745 J0.8592
G2 X8.0065 Y53.3017 I2.3382 J0.0215
G2 X8.4705 Y53.9978 I1.8455 J-0.7276
G2 X9.1824 Y54.4513 I1.4582 J-1.5035
G2 X10.0014 Y54.6142 I0.8784 J-2.2756
G2 X10.0895 Y54.6148 I0.0594 J-2.4386
G2 X11.007 Y54.4513 I0.0288 J-2.4954
G2 X11.719 Y53.9978 I-0.7846 J-2.0171
G2 X12.1778 Y53.3017 I-1.4212 J-1.4359
G2 X12.336 Y52.421 I-2.2488 J-0.8585
G2 X12.1778 Y51.5403 I-2.4073 J-0.0221
G2 X11.719 Y50.8442 I-1.8799 J0.7398
G2 X11.007 Y50.3907 I-1.4964 J1.5634
G2 X10.0895 Y50.2273 I-0.8888 J2.3318
G2 X9.1824 Y50.3907 I-0.0287 J2.439
G2 X8.4705 Y50.8442 I0.7464 J1.9572
G2 X8.0065 Y51.5403 I1.3815 J1.4238
G2 X7.843 Y52.421 I2.1745 J0.8592
G2 X8.0065 Y53.3017 I2.3382 J0.0215
G2 X8.4705 Y53.9978 I1.8455 J-0.7276
G2 X9.1824 Y54.4513 I1.4582 J-1.5035
G2 X10.0014 Y54.6142 I0.8784 J-2.2756
G0 Z3.0
G0 X9.2721 Y42.623
G0 Z0.4
G1 F1000.0 Z-0.01
G2 F2000.0 X8.6815 Y42.7231 I-0.0228 J1.6565
G2 X8.2332 Y43.0185 I0.4637 J1.1916
G2 X7.9485 Y43.4614 I0.9554 J0.9272
G2 X7.843 Y44.0151 I1.3215 J0.5386
G2 X7.9421 Y44.6178 I1.7236 J0.0261
G2 X8.286 Y45.1226 I1.176 J-0.4317
G2 X8.8663 Y45.4345 I0.9677 J-1.1045
G2 X9.5199 Y45.5181 I0.6246 J-2.2879
G1 X12.2094
G1 X9.5199
G2 X8.8672 Y45.6003 I-0.029 J2.4026
G2 X8.286 Y45.9083 I0.3828 J1.4248
G2 X7.9416 Y46.4157 I0.8317 J0.9349
G2 X7.843 Y47.021 I1.645 J0.5788
G2 X7.9485 Y47.5747 I1.4271 J0.0151
G2 X8.2332 Y48.0124 I1.1883 J-0.4616
G2 X8.6815 Y48.3024 I0.9249 J-0.938
G2 X9.2721 Y48.4132 I0.569 J-1.4042
G1 X12.2094
G1 X9.2721
G3 X8.6815 Y48.3024 I-0.0216 J-1.515
G3 X8.2332 Y48.0124 I0.4766 J-1.228
G3 X7.9485 Y47.5747 I0.9034 J-0.8992
G3 X7.843 Y47.021 I1.3215 J-0.5386
G3 X7.9416 Y46.4157 I1.7438 J-0.0265
G3 X8.286 Y45.9083 I1.176 J0.4274
G3 X8.8672 Y45.6003 I0.964 J1.1165
G3 X9.5199 Y45.5181 I0.6236 J2.3201
G1 X12.2094
G1 X9.5199
G3 X8.8663 Y45.4345 I-0.0291 J-2.3709
G3 X8.286 Y45.1226 I0.3873 J-1.4163
G3 X7.9421 Y44.6178 I0.8322 J-0.9365
G3 X7.843 Y44.0151 I1.6246 J-0.5766
G3 X7.9485 Y43.4614 I1.4271 J-0.0151
G3 X8.2332 Y43.0185 I1.2401 J0.4842
G3 X8.6815 Y42.7231 I0.9119 J0.8963
G3 X9.2721 Y42.623 I0.5678 J1.5564
G1 X12.2094
G1 X9.2721
G0 Z3.0
G0 X26.2658 Y42.539
G0 Z0.4
G1 F1000.0 Z-0.01
G1 F2000.0 X30.5214
G3 X31.5761 Y42.692 I0.0526 J3.3507
G3 X32.3566 Y43.1297 I-0.7334 J2.2224
G3 X32.8417 Y43.8047 I-1.2338 J1.3986
G3 X33.0052 Y44.6748 I-2.0958 J0.8442
G3 X32.8576 Y45.5396 I-2.4846 J0.0208
G3 X32.4093 Y46.2357 I-1.8354 J-0.6895
G3 X31.6816 Y46.705 I-1.5447 J-1.5963
G3 X30.6849 Y46.8791 I-0.9488 J-2.4931
G3 X29.7884 Y46.7103 I-0.0323 J-2.2941
G3 X29.1029 Y46.2568 I0.8059 J-1.9632
G3 X28.6652 Y45.5871 I1.386 J-1.3837
G3 X28.5123 Y44.7855 I1.9989 J-0.7967
G3 X28.6757 Y43.8627 I2.4396 J-0.0438
G2 X28.5123 Y44.7855 I2.2758 J0.8791
G2 X28.6652 Y45.5871 I2.1516 J0.0049
G2 X29.1029 Y46.2568 I1.8236 J-0.7139
G2 X29.7884 Y46.7103 I1.4916 J-1.5098
G2 X30.6849 Y46.8791 I0.8642 J-2.1253
G2 X31.6816 Y46.705 I0.0479 J-2.667
G2 X32.4093 Y46.2357 I-0.8169 J-2.0655
G2 X32.8576 Y45.5396 I-1.3871 J-1.3856
G2 X33.0052 Y44.6748 I-2.3369 J-0.844
G2 X32.8417 Y43.8047 I-2.2595 J-0.0259
G2 X32.3566 Y43.1297 I-1.719 J0.7237
G2 X31.5761 Y42.692 I-1.5139 J1.7848
G2 X30.5214 Y42.539 I-1.0021 J3.198
G1 X26.2658
G0 Z3.0
G0 X29.6104 Y48.7238
G0 Z0.4
G1 F1000.0 Z-0.01
G3 F2000.0 X29.8464 Y48.614 I1.028 J1.9009
G3 X30.7535 Y48.4453 I0.879 J2.2025
G3 X31.671 Y48.614 I0.0282 J2.426
G3 X32.383 Y49.0728 I-0.8332 J2.0746
G3 X32.8417 Y49.7689 I-1.4212 J1.4359
G3 X33.0 Y50.6496 I-2.2488 J0.8585
G3 X32.9095 Y51.3448 I-2.5647 J0.0197
G3 X32.6097 Y51.9785 I-1.983 J-0.5502
G3 X32.0971 Y52.471 I-1.5454 J-1.0956
G3 X31.4496 Y52.7642 I-1.319 J-2.0508
G2 X32.0971 Y52.471 I-0.6717 J-2.3446
G2 X32.6097 Y51.9785 I-1.0327 J-1.5879
G2 X33.0 Y50.6496 I-1.8621 J-1.2686
G2 X32.8417 Y49.7689 I-2.4073 J-0.0221
G2 X32.383 Y49.0728 I-1.8799 J0.7398
G2 X31.671 Y48.614 I-1.545 J1.6156
G2 X30.7535 Y48.4453 I-0.8894 J2.257
G2 X29.8464 Y48.614 I-0.028 J2.3714
G2 X29.1345 Y49.0728 I0.7921 J2.0109
G2 X28.6705 Y49.7689 I1.3815 J1.4238
G2 X28.507 Y50.6496 I2.1745 J0.8592
G2 X28.8023 Y51.7992 I2.2589 J0.0325
G2 X29.1276 Y52.2166 I1.4932 J-0.828
G2 X29.5775 Y52.4953 I0.9412 J-1.0173
G1 X31.0277 Y49.8797
G1 X29.5775 Y52.4953
G3 X28.8023 Y51.7992 I0.553 J-1.3955
G3 X28.507 Y50.6496 I1.9635 J-1.1171
G3 X28.6705 Y49.7689 I2.3382 J-0.0215
G3 X29.1345 Y49.0728 I1.8455 J0.7276
G3 X29.6104 Y48.7238 I1.5039 J1.5519
G0 Z3.0
G0 X30.1422 Y54.6132
G0 Z0.4
G1 F1000.0 Z-0.01
G2 F2000.0 X29.6724 Y54.7101 I0.1906 J2.1112
G2 X29.0818 Y55.0424 I0.5448 J1.6596
G2 X28.6599 Y55.5855 I1.1451 J1.3248
G2 X28.4964 Y56.3449 I1.5197 J0.7244
G2 X28.6599 Y57.0937 I1.6376 J0.0347
G2 X29.0818 Y57.6369 I1.5046 J-0.7332
G2 X29.6724 Y57.9638 I1.1497 J-1.3799
G2 X30.3263 Y58.0799 I0.6618 J-1.8292
G1 X32.8734
G1 X30.3263
G3 X29.6724 Y57.9638 I0.0079 J-1.9452
G3 X29.0818 Y57.6369 I0.559 J-1.7067
G3 X28.6599 Y57.0937 I1.0826 J-1.2763
G3 X28.4964 Y56.3449 I1.4741 J-0.7141
G3 X28.6599 Y55.5855 I1.683 J-0.035
G3 X29.0818 Y55.0424 I1.5668 J0.7815
G3 X29.6724 Y54.7101 I1.1354 J1.3274
G3 X30.3263 Y54.6047 I0.6604 J2.0149
G1 X32.8734
G1 X30.3263
G2 X30.1422 Y54.6132 I0.0064 J2.1198
G0 Z3.0
G0 X30.5214 Y64.139
G0 Z0.4
G1 F1000.0 Z-0.01
G2 F2000.0 X31.5761 Y63.9808 I0.0521 J-3.2471
G2 X32.3566 Y63.5431 I-0.6754 J-2.1189
G2 X32.8417 Y62.8681 I-1.2338 J-1.3986
G2 X33.0052 Y62.0033 I-2.0573 J-0.8368
G2 X32.8576 Y61.1384 I-2.4846 J-0.0208
G2 X32.4093 Y60.4371 I-1.8841 J0.7102
G2 X31.6816 Y59.9677 I-1.5447 J1.5963
G2 X30.6849 Y59.799 I-0.9483 J2.5731
G2 X29.7884 Y59.9625 I-0.0329 J2.3594
G2 X29.1029 Y60.416 I0.8059 J1.9632
G2 X28.6652 Y61.0857 I1.4453 J1.4224
G2 X28.5123 Y61.9031 I2.0409 J0.8048
G2 X28.6757 Y62.8101 I2.439 J0.0287
G3 X28.5123 Y61.9031 I2.2756 J-0.8784
G3 X28.6652 Y61.0857 I2.1941 J-0.0125
G3 X29.1029 Y60.416 I1.8829 J0.7526
G3 X29.7884 Y59.9625 I1.4916 J1.5098
G3 X30.6849 Y59.799 I0.8636 J2.1959
G3 X31.6816 Y59.9677 I0.0484 J2.7421
G3 X32.4093 Y60.4371 I-0.8169 J2.0655
G3 X32.8576 Y61.1384 I-1.4359 J1.4116
G3 X33.0052 Y62.0033 I-2.3369 J0.844
G3 X32.8417 Y62.8681 I-2.2208 J0.0281
G3 X32.3566 Y63.5431 I-1.719 J-0.7237
G3 X31.5761 Y63.9808 I-1.4558 J-1.6812
G3 X30.5214 Y64.139 I-1.0026 J-3.0892
G1 X26.2658
G1 X30.5214
G0 Z3.0
G0 X17.221 Y8.9525
G0 Z0.4
G1 F1000.0 Z-0.01
G2 F2000.0 X17.2954 Y8.843 I-0.0231 J-0.0957
G2 X17.2661 Y8.7727 I-0.1111 J0.005
G2 X17.1841 Y8.7375 I-0.0731 J0.0573
G2 X17.102 Y8.7727 I-0.0089 J0.0925
G2 X17.0786 Y8.843 I0.1032 J0.0734
G2 X17.1841 Y8.9543 I0.0946 J0.016
G2 X17.221 Y8.9525 I0.0139 J-0.0974
G3 X17.1841 Y8.9543 I-0.0231 J-0.0957
G3 X17.0786 Y8.843 I-0.0108 J-0.0954
G3 X17.102 Y8.7727 I0.1265 J0.0031
G3 X17.1841 Y8.7375 I0.0731 J0.0573
G3 X17.2661 Y8.7727 I0.0089 J0.0925
G3 X17.2954 Y8.843 I-0.0818 J0.0753
G3 X17.221 Y8.9525 I-0.0974 J0.0139
G3 X17.1841 Y8.9543 I-0.0231 J-0.0957
G3 X17.0786 Y8.843 I-0.0108 J-0.0954
G3 X17.102 Y8.7727 I0.1265 J0.0031
G3 X17.1841 Y8.7375 I0.0731 J0.0573
G3 X17.2661 Y8.7727 I0.0089 J0.0925
G3 X17.2954 Y8.843 I-0.0818 J0.0753
G3 X17.221 Y8.9525 I-0.0974 J0.0139
G2 X17.2954 Y8.843 I-0.0231 J-0.0957
G2 X17.2661 Y8.7727 I-0.1111 J0.005
G2 X17.1841 Y8.7375 I-0.0731 J0.0573
G2 X17.102 Y8.7727 I-0.0089 J0.0925
G2 X17.0786 Y8.843 I0.1032 J0.0734
G2 X17.1841 Y8.9543 I0.0946 J0.016
G2 X17.221 Y8.9525 I0.0139 J-0.0974
G0 Z3.0
G0 X17.1841 Y7.0266
G0 Z0.4
G1 F1000.0 Z-0.01
G1 F2000.0 Y2.3273
G1 Y7.0266
G0 Z3.0
G0 X19.9204 Y5.1574
G0 Z0.4
G1 F1000.0 Z-0.01
G2 F2000.0 X20.0376 Y5.884 I2.3553 J-0.0072
G2 X20.4067 Y6.5402 I1.844 J-0.6053
G2 X21.0102 Y7.009 I1.472 J-1.2723
G2 X21.854 Y7.1906 I0.8049 J-1.6885
G2 X22.686 Y7.009 I0.0386 J-1.8196
G2 X23.2895 Y6.5402 I-0.8146 J-1.6717
G2 X23.6528 Y5.884 I-1.5332 J-1.2774
G2 X23.7817 Y5.1574 I-2.0325 J-0.7353
G1 Y2.3273
G1 Y5.1574
G3 X23.6528 Y5.884 I-2.1614 J-0.0088
G3 X23.2895 Y6.5402 I-1.8963 J-0.6211
G3 X22.686 Y7.009 I-1.4181 J-1.2029
G3 X21.854 Y7.1906 I-0.7934 J-1.6379
G3 X21.0102 Y7.009 I-0.0388 J-1.87
G3 X20.4067 Y6.5402 I0.8684 J-1.7409
G3 X20.0376 Y5.884 I1.4749 J-1.2616
G3 X19.9204 Y5.1574 I2.2387 J-0.7338
G1 Y2.3273
G1 Y5.1574
( mounting )
G0 Z3.0
( T3 : 3.175 )
T3 M6
M3 S1000
G0 X7.5 Y125.5
G0 Z3.0
G0 X7.5125 Y125.5
G0 Z0.01
G1 F1000.0 Z0.0
G2 F2000.0 X7.4938 Y125.4892 Z-0.0333 I-0.0125 J0.0
G2 Y125.5108 Z-0.0667 I0.0062 J0.0108
G2 X7.5125 Y125.5 Z-0.1 I0.0063 J-0.0108
G2 X7.4938 Y125.4892 Z-0.1333 I-0.0125 J0.0
G2 Y125.5108 Z-0.1667 I0.0062 J0.0108
G2 X7.5125 Y125.5 Z-0.2 I0.0063 J-0.0108
G2 X7.4938 Y125.4892 Z-0.2333 I-0.0125 J0.0
G2 Y125.5108 Z-0.2667 I0.0062 J0.0108
G2 X7.5125 Y125.5 Z-0.3 I0.0063 J-0.0108
G2 X7.4938 Y125.4892 Z-0.3333 I-0.0125 J0.0
G2 Y125.5108 Z-0.3667 I0.0062 J0.0108
G2 X7.5125 Y125.5 Z-0.4 I0.0063 J-0.0108
G2 X7.4938 Y125.4892 Z-0.4333 I-0.0125 J0.0
G2 Y125.5108 Z-0.4667 I0.0062 J0.0108
G2 X7.5125 Y125.5 Z-0.5 I0.0063 J-0.0108
G2 X7.4938 Y125.4892 Z-0.5333 I-0.0125 J0.0
G2 Y125.5108 Z-0.5667 I0.0062 J0.0108
G2 X7.5125 Y125.5 Z-0.6 I0.0063 J-0.0108
G2 X7.4938 Y125.4892 Z-0.6333 I-0.0125 J0.0
G2 Y125.5108 Z-0.6667 I0.0062 J0.0108
G2 X7.5125 Y125.5 Z-0.7 I0.0063 J-0.0108
G2 X7.4938 Y125.4892 Z-0.7333 I-0.0125 J0.0
G2 Y125.5108 Z-0.7667 I0.0062 J0.0108
G2 X7.5125 Y125.5 Z-0.8 I0.0063 J-0.0108
G2 X7.4938 Y125.4892 Z-0.8333 I-0.0125 J0.0
G2 Y125.5108 Z-0.8667 I0.0062 J0.0108
G2 X7.5125 Y125.5 Z-0.9 I0.0063 J-0.0108
G2 X7.4938 Y125.4892 Z-0.9333 I-0.0125 J0.0
G2 Y125.5108 Z-0.9667 I0.0062 J0.0108
G2 X7.5125 Y125.5 Z-1.0 I0.0063 J-0.0108
G2 X7.4938 Y125.4892 Z-1.0333 I-0.0125 J0.0
G2 Y125.5108 Z-1.0667 I0.0062 J0.0108
G2 X7.5125 Y125.5 Z-1.1 I0.0063 J-0.0108
G2 X7.4938 Y125.4892 Z-1.1333 I-0.0125 J0.0
G2 Y125.5108 Z-1.1667 I0.0062 J0.0108
G2 X7.5125 Y125.5 Z-1.2 I0.0063 J-0.0108
G2 X7.4938 Y125.4892 Z-1.2333 I-0.0125 J0.0
G2 Y125.5108 Z-1.2667 I0.0062 J0.0108
G2 X7.5125 Y125.5 Z-1.3 I0.0063 J-0.0108
G2 X7.4938 Y125.4892 Z-1.3333 I-0.0125 J0.0
G2 Y125.5108 Z-1.3667 I0.0062 J0.0108
G2 X7.5125 Y125.5 Z-1.4 I0.0063 J-0.0108
G2 X7.4938 Y125.4892 Z-1.4333 I-0.0125 J0.0
G2 Y125.5108 Z-1.4667 I0.0062 J0.0108
G2 X7.5125 Y125.5 Z-1.5 I0.0063 J-0.0108
G2 X7.4938 Y125.4892 Z-1.5333 I-0.0125 J0.0
G2 Y125.5108 Z-1.5667 I0.0062 J0.0108
G2 X7.5125 Y125.5 Z-1.6 I0.0063 J-0.0108
G2 X7.4938 Y125.4892 Z-1.6333 I-0.0125 J0.0
G2 Y125.5108 Z-1.6667 I0.0062 J0.0108
G2 X7.5125 Y125.5 Z-1.7 I0.0063 J-0.0108
G2 X7.4938 Y125.4892 Z-1.7333 I-0.0125 J0.0
G2 Y125.5108 Z-1.7667 I0.0062 J0.0108
G2 X7.5125 Y125.5 Z-1.8 I0.0063 J-0.0108
G2 X7.4938 Y125.4892 Z-1.8333 I-0.0125 J0.0
G2 Y125.5108 Z-1.8667 I0.0062 J0.0108
G2 X7.5125 Y125.5 Z-1.9 I0.0063 J-0.0108
G2 X7.4938 Y125.4892 Z-1.9333 I-0.0125 J0.0
G2 Y125.5108 Z-1.9667 I0.0062 J0.0108
G2 X7.5125 Y125.5 Z-2.0 I0.0063 J-0.0108
G2 X7.4938 Y125.4892 Z-2.0333 I-0.0125 J0.0
G2 Y125.5108 Z-2.0667 I0.0062 J0.0108
G2 X7.5125 Y125.5 Z-2.1 I0.0063 J-0.0108
G2 X7.4938 Y125.4892 Z-2.1333 I-0.0125 J0.0
G2 Y125.5108 Z-2.1667 I0.0062 J0.0108
G2 X7.5125 Y125.5 Z-2.2 I0.0063 J-0.0108
G2 X7.4938 Y125.4892 Z-2.2333 I-0.0125 J0.0
G2 Y125.5108 Z-2.2667 I0.0062 J0.0108
G2 X7.5125 Y125.5 Z-2.3 I0.0063 J-0.0108
G2 X7.4938 Y125.4892 Z-2.3333 I-0.0125 J0.0
G2 Y125.5108 Z-2.3667 I0.0062 J0.0108
G2 X7.5125 Y125.5 Z-2.4 I0.0063 J-0.0108
G2 X7.4938 Y125.4892 Z-2.4333 I-0.0125 J0.0
G2 Y125.5108 Z-2.4667 I0.0062 J0.0108
G2 X7.5125 Y125.5 Z-2.5 I0.0063 J-0.0108
G2 X7.4938 Y125.4892 Z-2.5333 I-0.0125 J0.0
G2 Y125.5108 Z-2.5667 I0.0062 J0.0108
G2 X7.5125 Y125.5 Z-2.6 I0.0063 J-0.0108
G2 X7.4938 Y125.4892 Z-2.6333 I-0.0125 J0.0
G2 Y125.5108 Z-2.6667 I0.0062 J0.0108
G2 X7.5125 Y125.5 Z-2.7 I0.0063 J-0.0108
G2 X7.4938 Y125.4892 Z-2.7333 I-0.0125 J0.0
G2 Y125.5108 Z-2.7667 I0.0062 J0.0108
G2 X7.5125 Y125.5 Z-2.8 I0.0063 J-0.0108
G2 X7.4938 Y125.4892 Z-2.8333 I-0.0125 J0.0
G2 Y125.5108 Z-2.8667 I0.0062 J0.0108
G2 X7.5125 Y125.5 Z-2.9 I0.0063 J-0.0108
G2 X7.4938 Y125.4892 Z-2.9333 I-0.0125 J0.0
G2 Y125.5108 Z-2.9667 I0.0062 J0.0108
G2 X7.5125 Y125.5 Z-3.0 I0.0063 J-0.0108
G2 X7.4938 Y125.4892 Z-3.0333 I-0.0125 J0.0
G2 Y125.5108 Z-3.0667 I0.0062 J0.0108
G2 X7.5125 Y125.5 Z-3.1 I0.0062 J-0.0108
G2 X7.4938 Y125.4892 Z-3.1333 I-0.0125 J0.0
G2 Y125.5108 Z-3.1667 I0.0063 J0.0108
G2 X7.5125 Y125.5 Z-3.2 I0.0062 J-0.0108
G2 X7.4938 Y125.4892 I-0.0125 J0.0
G2 Y125.5108 I0.0063 J0.0108
G2 X7.5125 Y125.5 I0.0062 J-0.0108
G0 Z3.0
G0 X32.9125
G0 Z0.01
G1 F1000.0 Z0.0
G2 F2000.0 X32.8937 Y125.4892 Z-0.0333 I-0.0125 J0.0
G2 Y125.5108 Z-0.0667 I0.0062 J0.0108
G2 X32.9125 Y125.5 Z-0.1 I0.0063 J-0.0108
G2 X32.8937 Y125.4892 Z-0.1333 I-0.0125 J0.0
G2 Y125.5108 Z-0.1667 I0.0062 J0.0108
G2 X32.9125 Y125.5 Z-0.2 I0.0063 J-0.0108
G2 X32.8937 Y125.4892 Z-0.2333 I-0.0125 J0.0
G2 Y125.5108 Z-0.2667 I0.0062 J0.0108
G2 X32.9125 Y125.5 Z-0.3 I0.0063 J-0.0108
G2 X32.8937 Y125.4892 Z-0.3333 I-0.0125 J0.0
G2 Y125.5108 Z-0.3667 I0.0062 J0.0108
G2 X32.9125 Y125.5 Z-0.4 I0.0063 J-0.0108
G2 X32.8937 Y125.4892 Z-0.4333 I-0.0125 J0.0
G2 Y125.5108 Z-0.4667 I0.0062 J0.0108
G2 X32.9125 Y125.5 Z-0.5 I0.0063 J-0.0108
G2 X32.8937 Y125.4892 Z-0.5333 I-0.0125 J0.0
G2 Y125.5108 Z-0.5667 I0.0062 J0.0108
G2 X32.9125 Y125.5 Z-0.6 I0.0063 J-0.0108
G2 X32.8937 Y125.4892 Z-0.6333 I-0.0125 J0.0
G2 Y125.5108 Z-0.6667 I0.0062 J0.0108
G2 X32.9125 Y125.5 Z-0.7 I0.0063 J-0.0108
G2 X32.8937 Y125.4892 Z-0.7333 I-0.0125 J0.0
G2 Y125.5108 Z-0.7667 I0.0062 J0.0108
G2 X32.9125 Y125.5 Z-0.8 I0.0063 J-0.0108
G2 X32.8937 Y125.4892 Z-0.8333 I-0.0125 J0.0
G2 Y125.5108 Z-0.8667 I0.0062 J0.0108
G2 X32.9125 Y125.5 Z-0.9 I0.0063 J-0.0108
G2 X32.8937 Y125.4892 Z-0.9333 I-0.0125 J0.0
G2 Y125.5108 Z-0.9667 I0.0062 J0.0108
G2 X32.9125 Y125.5 Z-1.0 I0.0063 J-0.0108
G2 X32.8937 Y125.4892 Z-1.0333 I-0.0125 J0.0
G2 Y125.5108 Z-1.0667 I0.0062 J0.0108
G2 X32.9125 Y125.5 Z-1.1 I0.0063 J-0.0108
G2 X32.8937 Y125.4892 Z-1.1333 I-0.0125 J0.0
G2 Y125.5108 Z-1.1667 I0.0062 J0.0108
G2 X32.9125 Y125.5 Z-1.2 I0.0063 J-0.0108
G2 X32.8937 Y125.4892 Z-1.2333 I-0.0125 J0.0
G2 Y125.5108 Z-1.2667 I0.0062 J0.0108
G2 X32.9125 Y125.5 Z-1.3 I0.0063 J-0.0108
G2 X32.8937 Y125.4892 Z-1.3333 I-0.0125 J0.0
G2 Y125.5108 Z-1.3667 I0.0062 J0.0108
G2 X32.9125 Y125.5 Z-1.4 I0.0063 J-0.0108
G2 X32.8937 Y125.4892 Z-1.4333 I-0.0125 J0.0
G2 Y125.5108 Z-1.4667 I0.0062 J0.0108
G2 X32.9125 Y125.5 Z-1.5 I0.0063 J-0.0108
G2 X32.8937 Y125.4892 Z-1.5333 I-0.0125 J0.0
G2 Y125.5108 Z-1.5667 I0.0062 J0.0108
G2 X32.9125 Y125.5 Z-1.6 I0.0063 J-0.0108
G2 X32.8937 Y125.4892 Z-1.6333 I-0.0125 J0.0
G2 Y125.5108 Z-1.6667 I0.0062 J0.0108
G2 X32.9125 Y125.5 Z-1.7 I0.0063 J-0.0108
G2 X32.8937 Y125.4892 Z-1.7333 I-0.0125 J0.0
G2 Y125.5108 Z-1.7667 I0.0062 J0.0108
G2 X32.9125 Y125.5 Z-1.8 I0.0063 J-0.0108
G2 X32.8937 Y125.4892 Z-1.8333 I-0.0125 J0.0
G2 Y125.5108 Z-1.8667 I0.0062 J0.0108
G2 X32.9125 Y125.5 Z-1.9 I0.0063 J-0.0108
G2 X32.8937 Y125.4892 Z-1.9333 I-0.0125 J0.0
G2 Y125.5108 Z-1.9667 I0.0062 J0.0108
G2 X32.9125 Y125.5 Z-2.0 I0.0063 J-0.0108
G2 X32.8937 Y125.4892 Z-2.0333 I-0.0125 J0.0
G2 Y125.5108 Z-2.0667 I0.0062 J0.0108
G2 X32.9125 Y125.5 Z-2.1 I0.0063 J-0.0108
G2 X32.8937 Y125.4892 Z-2.1333 I-0.0125 J0.0
G2 Y125.5108 Z-2.1667 I0.0062 J0.0108
G2 X32.9125 Y125.5 Z-2.2 I0.0063 J-0.0108
G2 X32.8937 Y125.4892 Z-2.2333 I-0.0125 J0.0
G2 Y125.5108 Z-2.2667 I0.0062 J0.0108
G2 X32.9125 Y125.5 Z-2.3 I0.0063 J-0.0108
G2 X32.8937 Y125.4892 Z-2.3333 I-0.0125 J0.0
G2 Y125.5108 Z-2.3667 I0.0062 J0.0108
G2 X32.9125 Y125.5 Z-2.4 I0.0063 J-0.0108
G2 X32.8937 Y125.4892 Z-2.4333 I-0.0125 J0.0
G2 Y125.5108 Z-2.4667 I0.0062 J0.0108
G2 X32.9125 Y125.5 Z-2.5 I0.0063 J-0.0108
G2 X32.8937 Y125.4892 Z-2.5333 I-0.0125 J0.0
G2 Y125.5108 Z-2.5667 I0.0062 J0.0108
G2 X32.9125 Y125.5 Z-2.6 I0.0063 J-0.0108
G2 X32.8937 Y125.4892 Z-2.6333 I-0.0125 J0.0
G2 Y125.5108 Z-2.6667 I0.0062 J0.0108
G2 X32.9125 Y125.5 Z-2.7 I0.0063 J-0.0108
G2 X32.8937 Y125.4892 Z-2.7333 I-0.0125 J0.0
G2 Y125.5108 Z-2.7667 I0.0062 J0.0108
G2 X32.9125 Y125.5 Z-2.8 I0.0063 J-0.0108
G2 X32.8937 Y125.4892 Z-2.8333 I-0.0125 J0.0
G2 Y125.5108 Z-2.8667 I0.0062 J0.0108
G2 X32.9125 Y125.5 Z-2.9 I0.0063 J-0.0108
G2 X32.8937 Y125.4892 Z-2.9333 I-0.0125 J0.0
G2 Y125.5108 Z-2.9667 I0.0063 J0.0108
G2 X32.9125 Y125.5 Z-3.0 I0.0063 J-0.0108
G2 X32.8937 Y125.4892 Z-3.0333 I-0.0125 J0.0
G2 Y125.5108 Z-3.0667 I0.0063 J0.0108
G2 X32.9125 Y125.5 Z-3.1 I0.0063 J-0.0108
G2 X32.8937 Y125.4892 Z-3.1333 I-0.0125 J0.0
G2 Y125.5108 Z-3.1667 I0.0063 J0.0108
G2 X32.9125 Y125.5 Z-3.2 I0.0063 J-0.0108
G2 X32.8937 Y125.4892 I-0.0125 J0.0
G2 Y125.5108 I0.0063 J0.0108
G2 X32.9125 Y125.5 I0.0062 J-0.0108
G0 Z3.0
G0 X30.8925 Y20.29
G0 Z0.01
G1 F1000.0 Z0.0
G2 F2000.0 X30.8738 Y20.2792 Z-0.0333 I-0.0125 J0.0
G2 Y20.3008 Z-0.0667 I0.0062 J0.0108
G2 X30.8925 Y20.29 Z-0.1 I0.0063 J-0.0108
G2 X30.8738 Y20.2792 Z-0.1333 I-0.0125 J0.0
G2 Y20.3008 Z-0.1667 I0.0062 J0.0108
G2 X30.8925 Y20.29 Z-0.2 I0.0063 J-0.0108
G2 X30.8738 Y20.2792 Z-0.2333 I-0.0125 J0.0
G2 Y20.3008 Z-0.2667 I0.0062 J0.0108
G2 X30.8925 Y20.29 Z-0.3 I0.0063 J-0.0108
G2 X30.8738 Y20.2792 Z-0.3333 I-0.0125 J0.0
G2 Y20.3008 Z-0.3667 I0.0062 J0.0108
G2 X30.8925 Y20.29 Z-0.4 I0.0063 J-0.0108
G2 X30.8738 Y20.2792 Z-0.4333 I-0.0125 J0.0
G2 Y20.3008 Z-0.4667 I0.0062 J0.0108
G2 X30.8925 Y20.29 Z-0.5 I0.0063 J-0.0108
G2 X30.8738 Y20.2792 Z-0.5333 I-0.0125 J0.0
G2 Y20.3008 Z-0.5667 I0.0062 J0.0108
G2 X30.8925 Y20.29 Z-0.6 I0.0063 J-0.0108
G2 X30.8738 Y20.2792 Z-0.6333 I-0.0125 J0.0
G2 Y20.3008 Z-0.6667 I0.0062 J0.0108
G2 X30.8925 Y20.29 Z-0.7 I0.0063 J-0.0108
G2 X30.8738 Y20.2792 Z-0.7333 I-0.0125 J0.0
G2 Y20.3008 Z-0.7667 I0.0062 J0.0108
G2 X30.8925 Y20.29 Z-0.8 I0.0063 J-0.0108
G2 X30.8738 Y20.2792 Z-0.8333 I-0.0125 J0.0
G2 Y20.3008 Z-0.8667 I0.0062 J0.0108
G2 X30.8925 Y20.29 Z-0.9 I0.0063 J-0.0108
G2 X30.8738 Y20.2792 Z-0.9333 I-0.0125 J0.0
G2 Y20.3008 Z-0.9667 I0.0062 J0.0108
G2 X30.8925 Y20.29 Z-1.0 I0.0063 J-0.0108
G2 X30.8738 Y20.2792 Z-1.0333 I-0.0125 J0.0
G2 Y20.3008 Z-1.0667 I0.0062 J0.0108
G2 X30.8925 Y20.29 Z-1.1 I0.0063 J-0.0108
G2 X30.8738 Y20.2792 Z-1.1333 I-0.0125 J0.0
G2 Y20.3008 Z-1.1667 I0.0062 J0.0108
G2 X30.8925 Y20.29 Z-1.2 I0.0063 J-0.0108
G2 X30.8738 Y20.2792 Z-1.2333 I-0.0125 J0.0
G2 Y20.3008 Z-1.2667 I0.0062 J0.0108
G2 X30.8925 Y20.29 Z-1.3 I0.0063 J-0.0108
G2 X30.8738 Y20.2792 Z-1.3333 I-0.0125 J0.0
G2 Y20.3008 Z-1.3667 I0.0062 J0.0108
G2 X30.8925 Y20.29 Z-1.4 I0.0063 J-0.0108
G2 X30.8738 Y20.2792 Z-1.4333 I-0.0125 J0.0
G2 Y20.3008 Z-1.4667 I0.0062 J0.0108
G2 X30.8925 Y20.29 Z-1.5 I0.0063 J-0.0108
G2 X30.8738 Y20.2792 Z-1.5333 I-0.0125 J0.0
G2 Y20.3008 Z-1.5667 I0.0062 J0.0108
G2 X30.8925 Y20.29 Z-1.6 I0.0063 J-0.0108
G2 X30.8738 Y20.2792 Z-1.6333 I-0.0125 J0.0
G2 Y20.3008 Z-1.6667 I0.0062 J0.0108
G2 X30.8925 Y20.29 Z-1.7 I0.0063 J-0.0108
G2 X30.8738 Y20.2792 Z-1.7333 I-0.0125 J0.0
G2 Y20.3008 Z-1.7667 I0.0062 J0.0108
G2 X30.8925 Y20.29 Z-1.8 I0.0063 J-0.0108
G2 X30.8738 Y20.2792 Z-1.8333 I-0.0125 J0.0
G2 Y20.3008 Z-1.8667 I0.0062 J0.0108
G2 X30.8925 Y20.29 Z-1.9 I0.0063 J-0.0108
G2 X30.8738 Y20.2792 Z-1.9333 I-0.0125 J0.0
G2 Y20.3008 Z-1.9667 I0.0062 J0.0108
G2 X30.8925 Y20.29 Z-2.0 I0.0063 J-0.0108
G2 X30.8738 Y20.2792 Z-2.0333 I-0.0125 J0.0
G2 Y20.3008 Z-2.0667 I0.0062 J0.0108
G2 X30.8925 Y20.29 Z-2.1 I0.0063 J-0.0108
G2 X30.8738 Y20.2792 Z-2.1333 I-0.0125 J0.0
G2 Y20.3008 Z-2.1667 I0.0062 J0.0108
G2 X30.8925 Y20.29 Z-2.2 I0.0063 J-0.0108
G2 X30.8738 Y20.2792 Z-2.2333 I-0.0125 J0.0
G2 Y20.3008 Z-2.2667 I0.0062 J0.0108
G2 X30.8925 Y20.29 Z-2.3 I0.0063 J-0.0108
G2 X30.8738 Y20.2792 Z-2.3333 I-0.0125 J0.0
G2 Y20.3008 Z-2.3667 I0.0062 J0.0108
G2 X30.8925 Y20.29 Z-2.4 I0.0063 J-0.0108
G2 X30.8738 Y20.2792 Z-2.4333 I-0.0125 J0.0
G2 Y20.3008 Z-2.4667 I0.0063 J0.0108
G2 X30.8925 Y20.29 Z-2.5 I0.0062 J-0.0108
G2 X30.8738 Y20.2792 Z-2.5333 I-0.0125 J0.0
G2 Y20.3008 Z-2.5667 I0.0063 J0.0108
G2 X30.8925 Y20.29 Z-2.6 I0.0062 J-0.0108
G2 X30.8738 Y20.2792 Z-2.6333 I-0.0125 J0.0
G2 Y20.3008 Z-2.6667 I0.0063 J0.0108
G2 X30.8925 Y20.29 Z-2.7 I0.0062 J-0.0108
G2 X30.8738 Y20.2792 Z-2.7333 I-0.0125 J0.0
G2 Y20.3008 Z-2.7667 I0.0063 J0.0108
G2 X30.8925 Y20.29 Z-2.8 I0.0062 J-0.0108
G2 X30.8738 Y20.2792 Z-2.8333 I-0.0125 J0.0
G2 Y20.3008 Z-2.8667 I0.0063 J0.0108
G2 X30.8925 Y20.29 Z-2.9 I0.0062 J-0.0108
G2 X30.8738 Y20.2792 Z-2.9333 I-0.0125 J0.0
G2 Y20.3008 Z-2.9667 I0.0063 J0.0108
G2 X30.8925 Y20.29 Z-3.0 I0.0062 J-0.0108
G2 X30.8738 Y20.2792 Z-3.0333 I-0.0125 J0.0
G2 Y20.3008 Z-3.0667 I0.0063 J0.0108
G2 X30.8925 Y20.29 Z-3.1 I0.0062 J-0.0108
G2 X30.8738 Y20.2792 Z-3.1333 I-0.0125 J0.0
G2 Y20.3008 Z-3.1667 I0.0063 J0.0108
G2 X30.8925 Y20.29 Z-3.2 I0.0062 J-0.0108
G2 X30.8738 Y20.2792 I-0.0125 J0.0
G2 Y20.3008 I0.0063 J0.0108
G2 X30.8925 Y20.29 I0.0062 J-0.0108
G0 Z0.0
G2 X30.8738 Y20.2792 Z-0.0333 I-0.0125 J0.0
G2 Y20.3008 Z-0.0667 I0.0062 J0.0108
G2 X30.8925 Y20.29 Z-0.1 I0.0063 J-0.0108
G2 X30.8738 Y20.2792 Z-0.1333 I-0.0125 J0.0
G2 Y20.3008 Z-0.1667 I0.0062 J0.0108
G2 X30.8925 Y20.29 Z-0.2 I0.0063 J-0.0108
G2 X30.8738 Y20.2792 Z-0.2333 I-0.0125 J0.0
G2 Y20.3008 Z-0.2667 I0.0062 J0.0108
G2 X30.8925 Y20.29 Z-0.3 I0.0063 J-0.0108
G2 X30.8738 Y20.2792 Z-0.3333 I-0.0125 J0.0
G2 Y20.3008 Z-0.3667 I0.0062 J0.0108
G2 X30.8925 Y20.29 Z-0.4 I0.0063 J-0.0108
G2 X30.8738 Y20.2792 Z-0.4333 I-0.0125 J0.0
G2 Y20.3008 Z-0.4667 I0.0062 J0.0108
G2 X30.8925 Y20.29 Z-0.5 I0.0063 J-0.0108
G2 X30.8738 Y20.2792 Z-0.5333 I-0.0125 J0.0
G2 Y20.3008 Z-0.5667 I0.0062 J0.0108
G2 X30.8925 Y20.29 Z-0.6 I0.0063 J-0.0108
G2 X30.8738 Y20.2792 Z-0.6333 I-0.0125 J0.0
G2 Y20.3008 Z-0.6667 I0.0062 J0.0108
G2 X30.8925 Y20.29 Z-0.7 I0.0063 J-0.0108
G2 X30.8738 Y20.2792 Z-0.7333 I-0.0125 J0.0
G2 Y20.3008 Z-0.7667 I0.0062 J0.0108
G2 X30.8925 Y20.29 Z-0.8 I0.0063 J-0.0108
G2 X30.8738 Y20.2792 Z-0.8333 I-0.0125 J0.0
G2 Y20.3008 Z-0.8667 I0.0062 J0.0108
G2 X30.8925 Y20.29 Z-0.9 I0.0063 J-0.0108
G2 X30.8738 Y20.2792 Z-0.9333 I-0.0125 J0.0
G2 Y20.3008 Z-0.9667 I0.0062 J0.0108
G2 X30.8925 Y20.29 Z-1.0 I0.0063 J-0.0108
G2 X30.8738 Y20.2792 Z-1.0333 I-0.0125 J0.0
G2 Y20.3008 Z-1.0667 I0.0062 J0.0108
G2 X30.8925 Y20.29 Z-1.1 I0.0063 J-0.0108
G2 X30.8738 Y20.2792 Z-1.1333 I-0.0125 J0.0
G2 Y20.3008 Z-1.1667 I0.0062 J0.0108
G2 X30.8925 Y20.29 Z-1.2 I0.0063 J-0.0108
G2 X30.8738 Y20.2792 Z-1.2333 I-0.0125 J0.0
G2 Y20.3008 Z-1.2667 I0.0062 J0.0108
G2 X30.8925 Y20.29 Z-1.3 I0.0063 J-0.0108
G2 X30.8738 Y20.2792 Z-1.3333 I-0.0125 J0.0
G2 Y20.3008 Z-1.3667 I0.0062 J0.0108
G2 X30.8925 Y20.29 Z-1.4 I0.0063 J-0.0108
G2 X30.8738 Y20.2792 Z-1.4333 I-0.0125 J0.0
G2 Y20.3008 Z-1.4667 I0.0062 J0.0108
G2 X30.8925 Y20.29 Z-1.5 I0.0063 J-0.0108
G2 X30.8738 Y20.2792 Z-1.5333 I-0.0125 J0.0
G2 Y20.3008 Z-1.5667 I0.0062 J0.0108
G2 X30.8925 Y20.29 Z-1.6 I0.0063 J-0.0108
G2 X30.8738 Y20.2792 Z-1.6333 I-0.0125 J0.0
G2 Y20.3008 Z-1.6667 I0.0062 J0.0108
G2 X30.8925 Y20.29 Z-1.7 I0.0063 J-0.0108
G2 X30.8738 Y20.2792 Z-1.7333 I-0.0125 J0.0
G2 Y20.3008 Z-1.7667 I0.0062 J0.0108
G2 X30.8925 Y20.29 Z-1.8 I0.0063 J-0.0108
G2 X30.8738 Y20.2792 Z-1.8333 I-0.0125 J0.0
G2 Y20.3008 Z-1.8667 I0.0062 J0.0108
G2 X30.8925 Y20.29 Z-1.9 I0.0063 J-0.0108
G2 X30.8738 Y20.2792 Z-1.9333 I-0.0125 J0.0
G2 Y20.3008 Z-1.9667 I0.0062 J0.0108
G2 X30.8925 Y20.29 Z-2.0 I0.0063 J-0.0108
G2 X30.8738 Y20.2792 Z-2.0333 I-0.0125 J0.0
G2 Y20.3008 Z-2.0667 I0.0062 J0.0108
G2 X30.8925 Y20.29 Z-2.1 I0.0063 J-0.0108
G2 X30.8738 Y20.2792 Z-2.1333 I-0.0125 J0.0
G2 Y20.3008 Z-2.1667 I0.0062 J0.0108
G2 X30.8925 Y20.29 Z-2.2 I0.0063 J-0.0108
G2 X30.8738 Y20.2792 Z-2.2333 I-0.0125 J0.0
G2 Y20.3008 Z-2.2667 I0.0062 J0.0108
G2 X30.8925 Y20.29 Z-2.3 I0.0063 J-0.0108
G2 X30.8738 Y20.2792 Z-2.3333 I-0.0125 J0.0
G2 Y20.3008 Z-2.3667 I0.0062 J0.0108
G2 X30.8925 Y20.29 Z-2.4 I0.0063 J-0.0108
G2 X30.8738 Y20.2792 Z-2.4333 I-0.0125 J0.0
G2 Y20.3008 Z-2.4667 I0.0063 J0.0108
G2 X30.8925 Y20.29 Z-2.5 I0.0062 J-0.0108
G2 X30.8738 Y20.2792 Z-2.5333 I-0.0125 J0.0
G2 Y20.3008 Z-2.5667 I0.0063 J0.0108
G2 X30.8925 Y20.29 Z-2.6 I0.0062 J-0.0108
G2 X30.8738 Y20.2792 Z-2.6333 I-0.0125 J0.0
G2 Y20.3008 Z-2.6667 I0.0063 J0.0108
G2 X30.8925 Y20.29 Z-2.7 I0.0062 J-0.0108
G2 X30.8738 Y20.2792 Z-2.7333 I-0.0125 J0.0
G2 Y20.3008 Z-2.7667 I0.0063 J0.0108
G2 X30.8925 Y20.29 Z-2.8 I0.0062 J-0.0108
G2 X30.8738 Y20.2792 Z-2.8333 I-0.0125 J0.0
G2 Y20.3008 Z-2.8667 I0.0063 J0.0108
G2 X30.8925 Y20.29 Z-2.9 I0.0062 J-0.0108
G2 X30.8738 Y20.2792 Z-2.9333 I-0.0125 J0.0
G2 Y20.3008 Z-2.9667 I0.0063 J0.0108
G2 X30.8925 Y20.29 Z-3.0 I0.0062 J-0.0108
G2 X30.8738 Y20.2792 Z-3.0333 I-0.0125 J0.0
G2 Y20.3008 Z-3.0667 I0.0063 J0.0108
G2 X30.8925 Y20.29 Z-3.1 I0.0062 J-0.0108
G2 X30.8738 Y20.2792 Z-3.1333 I-0.0125 J0.0
G2 Y20.3008 Z-3.1667 I0.0063 J0.0108
G2 X30.8925 Y20.29 Z-3.2 I0.0062 J-0.0108
G2 X30.8738 Y20.2792 I-0.0125 J0.0
G2 Y20.3008 I0.0063 J0.0108
G2 X30.8925 Y20.29 I0.0062 J-0.0108
G0 Z3.0
G0 X32.9125 Y3.0
G0 Z0.01
G1 F1000.0 Z0.0
G2 F2000.0 X32.8937 Y2.9892 Z-0.0333 I-0.0125 J0.0
G2 Y3.0108 Z-0.0667 I0.0063 J0.0108
G2 X32.9125 Y3.0 Z-0.1 I0.0063 J-0.0108
G2 X32.8937 Y2.9892 Z-0.1333 I-0.0125 J0.0
G2 Y3.0108 Z-0.1667 I0.0063 J0.0108
G2 X32.9125 Y3.0 Z-0.2 I0.0063 J-0.0108
G2 X32.8937 Y2.9892 Z-0.2333 I-0.0125 J0.0
G2 Y3.0108 Z-0.2667 I0.0063 J0.0108
G2 X32.9125 Y3.0 Z-0.3 I0.0063 J-0.0108
G2 X32.8937 Y2.9892 Z-0.3333 I-0.0125 J0.0
G2 Y3.0108 Z-0.3667 I0.0063 J0.0108
G2 X32.9125 Y3.0 Z-0.4 I0.0063 J-0.0108
G2 X32.8937 Y2.9892 Z-0.4333 I-0.0125 J0.0
G2 Y3.0108 Z-0.4667 I0.0063 J0.0108
G2 X32.9125 Y3.0 Z-0.5 I0.0063 J-0.0108
G2 X32.8937 Y2.9892 Z-0.5333 I-0.0125 J0.0
G2 Y3.0108 Z-0.5667 I0.0063 J0.0108
G2 X32.9125 Y3.0 Z-0.6 I0.0063 J-0.0108
G2 X32.8937 Y2.9892 Z-0.6333 I-0.0125 J0.0
G2 Y3.0108 Z-0.6667 I0.0063 J0.0108
G2 X32.9125 Y3.0 Z-0.7 I0.0063 J-0.0108
G2 X32.8937 Y2.9892 Z-0.7333 I-0.0125 J0.0
G2 Y3.0108 Z-0.7667 I0.0063 J0.0108
G2 X32.9125 Y3.0 Z-0.8 I0.0063 J-0.0108
G2 X32.8937 Y2.9892 Z-0.8333 I-0.0125 J0.0
G2 Y3.0108 Z-0.8667 I0.0063 J0.0108
G2 X32.9125 Y3.0 Z-0.9 I0.0063 J-0.0108
G2 X32.8937 Y2.9892 Z-0.9333 I-0.0125 J0.0
G2 Y3.0108 Z-0.9667 I0.0063 J0.0108
G2 X32.9125 Y3.0 Z-1.0 I0.0063 J-0.0108
G2 X32.8937 Y2.9892 Z-1.0333 I-0.0125 J0.0
G2 Y3.0108 Z-1.0667 I0.0063 J0.0108
G2 X32.9125 Y3.0 Z-1.1 I0.0063 J-0.0108
G2 X32.8937 Y2.9892 Z-1.1333 I-0.0125 J0.0
G2 Y3.0108 Z-1.1667 I0.0063 J0.0108
G2 X32.9125 Y3.0 Z-1.2 I0.0063 J-0.0108
G2 X32.8937 Y2.9892 Z-1.2333 I-0.0125 J0.0
G2 Y3.0108 Z-1.2667 I0.0063 J0.0108
G2 X32.9125 Y3.0 Z-1.3 I0.0063 J-0.0108
G2 X32.8937 Y2.9892 Z-1.3333 I-0.0125 J0.0
G2 Y3.0108 Z-1.3667 I0.0063 J0.0108
G2 X32.9125 Y3.0 Z-1.4 I0.0063 J-0.0108
G2 X32.8937 Y2.9892 Z-1.4333 I-0.0125 J0.0
G2 Y3.0108 Z-1.4667 I0.0063 J0.0108
G2 X32.9125 Y3.0 Z-1.5 I0.0063 J-0.0108
G2 X32.8937 Y2.9892 Z-1.5333 I-0.0125 J0.0
G2 Y3.0108 Z-1.5667 I0.0063 J0.0108
G2 X32.9125 Y3.0 Z-1.6 I0.0063 J-0.0108
G2 X32.8937 Y2.9892 Z-1.6333 I-0.0125 J0.0
G2 Y3.0108 Z-1.6667 I0.0063 J0.0108
G2 X32.9125 Y3.0 Z-1.7 I0.0063 J-0.0108
G2 X32.8937 Y2.9892 Z-1.7333 I-0.0125 J0.0
G2 Y3.0108 Z-1.7667 I0.0063 J0.0108
G2 X32.9125 Y3.0 Z-1.8 I0.0063 J-0.0108
G2 X32.8937 Y2.9892 Z-1.8333 I-0.0125 J0.0
G2 Y3.0108 Z-1.8667 I0.0063 J0.0108
G2 X32.9125 Y3.0 Z-1.9 I0.0063 J-0.0108
G2 X32.8937 Y2.9892 Z-1.9333 I-0.0125 J0.0
G2 Y3.0108 Z-1.9667 I0.0063 J0.0108
G2 X32.9125 Y3.0 Z-2.0 I0.0063 J-0.0108
G2 X32.8937 Y2.9892 Z-2.0333 I-0.0125 J0.0
G2 Y3.0108 Z-2.0667 I0.0063 J0.0108
G2 X32.9125 Y3.0 Z-2.1 I0.0063 J-0.0108
G2 X32.8937 Y2.9892 Z-2.1333 I-0.0125 J0.0
G2 Y3.0108 Z-2.1667 I0.0063 J0.0108
G2 X32.9125 Y3.0 Z-2.2 I0.0063 J-0.0108
G2 X32.8937 Y2.9892 Z-2.2333 I-0.0125 J0.0
G2 Y3.0108 Z-2.2667 I0.0063 J0.0108
G2 X32.9125 Y3.0 Z-2.3 I0.0063 J-0.0108
G2 X32.8937 Y2.9892 Z-2.3333 I-0.0125 J0.0
G2 Y3.0108 Z-2.3667 I0.0063 J0.0108
G2 X32.9125 Y3.0 Z-2.4 I0.0063 J-0.0108
G2 X32.8937 Y2.9892 Z-2.4333 I-0.0125 J0.0
G2 Y3.0108 Z-2.4667 I0.0063 J0.0108
G2 X32.9125 Y3.0 Z-2.5 I0.0063 J-0.0108
G2 X32.8937 Y2.9892 Z-2.5333 I-0.0125 J0.0
G2 Y3.0108 Z-2.5667 I0.0063 J0.0108
G2 X32.9125 Y3.0 Z-2.6 I0.0063 J-0.0108
G2 X32.8937 Y2.9892 Z-2.6333 I-0.0125 J0.0
G2 Y3.0108 Z-2.6667 I0.0063 J0.0108
G2 X32.9125 Y3.0 Z-2.7 I0.0063 J-0.0108
G2 X32.8937 Y2.9892 Z-2.7333 I-0.0125 J0.0
G2 Y3.0108 Z-2.7667 I0.0063 J0.0108
G2 X32.9125 Y3.0 Z-2.8 I0.0063 J-0.0108
G2 X32.8937 Y2.9892 Z-2.8333 I-0.0125 J0.0
G2 Y3.0108 Z-2.8667 I0.0063 J0.0108
G2 X32.9125 Y3.0 Z-2.9 I0.0063 J-0.0108
G2 X32.8937 Y2.9892 Z-2.9333 I-0.0125 J0.0
G2 Y3.0108 Z-2.9667 I0.0063 J0.0108
G2 X32.9125 Y3.0 Z-3.0 I0.0062 J-0.0108
G2 X32.8937 Y2.9892 Z-3.0333 I-0.0125 J0.0
G2 Y3.0108 Z-3.0667 I0.0063 J0.0108
G2 X32.9125 Y3.0 Z-3.1 I0.0062 J-0.0108
G2 X32.8937 Y2.9892 Z-3.1333 I-0.0125 J0.0
G2 Y3.0108 Z-3.1667 I0.0063 J0.0108
G2 X32.9125 Y3.0 Z-3.2 I0.0062 J-0.0108
G2 X32.8937 Y2.9892 I-0.0125 J0.0
G2 Y3.0108 I0.0063 J0.0108
G2 X32.9125 Y3.0 I0.0062 J-0.0108
G0 Z3.0
G0 X7.5125
G0 Z0.01
G1 F1000.0 Z0.0
G2 F2000.0 X7.4938 Y2.9892 Z-0.0333 I-0.0125 J0.0
G2 Y3.0108 Z-0.0667 I0.0062 J0.0108
G2 X7.5125 Y3.0 Z-0.1 I0.0063 J-0.0108
G2 X7.4938 Y2.9892 Z-0.1333 I-0.0125 J0.0
G2 Y3.0108 Z-0.1667 I0.0062 J0.0108
G2 X7.5125 Y3.0 Z-0.2 I0.0063 J-0.0108
G2 X7.4938 Y2.9892 Z-0.2333 I-0.0125 J0.0
G2 Y3.0108 Z-0.2667 I0.0062 J0.0108
G2 X7.5125 Y3.0 Z-0.3 I0.0063 J-0.0108
G2 X7.4938 Y2.9892 Z-0.3333 I-0.0125 J0.0
G2 Y3.0108 Z-0.3667 I0.0063 J0.0108
G2 X7.5125 Y3.0 Z-0.4 I0.0062 J-0.0108
G2 X7.4938 Y2.9892 Z-0.4333 I-0.0125 J0.0
G2 Y3.0108 Z-0.4667 I0.0063 J0.0108
G2 X7.5125 Y3.0 Z-0.5 I0.0062 J-0.0108
G2 X7.4938 Y2.9892 Z-0.5333 I-0.0125 J0.0
G2 Y3.0108 Z-0.5667 I0.0063 J0.0108
G2 X7.5125 Y3.0 Z-0.6 I0.0062 J-0.0108
G2 X7.4938 Y2.9892 Z-0.6333 I-0.0125 J0.0
G2 Y3.0108 Z-0.6667 I0.0062 J0.0108
G2 X7.5125 Y3.0 Z-0.7 I0.0063 J-0.0108
G2 X7.4938 Y2.9892 Z-0.7333 I-0.0125 J0.0
G2 Y3.0108 Z-0.7667 I0.0062 J0.0108
G2 X7.5125 Y3.0 Z-0.8 I0.0063 J-0.0108
G2 X7.4938 Y2.9892 Z-0.8333 I-0.0125 J0.0
G2 Y3.0108 Z-0.8667 I0.0062 J0.0108
G2 X7.5125 Y3.0 Z-0.9 I0.0063 J-0.0108
G2 X7.4938 Y2.9892 Z-0.9333 I-0.0125 J0.0
G2 Y3.0108 Z-0.9667 I0.0062 J0.0108
G2 X7.5125 Y3.0 Z-1.0 I0.0063 J-0.0108
G2 X7.4938 Y2.9892 Z-1.0333 I-0.0125 J0.0
G2 Y3.0108 Z-1.0667 I0.0062 J0.0108
G2 X7.5125 Y3.0 Z-1.1 I0.0063 J-0.0108
G2 X7.4938 Y2.9892 Z-1.1333 I-0.0125 J0.0
G2 Y3.0108 Z-1.1667 I0.0062 J0.0108
G2 X7.5125 Y3.0 Z-1.2 I0.0063 J-0.0108
G2 X7.4938 Y2.9892 Z-1.2333 I-0.0125 J0.0
G2 Y3.0108 Z-1.2667 I0.0062 J0.0108
G2 X7.5125 Y3.0 Z-1.3 I0.0063 J-0.0108
G2 X7.4938 Y2.9892 Z-1.3333 I-0.0125 J0.0
G2 Y3.0108 Z-1.3667 I0.0062 J0.0108
G2 X7.5125 Y3.0 Z-1.4 I0.0063 J-0.0108
G2 X7.4938 Y2.9892 Z-1.4333 I-0.0125 J0.0
G2 Y3.0108 Z-1.4667 I0.0062 J0.0108
G2 X7.5125 Y3.0 Z-1.5 I0.0063 J-0.0108
G2 X7.4938 Y2.9892 Z-1.5333 I-0.0125 J0.0
G2 Y3.0108 Z-1.5667 I0.0062 J0.0108
G2 X7.5125 Y3.0 Z-1.6 I0.0063 J-0.0108
G2 X7.4938 Y2.9892 Z-1.6333 I-0.0125 J0.0
G2 Y3.0108 Z-1.6667 I0.0062 J0.0108
G2 X7.5125 Y3.0 Z-1.7 I0.0063 J-0.0108
G2 X7.4938 Y2.9892 Z-1.7333 I-0.0125 J0.0
G2 Y3.0108 Z-1.7667 I0.0062 J0.0108
G2 X7.5125 Y3.0 Z-1.8 I0.0063 J-0.0108
G2 X7.4938 Y2.9892 Z-1.8333 I-0.0125 J0.0
G2 Y3.0108 Z-1.8667 I0.0062 J0.0108
G2 X7.5125 Y3.0 Z-1.9 I0.0063 J-0.0108
G2 X7.4938 Y2.9892 Z-1.9333 I-0.0125 J0.0
G2 Y3.0108 Z-1.9667 I0.0062 J0.0108
G2 X7.5125 Y3.0 Z-2.0 I0.0063 J-0.0108
G2 X7.4938 Y2.9892 Z-2.0333 I-0.0125 J0.0
G2 Y3.0108 Z-2.0667 I0.0062 J0.0108
G2 X7.5125 Y3.0 Z-2.1 I0.0063 J-0.0108
G2 X7.4938 Y2.9892 Z-2.1333 I-0.0125 J0.0
G2 Y3.0108 Z-2.1667 I0.0062 J0.0108
G2 X7.5125 Y3.0 Z-2.2 I0.0063 J-0.0108
G2 X7.4938 Y2.9892 Z-2.2333 I-0.0125 J0.0
G2 Y3.0108 Z-2.2667 I0.0062 J0.0108
G2 X7.5125 Y3.0 Z-2.3 I0.0063 J-0.0108
G2 X7.4938 Y2.9892 Z-2.3333 I-0.0125 J0.0
G2 Y3.0108 Z-2.3667 I0.0063 J0.0108
G2 X7.5125 Y3.0 Z-2.4 I0.0062 J-0.0108
G2 X7.4938 Y2.9892 Z-2.4333 I-0.0125 J0.0
G2 Y3.0108 Z-2.4667 I0.0063 J0.0108
G2 X7.5125 Y3.0 Z-2.5 I0.0062 J-0.0108
G2 X7.4938 Y2.9892 Z-2.5333 I-0.0125 J0.0
G2 Y3.0108 Z-2.5667 I0.0063 J0.0108
G2 X7.5125 Y3.0 Z-2.6 I0.0062 J-0.0108
G2 X7.4938 Y2.9892 Z-2.6333 I-0.0125 J0.0
G2 Y3.0108 Z-2.6667 I0.0063 J0.0108
G2 X7.5125 Y3.0 Z-2.7 I0.0062 J-0.0108
G2 X7.4938 Y2.9892 Z-2.7333 I-0.0125 J0.0
G2 Y3.0108 Z-2.7667 I0.0063 J0.0108
G2 X7.5125 Y3.0 Z-2.8 I0.0062 J-0.0108
G2 X7.4938 Y2.9892 Z-2.8333 I-0.0125 J0.0
G2 Y3.0108 Z-2.8667 I0.0063 J0.0108
G2 X7.5125 Y3.0 Z-2.9 I0.0062 J-0.0108
G2 X7.4938 Y2.9892 Z-2.9333 I-0.0125 J0.0
G2 Y3.0108 Z-2.9667 I0.0063 J0.0108
G2 X7.5125 Y3.0 Z-3.0 I0.0062 J-0.0108
G2 X7.4938 Y2.9892 Z-3.0333 I-0.0125 J0.0
G2 Y3.0108 Z-3.0667 I0.0063 J0.0108
G2 X7.5125 Y3.0 Z-3.1 I0.0062 J-0.0108
G2 X7.4938 Y2.9892 Z-3.1333 I-0.0125 J0.0
G2 Y3.0108 Z-3.1667 I0.0063 J0.0108
G2 X7.5125 Y3.0 Z-3.2 I0.0062 J-0.0108
G2 X7.4938 Y2.9892 I-0.0125 J0.0
G2 Y3.0108 I0.0063 J0.0108
G2 X7.5125 Y3.0 I0.0062 J-0.0108
G0 Z3.0
G0 X9.4725 Y20.29
G0 Z0.01
G1 F1000.0 Z0.0
G2 F2000.0 X9.4538 Y20.2792 Z-0.0333 I-0.0125 J0.0
G2 Y20.3008 Z-0.0667 I0.0062 J0.0108
G2 X9.4725 Y20.29 Z-0.1 I0.0063 J-0.0108
G2 X9.4538 Y20.2792 Z-0.1333 I-0.0125 J0.0
G2 Y20.3008 Z-0.1667 I0.0062 J0.0108
G2 X9.4725 Y20.29 Z-0.2 I0.0063 J-0.0108
G2 X9.4538 Y20.2792 Z-0.2333 I-0.0125 J0.0
G2 Y20.3008 Z-0.2667 I0.0062 J0.0108
G2 X9.4725 Y20.29 Z-0.3 I0.0063 J-0.0108
G2 X9.4538 Y20.2792 Z-0.3333 I-0.0125 J0.0
G2 Y20.3008 Z-0.3667 I0.0062 J0.0108
G2 X9.4725 Y20.29 Z-0.4 I0.0063 J-0.0108
G2 X9.4538 Y20.2792 Z-0.4333 I-0.0125 J0.0
G2 Y20.3008 Z-0.4667 I0.0062 J0.0108
G2 X9.4725 Y20.29 Z-0.5 I0.0063 J-0.0108
G2 X9.4538 Y20.2792 Z-0.5333 I-0.0125 J0.0
G2 Y20.3008 Z-0.5667 I0.0062 J0.0108
G2 X9.4725 Y20.29 Z-0.6 I0.0063 J-0.0108
G2 X9.4538 Y20.2792 Z-0.6333 I-0.0125 J0.0
G2 Y20.3008 Z-0.6667 I0.0062 J0.0108
G2 X9.4725 Y20.29 Z-0.7 I0.0063 J-0.0108
G2 X9.4538 Y20.2792 Z-0.7333 I-0.0125 J0.0
G2 Y20.3008 Z-0.7667 I0.0062 J0.0108
G2 X9.4725 Y20.29 Z-0.8 I0.0063 J-0.0108
G2 X9.4538 Y20.2792 Z-0.8333 I-0.0125 J0.0
G2 Y20.3008 Z-0.8667 I0.0062 J0.0108
G2 X9.4725 Y20.29 Z-0.9 I0.0063 J-0.0108
G2 X9.4538 Y20.2792 Z-0.9333 I-0.0125 J0.0
G2 Y20.3008 Z-0.9667 I0.0062 J0.0108
G2 X9.4725 Y20.29 Z-1.0 I0.0063 J-0.0108
G2 X9.4538 Y20.2792 Z-1.0333 I-0.0125 J0.0
G2 Y20.3008 Z-1.0667 I0.0062 J0.0108
G2 X9.4725 Y20.29 Z-1.1 I0.0063 J-0.0108
G2 X9.4538 Y20.2792 Z-1.1333 I-0.0125 J0.0
G2 Y20.3008 Z-1.1667 I0.0062 J0.0108
G2 X9.4725 Y20.29 Z-1.2 I0.0063 J-0.0108
G2 X9.4538 Y20.2792 Z-1.2333 I-0.0125 J0.0
G2 Y20.3008 Z-1.2667 I0.0062 J0.0108
G2 X9.4725 Y20.29 Z-1.3 I0.0063 J-0.0108
G2 X9.4538 Y20.2792 Z-1.3333 I-0.0125 J0.0
G2 Y20.3008 Z-1.3667 I0.0062 J0.0108
G2 X9.4725 Y20.29 Z-1.4 I0.0063 J-0.0108
G2 X9.4538 Y20.2792 Z-1.4333 I-0.0125 J0.0
G2 Y20.3008 Z-1.4667 I0.0062 J0.0108
G2 X9.4725 Y20.29 Z-1.5 I0.0063 J-0.0108
G2 X9.4538 Y20.2792 Z-1.5333 I-0.0125 J0.0
G2 Y20.3008 Z-1.5667 I0.0062 J0.0108
G2 X9.4725 Y20.29 Z-1.6 I0.0063 J-0.0108
G2 X9.4538 Y20.2792 Z-1.6333 I-0.0125 J0.0
G2 Y20.3008 Z-1.6667 I0.0062 J0.0108
G2 X9.4725 Y20.29 Z-1.7 I0.0063 J-0.0108
G2 X9.4538 Y20.2792 Z-1.7333 I-0.0125 J0.0
G2 Y20.3008 Z-1.7667 I0.0062 J0.0108
G2 X9.4725 Y20.29 Z-1.8 I0.0063 J-0.0108
G2 X9.4538 Y20.2792 Z-1.8333 I-0.0125 J0.0
G2 Y20.3008 Z-1.8667 I0.0062 J0.0108
G2 X9.4725 Y20.29 Z-1.9 I0.0063 J-0.0108
G2 X9.4538 Y20.2792 Z-1.9333 I-0.0125 J0.0
G2 Y20.3008 Z-1.9667 I0.0062 J0.0108
G2 X9.4725 Y20.29 Z-2.0 I0.0063 J-0.0108
G2 X9.4538 Y20.2792 Z-2.0333 I-0.0125 J0.0
G2 Y20.3008 Z-2.0667 I0.0062 J0.0108
G2 X9.4725 Y20.29 Z-2.1 I0.0063 J-0.0108
G2 X9.4538 Y20.2792 Z-2.1333 I-0.0125 J0.0
G2 Y20.3008 Z-2.1667 I0.0062 J0.0108
G2 X9.4725 Y20.29 Z-2.2 I0.0063 J-0.0108
G2 X9.4538 Y20.2792 Z-2.2333 I-0.0125 J0.0
G2 Y20.3008 Z-2.2667 I0.0062 J0.0108
G2 X9.4725 Y20.29 Z-2.3 I0.0063 J-0.0108
G2 X9.4538 Y20.2792 Z-2.3333 I-0.0125 J0.0
G2 Y20.3008 Z-2.3667 I0.0062 J0.0108
G2 X9.4725 Y20.29 Z-2.4 I0.0063 J-0.0108
G2 X9.4538 Y20.2792 Z-2.4333 I-0.0125 J0.0
G2 Y20.3008 Z-2.4667 I0.0062 J0.0108
G2 X9.4725 Y20.29 Z-2.5 I0.0063 J-0.0108
G2 X9.4538 Y20.2792 Z-2.5333 I-0.0125 J0.0
G2 Y20.3008 Z-2.5667 I0.0062 J0.0108
G2 X9.4725 Y20.29 Z-2.6 I0.0063 J-0.0108
G2 X9.4538 Y20.2792 Z-2.6333 I-0.0125 J0.0
G2 Y20.3008 Z-2.6667 I0.0063 J0.0108
G2 X9.4725 Y20.29 Z-2.7 I0.0062 J-0.0108
G2 X9.4538 Y20.2792 Z-2.7333 I-0.0125 J0.0
G2 Y20.3008 Z-2.7667 I0.0063 J0.0108
G2 X9.4725 Y20.29 Z-2.8 I0.0062 J-0.0108
G2 X9.4538 Y20.2792 Z-2.8333 I-0.0125 J0.0
G2 Y20.3008 Z-2.8667 I0.0063 J0.0108
G2 X9.4725 Y20.29 Z-2.9 I0.0062 J-0.0108
G2 X9.4538 Y20.2792 Z-2.9333 I-0.0125 J0.0
G2 Y20.3008 Z-2.9667 I0.0063 J0.0108
G2 X9.4725 Y20.29 Z-3.0 I0.0062 J-0.0108
G2 X9.4538 Y20.2792 Z-3.0333 I-0.0125 J0.0
G2 Y20.3008 Z-3.0667 I0.0063 J0.0108
G2 X9.4725 Y20.29 Z-3.1 I0.0062 J-0.0108
G2 X9.4538 Y20.2792 Z-3.1333 I-0.0125 J0.0
G2 Y20.3008 Z-3.1667 I0.0063 J0.0108
G2 X9.4725 Y20.29 Z-3.2 I0.0062 J-0.0108
G2 X9.4538 Y20.2792 I-0.0125 J0.0
G2 Y20.3008 I0.0063 J0.0108
G2 X9.4725 Y20.29 I0.0062 J-0.0108
( LED )
S1000
G0 Z3.0
G0 X29.98 Y99.0
G0 Z3.0
G0 X31.5675 Y99.0
G0 Z0.01
G1 F1000.0 Z0.0
G2 F2000.0 X29.1863 Y97.6252 Z-0.0333 I-1.5875 J0.0
G2 Y100.3748 Z-0.0667 I0.7937 J1.3748
G2 X31.5675 Y99.0 Z-0.1 I0.7937 J-1.3748
G2 X29.1863 Y97.6252 Z-0.1333 I-1.5875 J0.0
G2 Y100.3748 Z-0.1667 I0.7937 J1.3748
G2 X31.5675 Y99.0 Z-0.2 I0.7938 J-1.3748
G2 X29.1863 Y97.6252 Z-0.2333 I-1.5875 J0.0
G2 Y100.3748 Z-0.2667 I0.7937 J1.3748
G2 X31.5675 Y99.0 Z-0.3 I0.7938 J-1.3748
G2 X29.1863 Y97.6252 Z-0.3333 I-1.5875 J0.0
G2 Y100.3748 Z-0.3667 I0.7937 J1.3748
G2 X31.5675 Y99.0 Z-0.4 I0.7937 J-1.3748
G2 X29.1863 Y97.6252 Z-0.4333 I-1.5875 J0.0
G2 Y100.3748 Z-0.4667 I0.7938 J1.3748
G2 X31.5675 Y99.0 Z-0.5 I0.7937 J-1.3748
G2 X29.1863 Y97.6252 Z-0.5333 I-1.5875 J0.0
G2 Y100.3748 Z-0.5667 I0.7938 J1.3748
G2 X31.5675 Y99.0 Z-0.6 I0.7937 J-1.3748
G2 X29.1863 Y97.6252 Z-0.6333 I-1.5875 J0.0
G2 Y100.3748 Z-0.6667 I0.7937 J1.3748
G2 X31.5675 Y99.0 Z-0.7 I0.7938 J-1.3748
G2 X29.1863 Y97.6252 Z-0.7333 I-1.5875 J0.0
G2 Y100.3748 Z-0.7667 I0.7937 J1.3748
G2 X31.5675 Y99.0 Z-0.8 I0.7938 J-1.3748
G2 X29.1863 Y97.6252 Z-0.8333 I-1.5875 J0.0
G2 Y100.3748 Z-0.8667 I0.7937 J1.3748
G2 X31.5675 Y99.0 Z-0.9 I0.7938 J-1.3748
G2 X29.1863 Y97.6252 Z-0.9333 I-1.5875 J0.0
G2 Y100.3748 Z-0.9667 I0.7937 J1.3748
G2 X31.5675 Y99.0 Z-1.0 I0.7938 J-1.3748
G2 X29.1863 Y97.6252 Z-1.0333 I-1.5875 J0.0
G2 Y100.3748 Z-1.0667 I0.7937 J1.3748
G2 X31.5675 Y99.0 Z-1.1 I0.7938 J-1.3748
G2 X29.1863 Y97.6252 Z-1.1333 I-1.5875 J0.0
G2 X29.1862 Y100.3748 Z-1.1667 I0.7937 J1.3748
G2 X31.5675 Y99.0 Z-1.2 I0.7938 J-1.3748
G2 X29.1863 Y97.6252 Z-1.2333 I-1.5875 J0.0
G2 X29.1862 Y100.3748 Z-1.2667 I0.7937 J1.3748
G2 X31.5675 Y99.0 Z-1.3 I0.7938 J-1.3748
G2 X29.1863 Y97.6252 Z-1.3333 I-1.5875 J0.0
G2 X29.1862 Y100.3748 Z-1.3667 I0.7937 J1.3748
G2 X31.5675 Y99.0 Z-1.4 I0.7938 J-1.3748
G2 X29.1863 Y97.6252 Z-1.4333 I-1.5875 J0.0
G2 X29.1862 Y100.3748 Z-1.4667 I0.7937 J1.3748
G2 X31.5675 Y99.0 Z-1.5 I0.7938 J-1.3748
G2 X29.1863 Y97.6252 Z-1.5333 I-1.5875 J0.0
G2 X29.1862 Y100.3748 Z-1.5667 I0.7937 J1.3748
G2 X31.5675 Y99.0 Z-1.6 I0.7938 J-1.3748
G2 X29.1863 Y97.6252 Z-1.6333 I-1.5875 J0.0
G2 X29.1862 Y100.3748 Z-1.6667 I0.7937 J1.3748
G2 X31.5675 Y99.0 Z-1.7 I0.7938 J-1.3748
G2 X29.1863 Y97.6252 Z-1.7333 I-1.5875 J0.0
G2 X29.1862 Y100.3748 Z-1.7667 I0.7937 J1.3748
G2 X31.5675 Y99.0 Z-1.8 I0.7938 J-1.3748
G2 X29.1863 Y97.6252 Z-1.8333 I-1.5875 J0.0
G2 X29.1862 Y100.3748 Z-1.8667 I0.7937 J1.3748
G2 X31.5675 Y99.0 Z-1.9 I0.7938 J-1.3748
G2 X29.1863 Y97.6252 Z-1.9333 I-1.5875 J0.0
G2 X29.1862 Y100.3748 Z-1.9667 I0.7937 J1.3748
G2 X31.5675 Y99.0 Z-2.0 I0.7938 J-1.3748
G2 X29.1863 Y97.6252 Z-2.0333 I-1.5875 J0.0
G2 X29.1862 Y100.3748 Z-2.0667 I0.7937 J1.3748
G2 X31.5675 Y99.0 Z-2.1 I0.7938 J-1.3748
G2 X29.1863 Y97.6252 Z-2.1333 I-1.5875 J0.0
G2 X29.1862 Y100.3748 Z-2.1667 I0.7937 J1.3748
G2 X31.5675 Y99.0 Z-2.2 I0.7938 J-1.3748
G2 X29.1863 Y97.6252 Z-2.2333 I-1.5875 J0.0
G2 Y100.3748 Z-2.2667 I0.7937 J1.3748
G2 X31.5675 Y99.0 Z-2.3 I0.7938 J-1.3748
G2 X29.1863 Y97.6252 Z-2.3333 I-1.5875 J0.0
G2 Y100.3748 Z-2.3667 I0.7938 J1.3748
G2 X31.5675 Y99.0 Z-2.4 I0.7937 J-1.3748
G2 X29.1863 Y97.6252 Z-2.4333 I-1.5875 J0.0
G2 Y100.3748 Z-2.4667 I0.7938 J1.3748
G2 X31.5675 Y99.0 Z-2.5 I0.7937 J-1.3748
G2 X29.1862 Y97.6252 Z-2.5333 I-1.5875 J0.0
G2 X29.1863 Y100.3748 Z-2.5667 I0.7938 J1.3748
G2 X31.5675 Y99.0 Z-2.6 I0.7937 J-1.3748
G2 X29.1862 Y97.6252 Z-2.6333 I-1.5875 J0.0
G2 X29.1863 Y100.3748 Z-2.6667 I0.7938 J1.3748
G2 X31.5675 Y99.0 Z-2.7 I0.7937 J-1.3748
G2 X29.1862 Y97.6252 Z-2.7333 I-1.5875 J0.0
G2 X29.1863 Y100.3748 Z-2.7667 I0.7938 J1.3748
G2 X31.5675 Y99.0 Z-2.8 I0.7937 J-1.3748
G2 X29.1862 Y97.6252 Z-2.8333 I-1.5875 J0.0
G2 X29.1863 Y100.3748 Z-2.8667 I0.7938 J1.3748
G2 X31.5675 Y99.0 Z-2.9 I0.7937 J-1.3748
G2 X29.1862 Y97.6252 Z-2.9333 I-1.5875 J0.0
G2 X29.1863 Y100.3748 Z-2.9667 I0.7938 J1.3748
G2 X31.5675 Y99.0 Z-3.0 I0.7937 J-1.3748
G2 X29.1862 Y97.6252 Z-3.0333 I-1.5875 J0.0
G2 X29.1863 Y100.3748 Z-3.0667 I0.7938 J1.3748
G2 X31.5675 Y99.0 Z-3.1 I0.7937 J-1.3748
G2 X29.1862 Y97.6252 Z-3.1333 I-1.5875 J0.0
G2 X29.1863 Y100.3748 Z-3.1667 I0.7938 J1.3748
G2 X31.5675 Y99.0 Z-3.2 I0.7937 J-1.3748
G2 X29.1862 Y97.6252 I-1.5875 J0.0
G2 X29.1863 Y100.3748 I0.7938 J1.3748
G2 X31.5675 Y99.0 I0.7937 J-1.3748
( outputs )
S1000
G0 Z3.0
G0 X10.1 Y73.0
G0 Z3.0
G0 X11.7625 Y73.0
G0 Z0.01
G1 F1000.0 Z0.0
G2 F2000.0 X9.2687 Y71.5602 Z-0.0333 I-1.6625 J0.0
G2 Y74.4398 Z-0.0667 I0.8312 J1.4398
G2 X11.7625 Y73.0 Z-0.1 I0.8313 J-1.4398
G2 X9.2687 Y71.5602 Z-0.1333 I-1.6625 J0.0
G2 Y74.4398 Z-0.1667 I0.8312 J1.4398
G2 X11.7625 Y73.0 Z-0.2 I0.8313 J-1.4398
G2 X9.2687 Y71.5602 Z-0.2333 I-1.6625 J0.0
G2 Y74.4398 Z-0.2667 I0.8312 J1.4398
G2 X11.7625 Y73.0 Z-0.3 I0.8313 J-1.4398
G2 X9.2687 Y71.5602 Z-0.3333 I-1.6625 J0.0
G2 Y74.4398 Z-0.3667 I0.8313 J1.4398
G2 X11.7625 Y73.0 Z-0.4 I0.8312 J-1.4398
G2 X9.2687 Y71.5602 Z-0.4333 I-1.6625 J0.0
G2 Y74.4398 Z-0.4667 I0.8313 J1.4398
G2 X11.7625 Y73.0 Z-0.5 I0.8312 J-1.4398
G2 X9.2687 Y71.5602 Z-0.5333 I-1.6625 J0.0
G2 Y74.4398 Z-0.5667 I0.8313 J1.4398
G2 X11.7625 Y73.0 Z-0.6 I0.8313 J-1.4398
G2 X9.2687 Y71.5602 Z-0.6333 I-1.6625 J0.0
G2 Y74.4398 Z-0.6667 I0.8312 J1.4398
G2 X11.7625 Y73.0 Z-0.7 I0.8313 J-1.4398
G2 X9.2687 Y71.5602 Z-0.7333 I-1.6625 J0.0
G2 Y74.4398 Z-0.7667 I0.8312 J1.4398
G2 X11.7625 Y73.0 Z-0.8 I0.8313 J-1.4398
G2 X9.2687 Y71.5602 Z-0.8333 I-1.6625 J0.0
G2 Y74.4398 Z-0.8667 I0.8312 J1.4398
G2 X11.7625 Y73.0 Z-0.9 I0.8313 J-1.4398
G2 X9.2687 Y71.5602 Z-0.9333 I-1.6625 J0.0
G2 Y74.4398 Z-0.9667 I0.8312 J1.4398
G2 X11.7625 Y73.0 Z-1.0 I0.8313 J-1.4398
G2 X9.2687 Y71.5602 Z-1.0333 I-1.6625 J0.0
G2 Y74.4398 Z-1.0667 I0.8312 J1.4398
G2 X11.7625 Y73.0 Z-1.1 I0.8313 J-1.4398
G2 X9.2687 Y71.5602 Z-1.1333 I-1.6625 J0.0
G2 Y74.4398 Z-1.1667 I0.8312 J1.4398
G2 X11.7625 Y73.0 Z-1.2 I0.8313 J-1.4398
G2 X9.2687 Y71.5602 Z-1.2333 I-1.6625 J0.0
G2 Y74.4398 Z-1.2667 I0.8312 J1.4398
G2 X11.7625 Y73.0 Z-1.3 I0.8313 J-1.4398
G2 X9.2687 Y71.5602 Z-1.3333 I-1.6625 J0.0
G2 Y74.4398 Z-1.3667 I0.8312 J1.4398
G2 X11.7625 Y73.0 Z-1.4 I0.8313 J-1.4398
G2 X9.2687 Y71.5602 Z-1.4333 I-1.6625 J0.0
G2 Y74.4398 Z-1.4667 I0.8312 J1.4398
G2 X11.7625 Y73.0 Z-1.5 I0.8313 J-1.4398
G2 X9.2687 Y71.5602 Z-1.5333 I-1.6625 J0.0
G2 Y74.4398 Z-1.5667 I0.8312 J1.4398
G2 X11.7625 Y73.0 Z-1.6 I0.8313 J-1.4398
G2 X9.2687 Y71.5602 Z-1.6333 I-1.6625 J0.0
G2 Y74.4398 Z-1.6667 I0.8312 J1.4398
G2 X11.7625 Y73.0 Z-1.7 I0.8313 J-1.4398
G2 X9.2687 Y71.5602 Z-1.7333 I-1.6625 J0.0
G2 Y74.4398 Z-1.7667 I0.8312 J1.4398
G2 X11.7625 Y73.0 Z-1.8 I0.8313 J-1.4398
G2 X9.2687 Y71.5602 Z-1.8333 I-1.6625 J0.0
G2 Y74.4398 Z-1.8667 I0.8312 J1.4398
G2 X11.7625 Y73.0 Z-1.9 I0.8313 J-1.4398
G2 X9.2687 Y71.5602 Z-1.9333 I-1.6625 J0.0
G2 Y74.4398 Z-1.9667 I0.8312 J1.4398
G2 X11.7625 Y73.0 Z-2.0 I0.8313 J-1.4398
G2 X9.2687 Y71.5602 Z-2.0333 I-1.6625 J0.0
G2 Y74.4398 Z-2.0667 I0.8312 J1.4398
G2 X11.7625 Y73.0 Z-2.1 I0.8313 J-1.4398
G2 X9.2687 Y71.5602 Z-2.1333 I-1.6625 J0.0
G2 Y74.4398 Z-2.1667 I0.8312 J1.4398
G2 X11.7625 Y73.0 Z-2.2 I0.8313 J-1.4398
G2 X9.2687 Y71.5602 Z-2.2333 I-1.6625 J0.0
G2 Y74.4398 Z-2.2667 I0.8312 J1.4398
G2 X11.7625 Y73.0 Z-2.3 I0.8313 J-1.4398
G2 X9.2687 Y71.5602 Z-2.3333 I-1.6625 J0.0
G2 Y74.4398 Z-2.3667 I0.8313 J1.4398
G2 X11.7625 Y73.0 Z-2.4 I0.8312 J-1.4398
G2 X9.2687 Y71.5602 Z-2.4333 I-1.6625 J0.0
G2 Y74.4398 Z-2.4667 I0.8313 J1.4398
G2 X11.7625 Y73.0 Z-2.5 I0.8312 J-1.4398
G2 X9.2687 Y71.5602 Z-2.5333 I-1.6625 J0.0
G2 Y74.4398 Z-2.5667 I0.8313 J1.4398
G2 X11.7625 Y73.0 Z-2.6 I0.8312 J-1.4398
G2 X9.2687 Y71.5602 Z-2.6333 I-1.6625 J0.0
G2 Y74.4398 Z-2.6667 I0.8313 J1.4398
G2 X11.7625 Y73.0 Z-2.7 I0.8312 J-1.4398
G2 X9.2687 Y71.5602 Z-2.7333 I-1.6625 J0.0
G2 Y74.4398 Z-2.7667 I0.8313 J1.4398
G2 X11.7625 Y73.0 Z-2.8 I0.8312 J-1.4398
G2 X9.2687 Y71.5602 Z-2.8333 I-1.6625 J0.0
G2 Y74.4398 Z-2.8667 I0.8313 J1.4398
G2 X11.7625 Y73.0 Z-2.9 I0.8312 J-1.4398
G2 X9.2687 Y71.5602 Z-2.9333 I-1.6625 J0.0
G2 Y74.4398 Z-2.9667 I0.8313 J1.4398
G2 X11.7625 Y73.0 Z-3.0 I0.8312 J-1.4398
G2 X9.2687 Y71.5602 Z-3.0333 I-1.6625 J0.0
G2 Y74.4398 Z-3.0667 I0.8313 J1.4398
G2 X11.7625 Y73.0 Z-3.1 I0.8312 J-1.4398
G2 X9.2687 Y71.5602 Z-3.1333 I-1.6625 J0.0
G2 Y74.4398 Z-3.1667 I0.8313 J1.4398
G2 X11.7625 Y73.0 Z-3.2 I0.8312 J-1.4398
G2 X9.2687 Y71.5602 I-1.6625 J0.0
G2 Y74.4398 I0.8313 J1.4398
G2 X11.7625 Y73.0 I0.8312 J-1.4398
G0 Z3.0
G0 X31.9625
G0 Z0.01
G1 F1000.0 Z0.0
G2 F2000.0 X29.4687 Y71.5602 Z-0.0333 I-1.6625 J0.0
G2 Y74.4398 Z-0.0667 I0.8313 J1.4398
G2 X31.9625 Y73.0 Z-0.1 I0.8313 J-1.4398
G2 X29.4687 Y71.5602 Z-0.1333 I-1.6625 J0.0
G2 Y74.4398 Z-0.1667 I0.8312 J1.4398
G2 X31.9625 Y73.0 Z-0.2 I0.8313 J-1.4398
G2 X29.4687 Y71.5602 Z-0.2333 I-1.6625 J0.0
G2 Y74.4398 Z-0.2667 I0.8312 J1.4398
G2 X31.9625 Y73.0 Z-0.3 I0.8313 J-1.4398
G2 X29.4687 Y71.5602 Z-0.3333 I-1.6625 J0.0
G2 Y74.4398 Z-0.3667 I0.8313 J1.4398
G2 X31.9625 Y73.0 Z-0.4 I0.8313 J-1.4398
G2 X29.4687 Y71.5602 Z-0.4333 I-1.6625 J0.0
G2 Y74.4398 Z-0.4667 I0.8313 J1.4398
G2 X31.9625 Y73.0 Z-0.5 I0.8312 J-1.4398
G2 X29.4687 Y71.5602 Z-0.5333 I-1.6625 J0.0
G2 Y74.4398 Z-0.5667 I0.8313 J1.4398
G2 X31.9625 Y73.0 Z-0.6 I0.8313 J-1.4398
G2 X29.4687 Y71.5602 Z-0.6333 I-1.6625 J0.0
G2 Y74.4398 Z-0.6667 I0.8312 J1.4398
G2 X31.9625 Y73.0 Z-0.7 I0.8313 J-1.4398
G2 X29.4687 Y71.5602 Z-0.7333 I-1.6625 J0.0
G2 Y74.4398 Z-0.7667 I0.8312 J1.4398
G2 X31.9625 Y73.0 Z-0.8 I0.8313 J-1.4398
G2 X29.4687 Y71.5602 Z-0.8333 I-1.6625 J0.0
G2 Y74.4398 Z-0.8667 I0.8312 J1.4398
G2 X31.9625 Y73.0 Z-0.9 I0.8313 J-1.4398
G2 X29.4687 Y71.5602 Z-0.9333 I-1.6625 J0.0
G2 Y74.4398 Z-0.9667 I0.8312 J1.4398
G2 X31.9625 Y73.0 Z-1.0 I0.8313 J-1.4398
G2 X29.4687 Y71.5602 Z-1.0333 I-1.6625 J0.0
G2 Y74.4398 Z-1.0667 I0.8312 J1.4398
G2 X31.9625 Y73.0 Z-1.1 I0.8313 J-1.4398
G2 X29.4687 Y71.5602 Z-1.1333 I-1.6625 J0.0
G2 Y74.4398 Z-1.1667 I0.8312 J1.4398
G2 X31.9625 Y73.0 Z-1.2 I0.8313 J-1.4398
G2 X29.4687 Y71.5602 Z-1.2333 I-1.6625 J0.0
G2 Y74.4398 Z-1.2667 I0.8312 J1.4398
G2 X31.9625 Y73.0 Z-1.3 I0.8313 J-1.4398
G2 X29.4687 Y71.5602 Z-1.3333 I-1.6625 J0.0
G2 Y74.4398 Z-1.3667 I0.8312 J1.4398
G2 X31.9625 Y73.0 Z-1.4 I0.8313 J-1.4398
G2 X29.4687 Y71.5602 Z-1.4333 I-1.6625 J0.0
G2 Y74.4398 Z-1.4667 I0.8312 J1.4398
G2 X31.9625 Y73.0 Z-1.5 I0.8313 J-1.4398
G2 X29.4687 Y71.5602 Z-1.5333 I-1.6625 J0.0
G2 Y74.4398 Z-1.5667 I0.8312 J1.4398
G2 X31.9625 Y73.0 Z-1.6 I0.8313 J-1.4398
G2 X29.4687 Y71.5602 Z-1.6333 I-1.6625 J0.0
G2 Y74.4398 Z-1.6667 I0.8312 J1.4398
G2 X31.9625 Y73.0 Z-1.7 I0.8313 J-1.4398
G2 X29.4687 Y71.5602 Z-1.7333 I-1.6625 J0.0
G2 Y74.4398 Z-1.7667 I0.8312 J1.4398
G2 X31.9625 Y73.0 Z-1.8 I0.8313 J-1.4398
G2 X29.4687 Y71.5602 Z-1.8333 I-1.6625 J0.0
G2 Y74.4398 Z-1.8667 I0.8312 J1.4398
G2 X31.9625 Y73.0 Z-1.9 I0.8313 J-1.4398
G2 X29.4687 Y71.5602 Z-1.9333 I-1.6625 J0.0
G2 Y74.4398 Z-1.9667 I0.8312 J1.4398
G2 X31.9625 Y73.0 Z-2.0 I0.8313 J-1.4398
G2 X29.4687 Y71.5602 Z-2.0333 I-1.6625 J0.0
G2 Y74.4398 Z-2.0667 I0.8312 J1.4398
G2 X31.9625 Y73.0 Z-2.1 I0.8313 J-1.4398
G2 X29.4687 Y71.5602 Z-2.1333 I-1.6625 J0.0
G2 Y74.4398 Z-2.1667 I0.8312 J1.4398
G2 X31.9625 Y73.0 Z-2.2 I0.8313 J-1.4398
G2 X29.4687 Y71.5602 Z-2.2333 I-1.6625 J0.0
G2 Y74.4398 Z-2.2667 I0.8312 J1.4398
G2 X31.9625 Y73.0 Z-2.3 I0.8313 J-1.4398
G2 X29.4687 Y71.5602 Z-2.3333 I-1.6625 J0.0
G2 Y74.4398 Z-2.3667 I0.8313 J1.4398
G2 X31.9625 Y73.0 Z-2.4 I0.8312 J-1.4398
G2 X29.4687 Y71.5602 Z-2.4333 I-1.6625 J0.0
G2 Y74.4398 Z-2.4667 I0.8313 J1.4398
G2 X31.9625 Y73.0 Z-2.5 I0.8312 J-1.4398
G2 X29.4687 Y71.5602 Z-2.5333 I-1.6625 J0.0
G2 Y74.4398 Z-2.5667 I0.8313 J1.4398
G2 X31.9625 Y73.0 Z-2.6 I0.8312 J-1.4398
G2 X29.4687 Y71.5602 Z-2.6333 I-1.6625 J0.0
G2 Y74.4398 Z-2.6667 I0.8313 J1.4398
G2 X31.9625 Y73.0 Z-2.7 I0.8312 J-1.4398
G2 X29.4687 Y71.5602 Z-2.7333 I-1.6625 J0.0
G2 Y74.4398 Z-2.7667 I0.8313 J1.4398
G2 X31.9625 Y73.0 Z-2.8 I0.8312 J-1.4398
G2 X29.4687 Y71.5602 Z-2.8333 I-1.6625 J0.0
G2 Y74.4398 Z-2.8667 I0.8313 J1.4398
G2 X31.9625 Y73.0 Z-2.9 I0.8312 J-1.4398
G2 X29.4687 Y71.5602 Z-2.9333 I-1.6625 J0.0
G2 Y74.4398 Z-2.9667 I0.8313 J1.4398
G2 X31.9625 Y73.0 Z-3.0 I0.8312 J-1.4398
G2 X29.4687 Y71.5602 Z-3.0333 I-1.6625 J0.0
G2 Y74.4398 Z-3.0667 I0.8313 J1.4398
G2 X31.9625 Y73.0 Z-3.1 I0.8312 J-1.4398
G2 X29.4687 Y71.5602 Z-3.1333 I-1.6625 J0.0
G2 Y74.4398 Z-3.1667 I0.8313 J1.4398
G2 X31.9625 Y73.0 Z-3.2 I0.8312 J-1.4398
G2 X29.4687 Y71.5602 I-1.6625 J0.0
G2 Y74.4398 I0.8313 J1.4398
G2 X31.9625 Y73.0 I0.8312 J-1.4398
G0 Z3.0
G0 Y36.49
G0 Z0.01
G1 F1000.0 Z0.0
G2 F2000.0 X29.4687 Y35.0502 Z-0.0333 I-1.6625 J0.0
G2 Y37.9298 Z-0.0667 I0.8313 J1.4398
G2 X31.9625 Y36.49 Z-0.1 I0.8313 J-1.4398
G2 X29.4687 Y35.0502 Z-0.1333 I-1.6625 J0.0
G2 Y37.9298 Z-0.1667 I0.8312 J1.4398
G2 X31.9625 Y36.49 Z-0.2 I0.8313 J-1.4398
G2 X29.4687 Y35.0502 Z-0.2333 I-1.6625 J0.0
G2 Y37.9298 Z-0.2667 I0.8312 J1.4398
G2 X31.9625 Y36.49 Z-0.3 I0.8313 J-1.4398
G2 X29.4687 Y35.0502 Z-0.3333 I-1.6625 J0.0
G2 Y37.9298 Z-0.3667 I0.8313 J1.4398
G2 X31.9625 Y36.49 Z-0.4 I0.8312 J-1.4398
G2 X29.4687 Y35.0502 Z-0.4333 I-1.6625 J0.0
G2 Y37.9298 Z-0.4667 I0.8313 J1.4398
G2 X31.9625 Y36.49 Z-0.5 I0.8312 J-1.4398
G2 X29.4687 Y35.0502 Z-0.5333 I-1.6625 J0.0
G2 Y37.9298 Z-0.5667 I0.8313 J1.4398
G2 X31.9625 Y36.49 Z-0.6 I0.8313 J-1.4398
G2 X29.4687 Y35.0502 Z-0.6333 I-1.6625 J0.0
G2 Y37.9298 Z-0.6667 I0.8312 J1.4398
G2 X31.9625 Y36.49 Z-0.7 I0.8313 J-1.4398
G2 X29.4687 Y35.0502 Z-0.7333 I-1.6625 J0.0
G2 Y37.9298 Z-0.7667 I0.8312 J1.4398
G2 X31.9625 Y36.49 Z-0.8 I0.8313 J-1.4398
G2 X29.4687 Y35.0502 Z-0.8333 I-1.6625 J0.0
G2 Y37.9298 Z-0.8667 I0.8312 J1.4398
G2 X31.9625 Y36.49 Z-0.9 I0.8313 J-1.4398
G2 X29.4687 Y35.0502 Z-0.9333 I-1.6625 J0.0
G2 Y37.9298 Z-0.9667 I0.8312 J1.4398
G2 X31.9625 Y36.49 Z-1.0 I0.8313 J-1.4398
G2 X29.4687 Y35.0502 Z-1.0333 I-1.6625 J0.0
G2 Y37.9298 Z-1.0667 I0.8312 J1.4398
G2 X31.9625 Y36.49 Z-1.1 I0.8313 J-1.4398
G2 X29.4687 Y35.0502 Z-1.1333 I-1.6625 J0.0
G2 Y37.9298 Z-1.1667 I0.8312 J1.4398
G2 X31.9625 Y36.49 Z-1.2 I0.8313 J-1.4398
G2 X29.4687 Y35.0502 Z-1.2333 I-1.6625 J0.0
G2 Y37.9298 Z-1.2667 I0.8312 J1.4398
G2 X31.9625 Y36.49 Z-1.3 I0.8313 J-1.4398
G2 X29.4687 Y35.0502 Z-1.3333 I-1.6625 J0.0
G2 Y37.9298 Z-1.3667 I0.8312 J1.4398
G2 X31.9625 Y36.49 Z-1.4 I0.8313 J-1.4398
G2 X29.4687 Y35.0502 Z-1.4333 I-1.6625 J0.0
G2 Y37.9298 Z-1.4667 I0.8312 J1.4398
G2 X31.9625 Y36.49 Z-1.5 I0.8313 J-1.4398
G2 X29.4687 Y35.0502 Z-1.5333 I-1.6625 J0.0
G2 Y37.9298 Z-1.5667 I0.8312 J1.4398
G2 X31.9625 Y36.49 Z-1.6 I0.8313 J-1.4398
G2 X29.4687 Y35.0502 Z-1.6333 I-1.6625 J0.0
G2 Y37.9298 Z-1.6667 I0.8312 J1.4398
G2 X31.9625 Y36.49 Z-1.7 I0.8313 J-1.4398
G2 X29.4687 Y35.0502 Z-1.7333 I-1.6625 J0.0
G2 Y37.9298 Z-1.7667 I0.8312 J1.4398
G2 X31.9625 Y36.49 Z-1.8 I0.8313 J-1.4398
G2 X29.4687 Y35.0502 Z-1.8333 I-1.6625 J0.0
G2 Y37.9298 Z-1.8667 I0.8312 J1.4398
G2 X31.9625 Y36.49 Z-1.9 I0.8313 J-1.4398
G2 X29.4687 Y35.0502 Z-1.9333 I-1.6625 J0.0
G2 Y37.9298 Z-1.9667 I0.8312 J1.4398
G2 X31.9625 Y36.49 Z-2.0 I0.8313 J-1.4398
G2 X29.4687 Y35.0502 Z-2.0333 I-1.6625 J0.0
G2 Y37.9298 Z-2.0667 I0.8312 J1.4398
G2 X31.9625 Y36.49 Z-2.1 I0.8313 J-1.4398
G2 X29.4687 Y35.0502 Z-2.1333 I-1.6625 J0.0
G2 Y37.9298 Z-2.1667 I0.8312 J1.4398
G2 X31.9625 Y36.49 Z-2.2 I0.8313 J-1.4398
G2 X29.4687 Y35.0502 Z-2.2333 I-1.6625 J0.0
G2 Y37.9298 Z-2.2667 I0.8312 J1.4398
G2 X31.9625 Y36.49 Z-2.3 I0.8313 J-1.4398
G2 X29.4687 Y35.0502 Z-2.3333 I-1.6625 J0.0
G2 Y37.9298 Z-2.3667 I0.8313 J1.4398
G2 X31.9625 Y36.49 Z-2.4 I0.8312 J-1.4398
G2 X29.4687 Y35.0502 Z-2.4333 I-1.6625 J0.0
G2 Y37.9298 Z-2.4667 I0.8313 J1.4398
G2 X31.9625 Y36.49 Z-2.5 I0.8312 J-1.4398
G2 X29.4687 Y35.0502 Z-2.5333 I-1.6625 J0.0
G2 Y37.9298 Z-2.5667 I0.8313 J1.4398
G2 X31.9625 Y36.49 Z-2.6 I0.8312 J-1.4398
G2 X29.4687 Y35.0502 Z-2.6333 I-1.6625 J0.0
G2 Y37.9298 Z-2.6667 I0.8313 J1.4398
G2 X31.9625 Y36.49 Z-2.7 I0.8312 J-1.4398
G2 X29.4687 Y35.0502 Z-2.7333 I-1.6625 J0.0
G2 Y37.9298 Z-2.7667 I0.8313 J1.4398
G2 X31.9625 Y36.49 Z-2.8 I0.8312 J-1.4398
G2 X29.4687 Y35.0502 Z-2.8333 I-1.6625 J0.0
G2 Y37.9298 Z-2.8667 I0.8313 J1.4398
G2 X31.9625 Y36.49 Z-2.9 I0.8312 J-1.4398
G2 X29.4687 Y35.0502 Z-2.9333 I-1.6625 J0.0
G2 Y37.9298 Z-2.9667 I0.8313 J1.4398
G2 X31.9625 Y36.49 Z-3.0 I0.8312 J-1.4398
G2 X29.4687 Y35.0502 Z-3.0333 I-1.6625 J0.0
G2 Y37.9298 Z-3.0667 I0.8313 J1.4398
G2 X31.9625 Y36.49 Z-3.1 I0.8312 J-1.4398
G2 X29.4687 Y35.0502 Z-3.1333 I-1.6625 J0.0
G2 Y37.9298 Z-3.1667 I0.8313 J1.4398
G2 X31.9625 Y36.49 Z-3.2 I0.8312 J-1.4398
G2 X29.4687 Y35.0502 I-1.6625 J0.0
G2 Y37.9298 I0.8313 J1.4398
G2 X31.9625 Y36.49 I0.8312 J-1.4398
G0 Z3.0
G0 X11.7625
G0 Z0.01
G1 F1000.0 Z0.0
G2 F2000.0 X9.2687 Y35.0502 Z-0.0333 I-1.6625 J0.0
G2 Y37.9298 Z-0.0667 I0.8312 J1.4398
G2 X11.7625 Y36.49 Z-0.1 I0.8313 J-1.4398
G2 X9.2687 Y35.0502 Z-0.1333 I-1.6625 J0.0
G2 Y37.9298 Z-0.1667 I0.8312 J1.4398
G2 X11.7625 Y36.49 Z-0.2 I0.8313 J-1.4398
G2 X9.2687 Y35.0502 Z-0.2333 I-1.6625 J0.0
G2 Y37.9298 Z-0.2667 I0.8312 J1.4398
G2 X11.7625 Y36.49 Z-0.3 I0.8313 J-1.4398
G2 X9.2687 Y35.0502 Z-0.3333 I-1.6625 J0.0
G2 Y37.9298 Z-0.3667 I0.8313 J1.4398
G2 X11.7625 Y36.49 Z-0.4 I0.8312 J-1.4398
G2 X9.2687 Y35.0502 Z-0.4333 I-1.6625 J0.0
G2 Y37.9298 Z-0.4667 I0.8313 J1.4398
G2 X11.7625 Y36.49 Z-0.5 I0.8312 J-1.4398
G2 X9.2687 Y35.0502 Z-0.5333 I-1.6625 J0.0
G2 Y37.9298 Z-0.5667 I0.8313 J1.4398
G2 X11.7625 Y36.49 Z-0.6 I0.8313 J-1.4398
G2 X9.2687 Y35.0502 Z-0.6333 I-1.6625 J0.0
G2 Y37.9298 Z-0.6667 I0.8312 J1.4398
G2 X11.7625 Y36.49 Z-0.7 I0.8313 J-1.4398
G2 X9.2687 Y35.0502 Z-0.7333 I-1.6625 J0.0
G2 Y37.9298 Z-0.7667 I0.8312 J1.4398
G2 X11.7625 Y36.49 Z-0.8 I0.8313 J-1.4398
G2 X9.2687 Y35.0502 Z-0.8333 I-1.6625 J0.0
G2 Y37.9298 Z-0.8667 I0.8312 J1.4398
G2 X11.7625 Y36.49 Z-0.9 I0.8313 J-1.4398
G2 X9.2687 Y35.0502 Z-0.9333 I-1.6625 J0.0
G2 Y37.9298 Z-0.9667 I0.8312 J1.4398
G2 X11.7625 Y36.49 Z-1.0 I0.8313 J-1.4398
G2 X9.2687 Y35.0502 Z-1.0333 I-1.6625 J0.0
G2 Y37.9298 Z-1.0667 I0.8312 J1.4398
G2 X11.7625 Y36.49 Z-1.1 I0.8313 J-1.4398
G2 X9.2687 Y35.0502 Z-1.1333 I-1.6625 J0.0
G2 Y37.9298 Z-1.1667 I0.8312 J1.4398
G2 X11.7625 Y36.49 Z-1.2 I0.8313 J-1.4398
G2 X9.2687 Y35.0502 Z-1.2333 I-1.6625 J0.0
G2 Y37.9298 Z-1.2667 I0.8312 J1.4398
G2 X11.7625 Y36.49 Z-1.3 I0.8313 J-1.4398
G2 X9.2687 Y35.0502 Z-1.3333 I-1.6625 J0.0
G2 Y37.9298 Z-1.3667 I0.8312 J1.4398
G2 X11.7625 Y36.49 Z-1.4 I0.8313 J-1.4398
G2 X9.2687 Y35.0502 Z-1.4333 I-1.6625 J0.0
G2 Y37.9298 Z-1.4667 I0.8312 J1.4398
G2 X11.7625 Y36.49 Z-1.5 I0.8313 J-1.4398
G2 X9.2687 Y35.0502 Z-1.5333 I-1.6625 J0.0
G2 Y37.9298 Z-1.5667 I0.8312 J1.4398
G2 X11.7625 Y36.49 Z-1.6 I0.8313 J-1.4398
G2 X9.2687 Y35.0502 Z-1.6333 I-1.6625 J0.0
G2 Y37.9298 Z-1.6667 I0.8312 J1.4398
G2 X11.7625 Y36.49 Z-1.7 I0.8313 J-1.4398
G2 X9.2687 Y35.0502 Z-1.7333 I-1.6625 J0.0
G2 Y37.9298 Z-1.7667 I0.8312 J1.4398
G2 X11.7625 Y36.49 Z-1.8 I0.8313 J-1.4398
G2 X9.2687 Y35.0502 Z-1.8333 I-1.6625 J0.0
G2 Y37.9298 Z-1.8667 I0.8312 J1.4398
G2 X11.7625 Y36.49 Z-1.9 I0.8313 J-1.4398
G2 X9.2687 Y35.0502 Z-1.9333 I-1.6625 J0.0
G2 Y37.9298 Z-1.9667 I0.8312 J1.4398
G2 X11.7625 Y36.49 Z-2.0 I0.8313 J-1.4398
G2 X9.2687 Y35.0502 Z-2.0333 I-1.6625 J0.0
G2 Y37.9298 Z-2.0667 I0.8312 J1.4398
G2 X11.7625 Y36.49 Z-2.1 I0.8313 J-1.4398
G2 X9.2687 Y35.0502 Z-2.1333 I-1.6625 J0.0
G2 Y37.9298 Z-2.1667 I0.8312 J1.4398
G2 X11.7625 Y36.49 Z-2.2 I0.8313 J-1.4398
G2 X9.2687 Y35.0502 Z-2.2333 I-1.6625 J0.0
G2 Y37.9298 Z-2.2667 I0.8312 J1.4398
G2 X11.7625 Y36.49 Z-2.3 I0.8313 J-1.4398
G2 X9.2687 Y35.0502 Z-2.3333 I-1.6625 J0.0
G2 Y37.9298 Z-2.3667 I0.8313 J1.4398
G2 X11.7625 Y36.49 Z-2.4 I0.8312 J-1.4398
G2 X9.2687 Y35.0502 Z-2.4333 I-1.6625 J0.0
G2 Y37.9298 Z-2.4667 I0.8313 J1.4398
G2 X11.7625 Y36.49 Z-2.5 I0.8312 J-1.4398
G2 X9.2687 Y35.0502 Z-2.5333 I-1.6625 J0.0
G2 Y37.9298 Z-2.5667 I0.8313 J1.4398
G2 X11.7625 Y36.49 Z-2.6 I0.8312 J-1.4398
G2 X9.2687 Y35.0502 Z-2.6333 I-1.6625 J0.0
G2 Y37.9298 Z-2.6667 I0.8313 J1.4398
G2 X11.7625 Y36.49 Z-2.7 I0.8312 J-1.4398
G2 X9.2687 Y35.0502 Z-2.7333 I-1.6625 J0.0
G2 Y37.9298 Z-2.7667 I0.8313 J1.4398
G2 X11.7625 Y36.49 Z-2.8 I0.8312 J-1.4398
G2 X9.2687 Y35.0502 Z-2.8333 I-1.6625 J0.0
G2 Y37.9298 Z-2.8667 I0.8313 J1.4398
G2 X11.7625 Y36.49 Z-2.9 I0.8312 J-1.4398
G2 X9.2687 Y35.0502 Z-2.9333 I-1.6625 J0.0
G2 Y37.9298 Z-2.9667 I0.8313 J1.4398
G2 X11.7625 Y36.49 Z-3.0 I0.8312 J-1.4398
G2 X9.2687 Y35.0502 Z-3.0333 I-1.6625 J0.0
G2 Y37.9298 Z-3.0667 I0.8313 J1.4398
G2 X11.7625 Y36.49 Z-3.1 I0.8312 J-1.4398
G2 X9.2687 Y35.0502 Z-3.1333 I-1.6625 J0.0
G2 Y37.9298 Z-3.1667 I0.8313 J1.4398
G2 X11.7625 Y36.49 Z-3.2 I0.8312 J-1.4398
G2 X9.2687 Y35.0502 I-1.6625 J0.0
G2 Y37.9298 I0.8313 J1.4398
G2 X11.7625 Y36.49 I0.8312 J-1.4398
( Profile1 )
S1000
G0 Z3.0
G0 X18.9552 Y26.3316
G0 Z0.01
G1 F1000.0 Z-0.1
G2 F2000.0 X26.3325 Y20.29 I1.2148 J-6.0416
G2 X17.0888 Y14.9531 I-6.1625 J0.0
G2 Y25.6269 I3.0812 J5.3369
G2 X18.9552 Y26.3316 I3.0812 J-5.3369
G1 F1000.0 Z-0.2
G2 F2000.0 X26.3325 Y20.29 I1.2148 J-6.0416
G2 X17.0888 Y14.9531 I-6.1625 J0.0
G2 Y25.6269 I3.0812 J5.3369
G2 X18.9552 Y26.3316 I3.0812 J-5.3369
G1 F1000.0 Z-0.3
G2 F2000.0 X26.3325 Y20.29 I1.2148 J-6.0416
G2 X17.0888 Y14.9531 I-6.1625 J0.0
G2 Y25.6269 I3.0812 J5.3369
G2 X18.9552 Y26.3316 I3.0812 J-5.3369
G1 F1000.0 Z-0.4
G2 F2000.0 X26.3325 Y20.29 I1.2148 J-6.0416
G2 X17.0888 Y14.9531 I-6.1625 J0.0
G2 Y25.6269 I3.0812 J5.3369
G2 X18.9552 Y26.3316 I3.0812 J-5.3369
G1 F1000.0 Z-0.5
G2 F2000.0 X26.3325 Y20.29 I1.2148 J-6.0416
G2 X17.0888 Y14.9531 I-6.1625 J0.0
G2 Y25.6269 I3.0812 J5.3369
G2 X18.9552 Y26.3316 I3.0812 J-5.3369
G1 F1000.0 Z-0.6
G2 F2000.0 X26.3325 Y20.29 I1.2148 J-6.0416
G2 X17.0888 Y14.9531 I-6.1625 J0.0
G2 Y25.6269 I3.0812 J5.3369
G2 X18.9552 Y26.3316 I3.0812 J-5.3369
G1 F1000.0 Z-0.7
G2 F2000.0 X26.3325 Y20.29 I1.2148 J-6.0416
G2 X17.0888 Y14.9531 I-6.1625 J0.0
G2 Y25.6269 I3.0812 J5.3369
G2 X18.9552 Y26.3316 I3.0812 J-5.3369
G1 F1000.0 Z-0.8
G2 F2000.0 X26.3325 Y20.29 I1.2148 J-6.0416
G2 X17.0888 Y14.9531 I-6.1625 J0.0
G2 Y25.6269 I3.0812 J5.3369
G2 X18.9552 Y26.3316 I3.0812 J-5.3369
G1 F1000.0 Z-0.9
G2 F2000.0 X26.3325 Y20.29 I1.2148 J-6.0416
G2 X17.0888 Y14.9531 I-6.1625 J0.0
G2 Y25.6269 I3.0812 J5.3369
G2 X18.9552 Y26.3316 I3.0812 J-5.3369
G1 F1000.0 Z-1.0
G2 F2000.0 X26.3325 Y20.29 I1.2148 J-6.0416
G2 X17.0888 Y14.9531 I-6.1625 J0.0
G2 Y25.6269 I3.0812 J5.3369
G2 X18.9552 Y26.3316 I3.0812 J-5.3369
G1 F1000.0 Z-1.1
G2 F2000.0 X26.3325 Y20.29 I1.2148 J-6.0416
G2 X17.0888 Y14.9531 I-6.1625 J0.0
G2 Y25.6269 I3.0812 J5.3369
G2 X18.9552 Y26.3316 I3.0812 J-5.3369
G1 F1000.0 Z-1.2
G2 F2000.0 X26.3325 Y20.29 I1.2148 J-6.0416
G2 X17.0888 Y14.9531 I-6.1625 J0.0
G2 Y25.6269 I3.0812 J5.3369
G2 X18.9552 Y26.3316 I3.0812 J-5.3369
G1 F1000.0 Z-1.3
G2 F2000.0 X26.3325 Y20.29 I1.2148 J-6.0416
G2 X17.0888 Y14.9531 I-6.1625 J0.0
G2 Y25.6269 I3.0812 J5.3369
G2 X18.9552 Y26.3316 I3.0812 J-5.3369
G1 F1000.0 Z-1.4
G2 F2000.0 X26.3325 Y20.29 I1.2148 J-6.0416
G2 X17.0888 Y14.9531 I-6.1625 J0.0
G2 Y25.6269 I3.0812 J5.3369
G2 X18.9552 Y26.3316 I3.0812 J-5.3369
G1 F1000.0 Z-1.5
G2 F2000.0 X26.3325 Y20.29 I1.2148 J-6.0416
G2 X17.0888 Y14.9531 I-6.1625 J0.0
G2 Y25.6269 I3.0812 J5.3369
G2 X18.9552 Y26.3316 I3.0812 J-5.3369
G1 F1000.0 Z-1.6
G2 F2000.0 X26.3325 Y20.29 I1.2148 J-6.0416
G2 X17.0888 Y14.9531 I-6.1625 J0.0
G2 Y25.6269 I3.0812 J5.3369
G2 X18.9552 Y26.3316 I3.0812 J-5.3369
G1 F1000.0 Z-1.7
G2 F2000.0 X26.3325 Y20.29 I1.2148 J-6.0416
G2 X17.0888 Y14.9531 I-6.1625 J0.0
G2 Y25.6269 I3.0812 J5.3369
G2 X18.9552 Y26.3316 I3.0812 J-5.3369
G1 F1000.0 Z-1.8
G2 F2000.0 X26.3325 Y20.29 I1.2148 J-6.0416
G2 X17.0888 Y14.9531 I-6.1625 J0.0
G2 Y25.6269 I3.0812 J5.3369
G2 X18.9552 Y26.3316 I3.0812 J-5.3369
G1 F1000.0 Z-1.9
G2 F2000.0 X26.3325 Y20.29 I1.2148 J-6.0416
G2 X17.0888 Y14.9531 I-6.1625 J0.0
G2 Y25.6269 I3.0812 J5.3369
G2 X18.9552 Y26.3316 I3.0812 J-5.3369
G1 F1000.0 Z-2.0
G2 F2000.0 X26.3325 Y20.29 I1.2148 J-6.0416
G2 X17.0888 Y14.9531 I-6.1625 J0.0
G2 Y25.6269 I3.0812 J5.3369
G2 X18.9552 Y26.3316 I3.0812 J-5.3369
G1 F1000.0 Z-2.1
G2 F2000.0 X26.3325 Y20.29 I1.2148 J-6.0416
G2 X17.0888 Y14.9531 I-6.1625 J0.0
G2 Y25.6269 I3.0812 J5.3369
G2 X18.9552 Y26.3316 I3.0812 J-5.3369
G1 F1000.0 Z-2.2
G2 F2000.0 X26.3325 Y20.29 I1.2148 J-6.0416
G2 X17.0888 Y14.9531 I-6.1625 J0.0
G2 Y25.6269 I3.0812 J5.3369
G2 X18.9552 Y26.3316 I3.0812 J-5.3369
G1 F1000.0 Z-2.3
G2 F2000.0 X26.3325 Y20.29 I1.2148 J-6.0416
G2 X17.0888 Y14.9531 I-6.1625 J0.0
G2 Y25.6269 I3.0812 J5.3369
G2 X18.9552 Y26.3316 I3.0812 J-5.3369
G1 F1000.0 Z-2.4
G2 F2000.0 X26.3325 Y20.29 I1.2148 J-6.0416
G2 X17.0888 Y14.9531 I-6.1625 J0.0
G2 Y25.6269 I3.0812 J5.3369
G2 X18.9552 Y26.3316 I3.0812 J-5.3369
G1 F1000.0 Z-2.5
G2 F2000.0 X26.3325 Y20.29 I1.2148 J-6.0416
G2 X17.0888 Y14.9531 I-6.1625 J0.0
G2 Y25.6269 I3.0812 J5.3369
G2 X18.9552 Y26.3316 I3.0812 J-5.3369
G1 F1000.0 Z-2.6
G2 F2000.0 X26.3325 Y20.29 I1.2148 J-6.0416
G2 X17.0888 Y14.9531 I-6.1625 J0.0
G2 Y25.6269 I3.0812 J5.3369
G2 X18.9552 Y26.3316 I3.0812 J-5.3369
G1 F1000.0 Z-2.7
G2 F2000.0 X26.3325 Y20.29 I1.2148 J-6.0416
G2 X17.0888 Y14.9531 I-6.1625 J0.0
G2 Y25.6269 I3.0812 J5.3369
G2 X18.9552 Y26.3316 I3.0812 J-5.3369
G1 F1000.0 Z-2.8
G2 F2000.0 X26.3325 Y20.29 I1.2148 J-6.0416
G2 X17.0888 Y14.9531 I-6.1625 J0.0
G2 Y25.6269 I3.0812 J5.3369
G2 X18.9552 Y26.3316 I3.0812 J-5.3369
G1 F1000.0 Z-2.9
G2 F2000.0 X26.3325 Y20.29 I1.2148 J-6.0416
G2 X17.0888 Y14.9531 I-6.1625 J0.0
G2 Y25.6269 I3.0812 J5.3369
G2 X18.9552 Y26.3316 I3.0812 J-5.3369
G1 F1000.0 Z-3.0
G2 F2000.0 X26.3325 Y20.29 I1.2148 J-6.0416
G2 X17.0888 Y14.9531 I-6.1625 J0.0
G2 Y25.6269 I3.0812 J5.3369
G2 X18.9552 Y26.3316 I3.0812 J-5.3369
G1 F1000.0 Z-3.1
G2 F2000.0 X26.3325 Y20.29 I1.2148 J-6.0416
G2 X17.0888 Y14.9531 I-6.1625 J0.0
G2 Y25.6269 I3.0812 J5.3369
G2 X18.9552 Y26.3316 I3.0812 J-5.3369
G1 F1000.0 Z-3.2
G2 F2000.0 X26.3325 Y20.29 I1.2148 J-6.0416
G2 X17.0888 Y14.9531 I-6.1625 J0.0
G2 Y25.6269 I3.0812 J5.3369
G2 X18.9552 Y26.3316 I3.0812 J-5.3369
G0 Z3.0
G0 X-1.5875
G0 Z0.01
G1 F1000.0 Z-0.1
G1 F2000.0 Y0.0
G3 X0.0 Y-1.5875 I1.5875 J0.0
G1 X40.4
G3 X41.9875 Y0.0 I0.0 J1.5875
G1 Y128.5
G3 X40.4 Y130.0875 I-1.5875 J0.0
G1 X0.0
G3 X-1.5875 Y128.5 I0.0 J-1.5875
G1 Y26.3316
G1 F1000.0 Z-0.2
G1 F2000.0 Y0.0
G3 X0.0 Y-1.5875 I1.5875 J0.0
G1 X40.4
G3 X41.9875 Y0.0 I0.0 J1.5875
G1 Y128.5
G3 X40.4 Y130.0875 I-1.5875 J0.0
G1 X0.0
G3 X-1.5875 Y128.5 I0.0 J-1.5875
G1 Y26.3316
G1 F1000.0 Z-0.3
G1 F2000.0 Y0.0
G3 X0.0 Y-1.5875 I1.5875 J0.0
G1 X40.4
G3 X41.9875 Y0.0 I0.0 J1.5875
G1 Y128.5
G3 X40.4 Y130.0875 I-1.5875 J0.0
G1 X0.0
G3 X-1.5875 Y128.5 I0.0 J-1.5875
G1 Y26.3316
G1 F1000.0 Z-0.4
G1 F2000.0 Y0.0
G3 X0.0 Y-1.5875 I1.5875 J0.0
G1 X40.4
G3 X41.9875 Y0.0 I0.0 J1.5875
G1 Y128.5
G3 X40.4 Y130.0875 I-1.5875 J0.0
G1 X0.0
G3 X-1.5875 Y128.5 I0.0 J-1.5875
G1 Y26.3316
G1 F1000.0 Z-0.5
G1 F2000.0 Y0.0
G3 X0.0 Y-1.5875 I1.5875 J0.0
G1 X40.4
G3 X41.9875 Y0.0 I0.0 J1.5875
G1 Y128.5
G3 X40.4 Y130.0875 I-1.5875 J0.0
G1 X0.0
G3 X-1.5875 Y128.5 I0.0 J-1.5875
G1 Y26.3316
G1 F1000.0 Z-0.6
G1 F2000.0 Y0.0
G3 X0.0 Y-1.5875 I1.5875 J0.0
G1 X40.4
G3 X41.9875 Y0.0 I0.0 J1.5875
G1 Y128.5
G3 X40.4 Y130.0875 I-1.5875 J0.0
G1 X0.0
G3 X-1.5875 Y128.5 I0.0 J-1.5875
G1 Y26.3316
G1 F1000.0 Z-0.7
G1 F2000.0 Y0.0
G3 X0.0 Y-1.5875 I1.5875 J0.0
G1 X40.4
G3 X41.9875 Y0.0 I0.0 J1.5875
G1 Y128.5
G3 X40.4 Y130.0875 I-1.5875 J0.0
G1 X0.0
G3 X-1.5875 Y128.5 I0.0 J-1.5875
G1 Y26.3316
G1 F1000.0 Z-0.8
G1 F2000.0 Y0.0
G3 X0.0 Y-1.5875 I1.5875 J0.0
G1 X40.4
G3 X41.9875 Y0.0 I0.0 J1.5875
G1 Y128.5
G3 X40.4 Y130.0875 I-1.5875 J0.0
G1 X0.0
G3 X-1.5875 Y128.5 I0.0 J-1.5875
G1 Y26.3316
G1 F1000.0 Z-0.9
G1 F2000.0 Y0.0
G3 X0.0 Y-1.5875 I1.5875 J0.0
G1 X40.4
G3 X41.9875 Y0.0 I0.0 J1.5875
G1 Y128.5
G3 X40.4 Y130.0875 I-1.5875 J0.0
G1 X0.0
G3 X-1.5875 Y128.5 I0.0 J-1.5875
G1 Y26.3316
G1 F1000.0 Z-1.0
G1 F2000.0 Y0.0
G3 X0.0 Y-1.5875 I1.5875 J0.0
G1 X40.4
G3 X41.9875 Y0.0 I0.0 J1.5875
G1 Y128.5
G3 X40.4 Y130.0875 I-1.5875 J0.0
G1 X0.0
G3 X-1.5875 Y128.5 I0.0 J-1.5875
G1 Y26.3316
G1 F1000.0 Z-1.1
G1 F2000.0 Y0.0
G3 X0.0 Y-1.5875 I1.5875 J0.0
G1 X40.4
G3 X41.9875 Y0.0 I0.0 J1.5875
G1 Y128.5
G3 X40.4 Y130.0875 I-1.5875 J0.0
G1 X0.0
G3 X-1.5875 Y128.5 I0.0 J-1.5875
G1 Y26.3316
G1 F1000.0 Z-1.2
G1 F2000.0 Y0.0
G3 X0.0 Y-1.5875 I1.5875 J0.0
G1 X40.4
G3 X41.9875 Y0.0 I0.0 J1.5875
G1 Y128.5
G3 X40.4 Y130.0875 I-1.5875 J0.0
G1 X0.0
G3 X-1.5875 Y128.5 I0.0 J-1.5875
G1 Y26.3316
G1 F1000.0 Z-1.3
G1 F2000.0 Y16.0375
G1 Y15.0375 Z-1.2
G1 Y11.8625
G1 Y10.8625 Z-1.3
G1 Y0.0
G3 X0.0 Y-1.5875 I1.5875 J0.0
G1 X40.4
G3 X41.9875 Y0.0 I0.0 J1.5875
G1 Y31.6125
G1 Y32.6125 Z-1.2
G1 Y35.7875
G1 Y36.7875 Z-1.3
G1 Y110.3225
G1 Y111.3225 Z-1.2
G1 Y114.4975
G1 Y115.4975 Z-1.3
G1 Y128.5
G3 X40.4 Y130.0875 I-1.5875 J0.0
G1 X0.0
G3 X-1.5875 Y128.5 I0.0 J-1.5875
G1 Y104.5375
G1 Y103.5375 Z-1.2
G1 Y100.3625
G1 Y99.3625 Z-1.3
G1 Y26.3316
G1 F1000.0 Z-1.4
G1 F2000.0 Y16.0375
G1 Y15.0375 Z-1.2
G1 Y11.8625
G1 Y10.8625 Z-1.4
G1 Y0.0
G3 X0.0 Y-1.5875 I1.5875 J0.0
G1 X40.4
G3 X41.9875 Y0.0 I0.0 J1.5875
G1 Y31.6125
G1 Y32.6125 Z-1.2
G1 Y35.7875
G1 Y36.7875 Z-1.4
G1 Y110.3225
G1 Y111.3225 Z-1.2
G1 Y114.4975
G1 Y115.4975 Z-1.4
G1 Y128.5
G3 X40.4 Y130.0875 I-1.5875 J0.0
G1 X0.0
G3 X-1.5875 Y128.5 I0.0 J-1.5875
G1 Y104.5375
G1 Y103.5375 Z-1.2
G1 Y100.3625
G1 Y99.3625 Z-1.4
G1 Y26.3316
G1 F1000.0 Z-1.5
G1 F2000.0 Y16.0375
G1 Y15.0375 Z-1.2
G1 Y11.8625
G1 Y10.8625 Z-1.5
G1 Y0.0
G3 X0.0 Y-1.5875 I1.5875 J0.0
G1 X40.4
G3 X41.9875 Y0.0 I0.0 J1.5875
G1 Y31.6125
G1 Y32.6125 Z-1.2
G1 Y35.7875
G1 Y36.7875 Z-1.5
G1 Y110.3225
G1 Y111.3225 Z-1.2
G1 Y114.4975
G1 Y115.4975 Z-1.5
G1 Y128.5
G3 X40.4 Y130.0875 I-1.5875 J0.0
G1 X0.0
G3 X-1.5875 Y128.5 I0.0 J-1.5875
G1 Y104.5375
G1 Y103.5375 Z-1.2
G1 Y100.3625
G1 Y99.3625 Z-1.5
G1 Y26.3316
G1 F1000.0 Z-1.6
G1 F2000.0 Y16.0375
G1 Y15.0375 Z-1.2
G1 Y11.8625
G1 Y10.8625 Z-1.6
G1 Y0.0
G3 X0.0 Y-1.5875 I1.5875 J0.0
G1 X40.4
G3 X41.9875 Y0.0 I0.0 J1.5875
G1 Y31.6125
G1 Y32.6125 Z-1.2
G1 Y35.7875
G1 Y36.7875 Z-1.6
G1 Y110.3225
G1 Y111.3225 Z-1.2
G1 Y114.4975
G1 Y115.4975 Z-1.6
G1 Y128.5
G3 X40.4 Y130.0875 I-1.5875 J0.0
G1 X0.0
G3 X-1.5875 Y128.5 I0.0 J-1.5875
G1 Y104.5375
G1 Y103.5375 Z-1.2
G1 Y100.3625
G1 Y99.3625 Z-1.6
G1 Y26.3316
G1 F1000.0 Z-1.7
G1 F2000.0 Y16.0375
G1 Y15.0375 Z-1.2
G1 Y11.8625
G1 Y10.8625 Z-1.7
G1 Y0.0
G3 X0.0 Y-1.5875 I1.5875 J0.0
G1 X40.4
G3 X41.9875 Y0.0 I0.0 J1.5875
G1 Y31.6125
G1 Y32.6125 Z-1.2
G1 Y35.7875
G1 Y36.7875 Z-1.7
G1 Y110.3225
G1 Y111.3225 Z-1.2
G1 Y114.4975
G1 Y115.4975 Z-1.7
G1 Y128.5
G3 X40.4 Y130.0875 I-1.5875 J0.0
G1 X0.0
G3 X-1.5875 Y128.5 I0.0 J-1.5875
G1 Y104.5375
G1 Y103.5375 Z-1.2
G1 Y100.3625
G1 Y99.3625 Z-1.7
G1 Y26.3316
G1 F1000.0 Z-1.8
G1 F2000.0 Y16.0375
G1 Y15.0375 Z-1.2
G1 Y11.8625
G1 Y10.8625 Z-1.8
G1 Y0.0
G3 X0.0 Y-1.5875 I1.5875 J0.0
G1 X40.4
G3 X41.9875 Y0.0 I0.0 J1.5875
G1 Y31.6125
G1 Y32.6125 Z-1.2
G1 Y35.7875
G1 Y36.7875 Z-1.8
G1 Y110.3225
G1 Y111.3225 Z-1.2
G1 Y114.4975
G1 Y115.4975 Z-1.8
G1 Y128.5
G3 X40.4 Y130.0875 I-1.5875 J0.0
G1 X0.0
G3 X-1.5875 Y128.5 I0.0 J-1.5875
G1 Y104.5375
G1 Y103.5375 Z-1.2
G1 Y100.3625
G1 Y99.3625 Z-1.8
G1 Y26.3316
G1 F1000.0 Z-1.9
G1 F2000.0 Y16.0375
G1 Y15.0375 Z-1.2
G1 Y11.8625
G1 Y10.8625 Z-1.9
G1 Y0.0
G3 X0.0 Y-1.5875 I1.5875 J0.0
G1 X40.4
G3 X41.9875 Y0.0 I0.0 J1.5875
G1 Y31.6125
G1 Y32.6125 Z-1.2
G1 Y35.7875
G1 Y36.7875 Z-1.9
G1 Y110.3225
G1 Y111.3225 Z-1.2
G1 Y114.4975
G1 Y115.4975 Z-1.9
G1 Y128.5
G3 X40.4 Y130.0875 I-1.5875 J0.0
G1 X0.0
G3 X-1.5875 Y128.5 I0.0 J-1.5875
G1 Y104.5375
G1 Y103.5375 Z-1.2
G1 Y100.3625
G1 Y99.3625 Z-1.9
G1 Y26.3316
G1 F1000.0 Z-2.0
G1 F2000.0 Y16.0375
G1 Y15.0375 Z-1.2
G1 Y11.8625
G1 Y10.8625 Z-2.0
G1 Y0.0
G3 X0.0 Y-1.5875 I1.5875 J0.0
G1 X40.4
G3 X41.9875 Y0.0 I0.0 J1.5875
G1 Y31.6125
G1 Y32.6125 Z-1.2
G1 Y35.7875
G1 Y36.7875 Z-2.0
G1 Y110.3225
G1 Y111.3225 Z-1.2
G1 Y114.4975
G1 Y115.4975 Z-2.0
G1 Y128.5
G3 X40.4 Y130.0875 I-1.5875 J0.0
G1 X0.0
G3 X-1.5875 Y128.5 I0.0 J-1.5875
G1 Y104.5375
G1 Y103.5375 Z-1.2
G1 Y100.3625
G1 Y99.3625 Z-2.0
G1 Y26.3316
G1 F1000.0 Z-2.1
G1 F2000.0 Y16.0375
G1 Y15.0375 Z-1.2
G1 Y11.8625
G1 Y10.8625 Z-2.1
G1 Y0.0
G3 X0.0 Y-1.5875 I1.5875 J0.0
G1 X40.4
G3 X41.9875 Y0.0 I0.0 J1.5875
G1 Y31.6125
G1 Y32.6125 Z-1.2
G1 Y35.7875
G1 Y36.7875 Z-2.1
G1 Y110.3225
G1 Y111.3225 Z-1.2
G1 Y114.4975
G1 Y115.4975 Z-2.1
G1 Y128.5
G3 X40.4 Y130.0875 I-1.5875 J0.0
G1 X0.0
G3 X-1.5875 Y128.5 I0.0 J-1.5875
G1 Y104.5375
G1 Y103.5375 Z-1.2
G1 Y100.3625
G1 Y99.3625 Z-2.1
G1 Y26.3316
G1 F1000.0 Z-2.2
G1 F2000.0 Y16.0375
G1 Y15.0375 Z-1.2
G1 Y11.8625
G1 Y10.8625 Z-2.2
G1 Y0.0
G3 X0.0 Y-1.5875 I1.5875 J0.0
G1 X40.4
G3 X41.9875 Y0.0 I0.0 J1.5875
G1 Y31.6125
G1 Y32.6125 Z-1.2
G1 Y35.7875
G1 Y36.7875 Z-2.2
G1 Y110.3225
G1 Y111.3225 Z-1.2
G1 Y114.4975
G1 Y115.4975 Z-2.2
G1 Y128.5
G3 X40.4 Y130.0875 I-1.5875 J0.0
G1 X0.0
G3 X-1.5875 Y128.5 I0.0 J-1.5875
G1 Y104.5375
G1 Y103.5375 Z-1.2
G1 Y100.3625
G1 Y99.3625 Z-2.2
G1 Y26.3316
G1 F1000.0 Z-2.3
G1 F2000.0 Y16.0375
G1 Y15.0375 Z-1.2
G1 Y11.8625
G1 Y10.8625 Z-2.3
G1 Y0.0
G3 X0.0 Y-1.5875 I1.5875 J0.0
G1 X40.4
G3 X41.9875 Y0.0 I0.0 J1.5875
G1 Y31.6125
G1 Y32.6125 Z-1.2
G1 Y35.7875
G1 Y36.7875 Z-2.3
G1 Y110.3225
G1 Y111.3225 Z-1.2
G1 Y114.4975
G1 Y115.4975 Z-2.3
G1 Y128.5
G3 X40.4 Y130.0875 I-1.5875 J0.0
G1 X0.0
G3 X-1.5875 Y128.5 I0.0 J-1.5875
G1 Y104.5375
G1 Y103.5375 Z-1.2
G1 Y100.3625
G1 Y99.3625 Z-2.3
G1 Y26.3316
G1 F1000.0 Z-2.4
G1 F2000.0 Y16.0375
G1 Y15.0375 Z-1.2
G1 Y11.8625
G1 Y10.8625 Z-2.4
G1 Y0.0
G3 X0.0 Y-1.5875 I1.5875 J0.0
G1 X40.4
G3 X41.9875 Y0.0 I0.0 J1.5875
G1 Y31.6125
G1 Y32.6125 Z-1.2
G1 Y35.7875
G1 Y36.7875 Z-2.4
G1 Y110.3225
G1 Y111.3225 Z-1.2
G1 Y114.4975
G1 Y115.4975 Z-2.4
G1 Y128.5
G3 X40.4 Y130.0875 I-1.5875 J0.0
G1 X0.0
G3 X-1.5875 Y128.5 I0.0 J-1.5875
G1 Y104.5375
G1 Y103.5375 Z-1.2
G1 Y100.3625
G1 Y99.3625 Z-2.4
G1 Y26.3316
G1 F1000.0 Z-2.5
G1 F2000.0 Y16.0375
G1 Y15.0375 Z-1.2
G1 Y11.8625
G1 Y10.8625 Z-2.5
G1 Y0.0
G3 X0.0 Y-1.5875 I1.5875 J0.0
G1 X40.4
G3 X41.9875 Y0.0 I0.0 J1.5875
G1 Y31.6125
G1 Y32.6125 Z-1.2
G1 Y35.7875
G1 Y36.7875 Z-2.5
G1 Y110.3225
G1 Y111.3225 Z-1.2
G1 Y114.4975
G1 Y115.4975 Z-2.5
G1 Y128.5
G3 X40.4 Y130.0875 I-1.5875 J0.0
G1 X0.0
G3 X-1.5875 Y128.5 I0.0 J-1.5875
G1 Y104.5375
G1 Y103.5375 Z-1.2
G1 Y100.3625
G1 Y99.3625 Z-2.5
G1 Y26.3316
G1 F1000.0 Z-2.6
G1 F2000.0 Y16.0375
G1 Y15.0375 Z-1.2
G1 Y11.8625
G1 Y10.8625 Z-2.6
G1 Y0.0
G3 X0.0 Y-1.5875 I1.5875 J0.0
G1 X40.4
G3 X41.9875 Y0.0 I0.0 J1.5875
G1 Y31.6125
G1 Y32.6125 Z-1.2
G1 Y35.7875
G1 Y36.7875 Z-2.6
G1 Y110.3225
G1 Y111.3225 Z-1.2
G1 Y114.4975
G1 Y115.4975 Z-2.6
G1 Y128.5
G3 X40.4 Y130.0875 I-1.5875 J0.0
G1 X0.0
G3 X-1.5875 Y128.5 I0.0 J-1.5875
G1 Y104.5375
G1 Y103.5375 Z-1.2
G1 Y100.3625
G1 Y99.3625 Z-2.6
G1 Y26.3316
G1 F1000.0 Z-2.7
G1 F2000.0 Y16.0375
G1 Y15.0375 Z-1.2
G1 Y11.8625
G1 Y10.8625 Z-2.7
G1 Y0.0
G3 X0.0 Y-1.5875 I1.5875 J0.0
G1 X40.4
G3 X41.9875 Y0.0 I0.0 J1.5875
G1 Y31.6125
G1 Y32.6125 Z-1.2
G1 Y35.7875
G1 Y36.7875 Z-2.7
G1 Y110.3225
G1 Y111.3225 Z-1.2
G1 Y114.4975
G1 Y115.4975 Z-2.7
G1 Y128.5
G3 X40.4 Y130.0875 I-1.5875 J0.0
G1 X0.0
G3 X-1.5875 Y128.5 I0.0 J-1.5875
G1 Y104.5375
G1 Y103.5375 Z-1.2
G1 Y100.3625
G1 Y99.3625 Z-2.7
G1 Y26.3316
G1 F1000.0 Z-2.8
G1 F2000.0 Y16.0375
G1 Y15.0375 Z-1.2
G1 Y11.8625
G1 Y10.8625 Z-2.8
G1 Y0.0
G3 X0.0 Y-1.5875 I1.5875 J0.0
G1 X40.4
G3 X41.9875 Y0.0 I0.0 J1.5875
G1 Y31.6125
G1 Y32.6125 Z-1.2
G1 Y35.7875
G1 Y36.7875 Z-2.8
G1 Y110.3225
G1 Y111.3225 Z-1.2
G1 Y114.4975
G1 Y115.4975 Z-2.8
G1 Y128.5
G3 X40.4 Y130.0875 I-1.5875 J0.0
G1 X0.0
G3 X-1.5875 Y128.5 I0.0 J-1.5875
G1 Y104.5375
G1 Y103.5375 Z-1.2
G1 Y100.3625
G1 Y99.3625 Z-2.8
G1 Y26.3316
G1 F1000.0 Z-2.9
G1 F2000.0 Y16.0375
G1 Y15.0375 Z-1.2
G1 Y11.8625
G1 Y10.8625 Z-2.9
G1 Y0.0
G3 X0.0 Y-1.5875 I1.5875 J0.0
G1 X40.4
G3 X41.9875 Y0.0 I0.0 J1.5875
G1 Y31.6125
G1 Y32.6125 Z-1.2
G1 Y35.7875
G1 Y36.7875 Z-2.9
G1 Y110.3225
G1 Y111.3225 Z-1.2
G1 Y114.4975
G1 Y115.4975 Z-2.9
G1 Y128.5
G3 X40.4 Y130.0875 I-1.5875 J0.0
G1 X0.0
G3 X-1.5875 Y128.5 I0.0 J-1.5875
G1 Y104.5375
G1 Y103.5375 Z-1.2
G1 Y100.3625
G1 Y99.3625 Z-2.9
G1 Y26.3316
G1 F1000.0 Z-3.0
G1 F2000.0 Y16.0375
G1 Y15.0375 Z-1.2
G1 Y11.8625
G1 Y10.8625 Z-3.0
G1 Y0.0
G3 X0.0 Y-1.5875 I1.5875 J0.0
G1 X40.4
G3 X41.9875 Y0.0 I0.0 J1.5875
G1 Y31.6125
G1 Y32.6125 Z-1.2
G1 Y35.7875
G1 Y36.7875 Z-3.0
G1 Y110.3225
G1 Y111.3225 Z-1.2
G1 Y114.4975
G1 Y115.4975 Z-3.0
G1 Y128.5
G3 X40.4 Y130.0875 I-1.5875 J0.0
G1 X0.0
G3 X-1.5875 Y128.5 I0.0 J-1.5875
G1 Y104.5375
G1 Y103.5375 Z-1.2
G1 Y100.3625
G1 Y99.3625 Z-3.0
G1 Y26.3316
G1 F1000.0 Z-3.1
G1 F2000.0 Y16.0375
G1 Y15.0375 Z-1.2
G1 Y11.8625
G1 Y10.8625 Z-3.1
G1 Y0.0
G3 X0.0 Y-1.5875 I1.5875 J0.0
G1 X40.4
G3 X41.9875 Y0.0 I0.0 J1.5875
G1 Y31.6125
G1 Y32.6125 Z-1.2
G1 Y35.7875
G1 Y36.7875 Z-3.1
G1 Y110.3225
G1 Y111.3225 Z-1.2
G1 Y114.4975
G1 Y115.4975 Z-3.1
G1 Y128.5
G3 X40.4 Y130.0875 I-1.5875 J0.0
G1 X0.0
G3 X-1.5875 Y128.5 I0.0 J-1.5875
G1 Y104.5375
G1 Y103.5375 Z-1.2
G1 Y100.3625
G1 Y99.3625 Z-3.1
G1 Y26.3316
G1 F1000.0 Z-3.2
G1 F2000.0 Y16.0375
G1 Y15.0375 Z-1.2
G1 Y11.8625
G1 Y10.8625 Z-3.2
G1 Y0.0
G3 X0.0 Y-1.5875 I1.5875 J0.0
G1 X40.4
G3 X41.9875 Y0.0 I0.0 J1.5875
G1 Y31.6125
G1 Y32.6125 Z-1.2
G1 Y35.7875
G1 Y36.7875 Z-3.2
G1 Y110.3225
G1 Y111.3225 Z-1.2
G1 Y114.4975
G1 Y115.4975 Z-3.2
G1 Y128.5
G3 X40.4 Y130.0875 I-1.5875 J0.0
G1 X0.0
G3 X-1.5875 Y128.5 I0.0 J-1.5875
G1 Y104.5375
G1 Y103.5375 Z-1.2
G1 Y100.3625
G1 Y99.3625 Z-3.2
G1 Y26.3316
G0 Z3.0
M5
M30
