(/Applications/pcbgcode.repo/pcb-gcode.ulp)
(Copyright 2005 - 2012 by John Johnson)
(See readme.txt for licensing terms.)
(This file generated from the board:)
(.../atmega_midi_cv_polysynth/eagle/midi_to_cv.brd)
(Current profile is .../pcbgcode.repo/profiles/mach.pp  )
(This file generated 12/24/14 11:36 PM)
(Settings from pcb-machine.h)
(spindle on time = 0.0000)
(spindle speed = 15000.0000)
(milling depth = -0.0630)
(tool change at 0.0000  0.0000  3.0000  )
(feed rate xy = F10    )
(feed rate z  = F5     )
(Z Axis Settings)
(  High     Up        Down     Drill)
(0.5000  	0.1000  	-0.0021 	-0.0631 )
(Settings from pcb-defaults.h)
(isolate min = 0.0030)
(isolate max = 0.0050)
(isolate step = 0.0010)
(Generated bottom outlines, bottom drill, )
(Unit of measure: inch)
(Inch Mode)
G20
(Absolute Coordinates)
G90
S15000
G00 Z0.5000  
G00 X0.0000  Y0.0000  
M03
G04 P0.000000
G00 Z0.1000  
G00 X0.0100  Y0.0500  
G01 Z-0.0630 F5     
G01 X0.0500  Y0.0500  F10    
G00 Z0.1000  
G00 X0.0100  Y0.0500  
G01 Z-0.0630 F5     
G01 X0.0100  Y3.1400  F10    
G01 X0.8300  Y3.1400  
G01 X0.8300  Y3.2000  
G01 X3.9400  Y3.2000  
G01 X3.9400  Y3.1500  
G01 X3.9300  Y3.1500  
G01 X3.9300  Y-0.0200 
G01 X3.7100  Y-0.0200 
G01 X3.7100  Y-0.0300 
G01 X0.0600  Y-0.0300 
G01 X0.0600  Y0.0000  
G00 Z0.5000  
M05
M02
