(/Applications/pcbgcode.repo/pcb-gcode.ulp)
(Copyright 2005 - 2012 by John Johnson)
(See readme.txt for licensing terms.)
(This file generated from the board:)
(.../arduino_midi_cv/eagle/midi_to_cv.brd)
(Current profile is .../pcbgcode.repo/profiles/mach.pp  )
(This file generated 12/5/14 10:49 PM)
(Settings from pcb-machine.h)
(spindle on time = 0.0000)
(  Tool Size)
(0.0103  )
(spindle speed = 30000.0000)
(tool change at 0.0000  0.0000  3.0000  )
(feed rate xy = F20    )
(feed rate z  = F10    )
(Z Axis Settings)
(  High     Up        Down     Drill)
(0.5000  	0.1000  	-0.0021 	-0.0631 )
(Settings from pcb-defaults.h)
(isolate min = 0.0010)
(isolate max = 0.0050)
(isolate step = 0.0010)
(Generated bottom outlines, bottom drill, )
(Unit of measure: inch)
(Inch Mode)
G20
(Absolute Coordinates)
G90
S30000
G00 Z0.5000  
G00 X0.0000  Y0.0000  
M03
G04 P0.000000
G00 Z0.1000  
G00 X-0.4573 Y0.4114  
G01 Z-0.0021 F10    
G01 X-0.4614 Y0.4073  F20    
G01 X-0.6739 Y0.1948  
G01 X-0.6790 Y0.1919  
G01 X-0.6846 Y0.1904  
G01 X-2.2467 Y0.1904  
G01 X-2.2523 Y0.1919  
G01 X-2.2574 Y0.1948  
G01 X-2.2615 Y0.1989  
G01 X-2.3043 Y0.2418  
G01 X-2.3096 Y0.2404  
G01 X-3.3529 Y0.2404  
G01 X-3.3585 Y0.2419  
G01 X-3.3636 Y0.2448  
G01 X-3.3677 Y0.2489  
G01 X-3.6052 Y0.4864  
G01 X-3.6081 Y0.4915  
G01 X-3.6096 Y0.4971  
G01 X-3.6096 Y2.1342  
G01 X-3.6081 Y2.1398  
G01 X-3.6052 Y2.1449  
G01 X-3.6011 Y2.1490  
G01 X-3.5449 Y2.2052  
G01 X-3.5398 Y2.2081  
G01 X-3.5342 Y2.2096  
G01 X-3.1592 Y2.2096  
G01 X-3.0321 Y2.3367  
G01 X-3.0321 Y2.3792  
G01 X-3.0309 Y2.3854  
G01 X-3.0285 Y2.3912  
G01 X-3.0250 Y2.3965  
G01 X-3.0205 Y2.4010  
G01 X-3.0152 Y2.4045  
G01 X-3.0094 Y2.4069  
G01 X-3.0032 Y2.4081  
G01 X-2.9968 Y2.4081  
G01 X-2.9906 Y2.4069  
G01 X-2.9848 Y2.4045  
G01 X-2.9795 Y2.4010  
G01 X-2.9750 Y2.3965  
G01 X-2.9715 Y2.3912  
G01 X-2.9691 Y2.3854  
G01 X-2.9679 Y2.3792  
G01 X-2.9679 Y2.3208  
G01 X-2.9691 Y2.3146  
G01 X-2.9715 Y2.3088  
G01 X-2.9750 Y2.3035  
G01 X-2.9795 Y2.2990  
G01 X-2.9848 Y2.2955  
G01 X-2.9906 Y2.2931  
G01 X-2.9968 Y2.2919  
G01 X-3.0032 Y2.2919  
G01 X-3.0094 Y2.2931  
G01 X-3.0120 Y2.2942  
G01 X-3.1323 Y2.1739  
G01 X-3.1364 Y2.1698  
G01 X-3.1415 Y2.1669  
G01 X-3.1471 Y2.1654  
G01 X-3.5221 Y2.1654  
G01 X-3.5654 Y2.1221  
G01 X-3.5654 Y0.5092  
G01 X-3.3408 Y0.2846  
G01 X-2.3472 Y0.2846  
G01 X-2.4052 Y0.3426  
G01 X-2.4081 Y0.3477  
G01 X-2.4096 Y0.3533  
G01 X-2.4096 Y0.5408  
G01 X-2.5367 Y0.6679  
G01 X-2.5792 Y0.6679  
G01 X-2.5854 Y0.6691  
G01 X-2.5912 Y0.6715  
G01 X-2.5965 Y0.6750  
G01 X-2.6010 Y0.6795  
G01 X-2.6045 Y0.6848  
G01 X-2.6069 Y0.6906  
G01 X-2.6081 Y0.6968  
G01 X-2.6081 Y0.7032  
G01 X-2.6069 Y0.7094  
G01 X-2.6045 Y0.7152  
G01 X-2.6010 Y0.7205  
G01 X-2.5965 Y0.7250  
G01 X-2.5912 Y0.7285  
G01 X-2.5854 Y0.7309  
G01 X-2.5792 Y0.7321  
G01 X-2.5208 Y0.7321  
G01 X-2.5146 Y0.7309  
G01 X-2.5088 Y0.7285  
G01 X-2.5035 Y0.7250  
G01 X-2.4990 Y0.7205  
G01 X-2.4955 Y0.7152  
G01 X-2.4931 Y0.7094  
G01 X-2.4919 Y0.7032  
G01 X-2.4919 Y0.6968  
G01 X-2.4931 Y0.6906  
G01 X-2.4942 Y0.6880  
G01 X-2.3739 Y0.5677  
G01 X-2.3698 Y0.5636  
G01 X-2.3669 Y0.5585  
G01 X-2.3654 Y0.5529  
G01 X-2.3654 Y0.3654  
G01 X-2.2895 Y0.2896  
G01 X-2.2854 Y0.2855  
G01 X-2.2346 Y0.2346  
G01 X-0.6967 Y0.2346  
G01 X-0.4971 Y0.4342  
G01 X-0.4971 Y0.7658  
G01 X-0.5382 Y0.8069  
G01 X-0.5679 Y0.8069  
G01 X-0.5889 Y0.8279  
G01 X-0.6111 Y0.8279  
G01 X-0.6321 Y0.8069  
G01 X-0.6679 Y0.8069  
G01 X-0.6931 Y0.8321  
G01 X-0.6931 Y0.8679  
G01 X-0.6679 Y0.8931  
G01 X-0.6321 Y0.8931  
G01 X-0.6111 Y0.8721  
G01 X-0.5889 Y0.8721  
G01 X-0.5679 Y0.8931  
G01 X-0.5321 Y0.8931  
G01 X-0.5069 Y0.8679  
G01 X-0.5069 Y0.8382  
G01 X-0.4573 Y0.7886  
G01 X-0.4544 Y0.7835  
G01 X-0.4529 Y0.7779  
G01 X-0.4529 Y0.4221  
G01 X-0.4544 Y0.4165  
G01 X-0.4573 Y0.4114  
G00 Z0.1000  
G00 X-0.5069 Y0.4321  
G01 Z-0.0021 F10    
G01 X-0.5321 Y0.4069  F20    
G01 X-0.5679 Y0.4069  
G01 X-0.5889 Y0.4279  
G01 X-0.6111 Y0.4279  
G01 X-0.6321 Y0.4069  
G01 X-0.6618 Y0.4069  
G01 X-0.8239 Y0.2448  
G01 X-0.8290 Y0.2419  
G01 X-0.8346 Y0.2404  
G01 X-2.2279 Y0.2404  
G01 X-2.2335 Y0.2419  
G01 X-2.2386 Y0.2448  
G01 X-2.2427 Y0.2489  
G01 X-2.3552 Y0.3614  
G01 X-2.3581 Y0.3665  
G01 X-2.3596 Y0.3721  
G01 X-2.3596 Y0.6279  
G01 X-2.3581 Y0.6335  
G01 X-2.3577 Y0.6344  
G01 X-2.3581 Y0.6352  
G01 X-2.3596 Y0.6408  
G01 X-2.3596 Y0.8908  
G01 X-2.5842 Y1.1154  
G01 X-2.9408 Y1.1154  
G01 X-3.1904 Y0.8658  
G01 X-3.1904 Y0.8471  
G01 X-3.1919 Y0.8415  
G01 X-3.1948 Y0.8364  
G01 X-3.1989 Y0.8323  
G01 X-3.2573 Y0.7739  
G01 X-3.2614 Y0.7698  
G01 X-3.2665 Y0.7669  
G01 X-3.2721 Y0.7654  
G01 X-3.4779 Y0.7654  
G01 X-3.4835 Y0.7669  
G01 X-3.4886 Y0.7698  
G01 X-3.4927 Y0.7739  
G01 X-3.5552 Y0.8364  
G01 X-3.5581 Y0.8415  
G01 X-3.5596 Y0.8471  
G01 X-3.5596 Y1.0342  
G01 X-3.5581 Y1.0398  
G01 X-3.5552 Y1.0449  
G01 X-3.5511 Y1.0490  
G01 X-3.1721 Y1.4279  
G01 X-3.1721 Y1.7592  
G01 X-3.1706 Y1.7648  
G01 X-3.1677 Y1.7699  
G01 X-3.1636 Y1.7740  
G01 X-3.0221 Y1.9154  
G01 X-3.0221 Y2.0007  
G01 X-3.0250 Y2.0035  
G01 X-3.0285 Y2.0088  
G01 X-3.0309 Y2.0146  
G01 X-3.0321 Y2.0208  
G01 X-3.0321 Y2.0792  
G01 X-3.0309 Y2.0854  
G01 X-3.0285 Y2.0912  
G01 X-3.0250 Y2.0965  
G01 X-3.0205 Y2.1010  
G01 X-3.0152 Y2.1045  
G01 X-3.0094 Y2.1069  
G01 X-3.0032 Y2.1081  
G01 X-2.9968 Y2.1081  
G01 X-2.9906 Y2.1069  
G01 X-2.9848 Y2.1045  
G01 X-2.9795 Y2.1010  
G01 X-2.9750 Y2.0965  
G01 X-2.9715 Y2.0912  
G01 X-2.9691 Y2.0854  
G01 X-2.9679 Y2.0792  
G01 X-2.9679 Y2.0208  
G01 X-2.9691 Y2.0146  
G01 X-2.9715 Y2.0088  
G01 X-2.9750 Y2.0035  
G01 X-2.9779 Y2.0007  
G01 X-2.9779 Y1.9033  
G01 X-2.9794 Y1.8977  
G01 X-2.9823 Y1.8926  
G01 X-3.1279 Y1.7471  
G01 X-3.1279 Y1.4158  
G01 X-3.1294 Y1.4102  
G01 X-3.1323 Y1.4051  
G01 X-3.5154 Y1.0221  
G01 X-3.5154 Y0.8592  
G01 X-3.4658 Y0.8096  
G01 X-3.2842 Y0.8096  
G01 X-3.2346 Y0.8592  
G01 X-3.2346 Y0.8779  
G01 X-3.2331 Y0.8835  
G01 X-3.2302 Y0.8886  
G01 X-2.9677 Y1.1511  
G01 X-2.9636 Y1.1552  
G01 X-2.9585 Y1.1581  
G01 X-2.9529 Y1.1596  
G01 X-2.5721 Y1.1596  
G01 X-2.5665 Y1.1581  
G01 X-2.5614 Y1.1552  
G01 X-2.3239 Y0.9177  
G01 X-2.3198 Y0.9136  
G01 X-2.3169 Y0.9085  
G01 X-2.3154 Y0.9029  
G01 X-2.3154 Y0.6785  
G01 X-2.3058 Y0.6880  
G01 X-2.3069 Y0.6906  
G01 X-2.3081 Y0.6968  
G01 X-2.3081 Y0.7032  
G01 X-2.3069 Y0.7094  
G01 X-2.3045 Y0.7152  
G01 X-2.3010 Y0.7205  
G01 X-2.2965 Y0.7250  
G01 X-2.2912 Y0.7285  
G01 X-2.2854 Y0.7309  
G01 X-2.2792 Y0.7321  
G01 X-2.2208 Y0.7321  
G01 X-2.2146 Y0.7309  
G01 X-2.2088 Y0.7285  
G01 X-2.2035 Y0.7250  
G01 X-2.1990 Y0.7205  
G01 X-2.1955 Y0.7152  
G01 X-2.1931 Y0.7094  
G01 X-2.1919 Y0.7032  
G01 X-2.1919 Y0.6968  
G01 X-2.1931 Y0.6906  
G01 X-2.1955 Y0.6848  
G01 X-2.1990 Y0.6795  
G01 X-2.2035 Y0.6750  
G01 X-2.2088 Y0.6715  
G01 X-2.2146 Y0.6691  
G01 X-2.2208 Y0.6679  
G01 X-2.2633 Y0.6679  
G01 X-2.3145 Y0.6167  
G01 X-2.3154 Y0.6158  
G01 X-2.3154 Y0.3842  
G01 X-2.2158 Y0.2846  
G01 X-0.8467 Y0.2846  
G01 X-0.6931 Y0.4382  
G01 X-0.6931 Y0.4679  
G01 X-0.6679 Y0.4931  
G01 X-0.6321 Y0.4931  
G01 X-0.6111 Y0.4721  
G01 X-0.5889 Y0.4721  
G01 X-0.5679 Y0.4931  
G01 X-0.5321 Y0.4931  
G01 X-0.5069 Y0.4679  
G01 X-0.5069 Y0.4321  
G00 Z0.1000  
G00 X-0.5069 Y0.5321  
G01 Z-0.0021 F10    
G01 X-0.5321 Y0.5069  F20    
G01 X-0.5679 Y0.5069  
G01 X-0.5889 Y0.5279  
G01 X-0.6111 Y0.5279  
G01 X-0.6321 Y0.5069  
G01 X-0.6679 Y0.5069  
G01 X-0.6931 Y0.5321  
G01 X-0.6931 Y0.5679  
G01 X-0.6679 Y0.5931  
G01 X-0.6321 Y0.5931  
G01 X-0.6111 Y0.5721  
G01 X-0.5889 Y0.5721  
G01 X-0.5721 Y0.5889  
G01 X-0.5721 Y0.6111  
G01 X-0.5889 Y0.6279  
G01 X-0.6111 Y0.6279  
G01 X-0.6321 Y0.6069  
G01 X-0.6679 Y0.6069  
G01 X-0.6931 Y0.6321  
G01 X-0.6931 Y0.6679  
G01 X-0.6679 Y0.6931  
G01 X-0.6321 Y0.6931  
G01 X-0.6111 Y0.6721  
G01 X-0.5889 Y0.6721  
G01 X-0.5721 Y0.6889  
G01 X-0.5721 Y0.7111  
G01 X-0.5889 Y0.7279  
G01 X-0.6111 Y0.7279  
G01 X-0.6321 Y0.7069  
G01 X-0.6679 Y0.7069  
G01 X-0.6931 Y0.7321  
G01 X-0.6931 Y0.7341  
G01 X-1.0529 Y0.7341  
G01 X-1.0585 Y0.7356  
G01 X-1.0636 Y0.7385  
G01 X-1.1728 Y0.8478  
G01 X-1.1767 Y0.8439  
G01 X-1.2233 Y0.8439  
G01 X-1.2240 Y0.8446  
G01 X-1.2364 Y0.8323  
G01 X-1.2415 Y0.8294  
G01 X-1.2471 Y0.8279  
G01 X-1.3267 Y0.8279  
G01 X-1.3367 Y0.8179  
G01 X-1.3571 Y0.8179  
G01 X-1.4051 Y0.7698  
G01 X-1.4102 Y0.7669  
G01 X-1.4158 Y0.7654  
G01 X-1.5779 Y0.7654  
G01 X-1.5835 Y0.7669  
G01 X-1.5886 Y0.7698  
G01 X-1.5927 Y0.7739  
G01 X-1.6467 Y0.8279  
G01 X-1.6767 Y0.8279  
G01 X-1.6867 Y0.8179  
G01 X-1.7133 Y0.8179  
G01 X-1.7321 Y0.8367  
G01 X-1.7321 Y0.8633  
G01 X-1.7133 Y0.8821  
G01 X-1.6867 Y0.8821  
G01 X-1.6767 Y0.8721  
G01 X-1.6346 Y0.8721  
G01 X-1.6290 Y0.8706  
G01 X-1.6239 Y0.8677  
G01 X-1.5658 Y0.8096  
G01 X-1.4279 Y0.8096  
G01 X-1.3821 Y0.8554  
G01 X-1.3821 Y0.8633  
G01 X-1.3633 Y0.8821  
G01 X-1.3367 Y0.8821  
G01 X-1.3267 Y0.8721  
G01 X-1.2592 Y0.8721  
G01 X-1.2554 Y0.8760  
G01 X-1.2561 Y0.8767  
G01 X-1.2561 Y0.9233  
G01 X-1.2284 Y0.9510  
G01 X-1.2284 Y1.1154  
G01 X-1.8779 Y1.1154  
G01 X-1.8835 Y1.1169  
G01 X-1.8886 Y1.1198  
G01 X-1.8927 Y1.1239  
G01 X-1.9302 Y1.1614  
G01 X-1.9331 Y1.1665  
G01 X-1.9346 Y1.1721  
G01 X-1.9346 Y1.4779  
G01 X-2.1533 Y1.4779  
G01 X-2.3073 Y1.3239  
G01 X-2.3114 Y1.3198  
G01 X-2.3165 Y1.3169  
G01 X-2.3221 Y1.3154  
G01 X-2.5904 Y1.3154  
G01 X-2.5960 Y1.3169  
G01 X-2.6011 Y1.3198  
G01 X-2.6458 Y1.3645  
G01 X-2.6465 Y1.3644  
G01 X-2.6535 Y1.3644  
G01 X-2.6604 Y1.3657  
G01 X-2.6669 Y1.3684  
G01 X-2.6727 Y1.3723  
G01 X-2.6777 Y1.3773  
G01 X-2.6816 Y1.3831  
G01 X-2.6843 Y1.3896  
G01 X-2.6856 Y1.3965  
G01 X-2.6856 Y1.3981  
G01 X-2.7092 Y1.4216  
G01 X-2.8829 Y1.4216  
G01 X-2.8867 Y1.4179  
G01 X-2.9008 Y1.4179  
G01 X-2.9679 Y1.3508  
G01 X-2.9679 Y1.3367  
G01 X-2.9867 Y1.3179  
G01 X-3.0133 Y1.3179  
G01 X-3.0171 Y1.3216  
G01 X-3.0908 Y1.3216  
G01 X-3.3939 Y1.0186  
G01 X-3.3939 Y0.9767  
G01 X-3.4267 Y0.9439  
G01 X-3.4279 Y0.9439  
G01 X-3.4279 Y0.8733  
G01 X-3.4267 Y0.8721  
G01 X-3.3233 Y0.8721  
G01 X-3.3133 Y0.8821  
G01 X-3.2867 Y0.8821  
G01 X-3.2679 Y0.8633  
G01 X-3.2679 Y0.8367  
G01 X-3.2867 Y0.8179  
G01 X-3.3133 Y0.8179  
G01 X-3.3233 Y0.8279  
G01 X-3.4267 Y0.8279  
G01 X-3.4367 Y0.8179  
G01 X-3.4633 Y0.8179  
G01 X-3.4821 Y0.8367  
G01 X-3.4821 Y0.8633  
G01 X-3.4721 Y0.8733  
G01 X-3.4721 Y0.9439  
G01 X-3.4733 Y0.9439  
G01 X-3.5061 Y0.9767  
G01 X-3.5061 Y1.0233  
G01 X-3.4733 Y1.0561  
G01 X-3.4267 Y1.0561  
G01 X-3.4228 Y1.0522  
G01 X-3.1136 Y1.3615  
G01 X-3.1085 Y1.3644  
G01 X-3.1029 Y1.3659  
G01 X-3.0296 Y1.3659  
G01 X-3.0133 Y1.3821  
G01 X-2.9992 Y1.3821  
G01 X-2.9321 Y1.4492  
G01 X-2.9321 Y1.4633  
G01 X-2.9133 Y1.4821  
G01 X-2.8867 Y1.4821  
G01 X-2.8704 Y1.4659  
G01 X-2.6971 Y1.4659  
G01 X-2.6915 Y1.4644  
G01 X-2.6864 Y1.4615  
G01 X-2.6594 Y1.4345  
G01 X-2.6535 Y1.4356  
G01 X-2.6465 Y1.4356  
G01 X-2.6396 Y1.4343  
G01 X-2.6331 Y1.4316  
G01 X-2.6273 Y1.4277  
G01 X-2.6223 Y1.4227  
G01 X-2.6184 Y1.4169  
G01 X-2.6157 Y1.4104  
G01 X-2.6144 Y1.4035  
G01 X-2.6144 Y1.3965  
G01 X-2.6145 Y1.3958  
G01 X-2.5783 Y1.3596  
G01 X-2.4410 Y1.3596  
G01 X-2.6167 Y1.5354  
G01 X-2.6458 Y1.5645  
G01 X-2.6465 Y1.5644  
G01 X-2.6535 Y1.5644  
G01 X-2.6604 Y1.5657  
G01 X-2.6669 Y1.5684  
G01 X-2.6727 Y1.5723  
G01 X-2.6777 Y1.5773  
G01 X-2.6816 Y1.5831  
G01 X-2.6843 Y1.5896  
G01 X-2.6856 Y1.5965  
G01 X-2.6856 Y1.6035  
G01 X-2.6843 Y1.6104  
G01 X-2.6816 Y1.6169  
G01 X-2.6777 Y1.6227  
G01 X-2.6727 Y1.6277  
G01 X-2.6669 Y1.6316  
G01 X-2.6604 Y1.6343  
G01 X-2.6535 Y1.6356  
G01 X-2.6465 Y1.6356  
G01 X-2.6396 Y1.6343  
G01 X-2.6331 Y1.6316  
G01 X-2.6273 Y1.6277  
G01 X-2.6223 Y1.6227  
G01 X-2.6184 Y1.6169  
G01 X-2.6157 Y1.6104  
G01 X-2.6144 Y1.6035  
G01 X-2.6144 Y1.5965  
G01 X-2.6145 Y1.5958  
G01 X-2.6031 Y1.5844  
G01 X-2.3596 Y1.8279  
G01 X-2.3596 Y2.5158  
G01 X-2.4842 Y2.6404  
G01 X-2.5029 Y2.6404  
G01 X-2.5085 Y2.6419  
G01 X-2.5136 Y2.6448  
G01 X-2.5802 Y2.7114  
G01 X-2.5831 Y2.7165  
G01 X-2.5846 Y2.7221  
G01 X-2.5846 Y2.8279  
G01 X-2.8783 Y2.8279  
G01 X-2.9239 Y2.7823  
G01 X-2.9290 Y2.7794  
G01 X-2.9346 Y2.7779  
G01 X-3.2179 Y2.7779  
G01 X-3.2179 Y2.7708  
G01 X-3.2191 Y2.7646  
G01 X-3.2215 Y2.7588  
G01 X-3.2250 Y2.7535  
G01 X-3.2295 Y2.7490  
G01 X-3.2348 Y2.7455  
G01 X-3.2406 Y2.7431  
G01 X-3.2468 Y2.7419  
G01 X-3.2532 Y2.7419  
G01 X-3.2594 Y2.7431  
G01 X-3.2652 Y2.7455  
G01 X-3.2705 Y2.7490  
G01 X-3.2750 Y2.7535  
G01 X-3.2785 Y2.7588  
G01 X-3.2809 Y2.7646  
G01 X-3.2821 Y2.7708  
G01 X-3.2821 Y2.8292  
G01 X-3.2809 Y2.8354  
G01 X-3.2785 Y2.8412  
G01 X-3.2750 Y2.8465  
G01 X-3.2705 Y2.8510  
G01 X-3.2652 Y2.8545  
G01 X-3.2594 Y2.8569  
G01 X-3.2532 Y2.8581  
G01 X-3.2468 Y2.8581  
G01 X-3.2406 Y2.8569  
G01 X-3.2348 Y2.8545  
G01 X-3.2295 Y2.8510  
G01 X-3.2250 Y2.8465  
G01 X-3.2215 Y2.8412  
G01 X-3.2191 Y2.8354  
G01 X-3.2179 Y2.8292  
G01 X-3.2179 Y2.8221  
G01 X-2.9467 Y2.8221  
G01 X-2.9052 Y2.8636  
G01 X-2.9011 Y2.8677  
G01 X-2.8960 Y2.8706  
G01 X-2.8904 Y2.8721  
G01 X-2.4217 Y2.8721  
G01 X-2.3865 Y2.9074  
G01 X-2.3824 Y2.9115  
G01 X-2.3773 Y2.9144  
G01 X-2.3717 Y2.9159  
G01 X-2.2821 Y2.9159  
G01 X-2.2821 Y2.9292  
G01 X-2.2809 Y2.9354  
G01 X-2.2785 Y2.9412  
G01 X-2.2750 Y2.9465  
G01 X-2.2705 Y2.9510  
G01 X-2.2652 Y2.9545  
G01 X-2.2594 Y2.9569  
G01 X-2.2532 Y2.9581  
G01 X-2.2468 Y2.9581  
G01 X-2.2406 Y2.9569  
G01 X-2.2348 Y2.9545  
G01 X-2.2295 Y2.9510  
G01 X-2.2250 Y2.9465  
G01 X-2.2215 Y2.9412  
G01 X-2.2191 Y2.9354  
G01 X-2.2179 Y2.9292  
G01 X-2.2179 Y2.9221  
G01 X-2.0971 Y2.9221  
G01 X-2.0915 Y2.9206  
G01 X-2.0864 Y2.9177  
G01 X-2.0823 Y2.9136  
G01 X-1.9519 Y2.7832  
G01 X-1.9467 Y2.7846  
G01 X-1.7721 Y2.7846  
G01 X-1.7665 Y2.7831  
G01 X-1.7614 Y2.7802  
G01 X-1.7573 Y2.7761  
G01 X-1.7140 Y2.7328  
G01 X-1.7104 Y2.7343  
G01 X-1.7035 Y2.7356  
G01 X-1.6965 Y2.7356  
G01 X-1.6896 Y2.7343  
G01 X-1.6831 Y2.7316  
G01 X-1.6773 Y2.7277  
G01 X-1.6723 Y2.7227  
G01 X-1.6684 Y2.7169  
G01 X-1.6657 Y2.7104  
G01 X-1.6644 Y2.7035  
G01 X-1.6644 Y2.7019  
G01 X-1.6221 Y2.6596  
G01 X-1.5842 Y2.6596  
G01 X-1.4824 Y2.7615  
G01 X-1.4773 Y2.7644  
G01 X-1.4717 Y2.7659  
G01 X-1.1296 Y2.7659  
G01 X-1.1133 Y2.7821  
G01 X-1.0867 Y2.7821  
G01 X-1.0767 Y2.7721  
G01 X-1.0592 Y2.7721  
G01 X-0.9321 Y2.8992  
G01 X-0.9321 Y2.9552  
G01 X-0.9309 Y2.9614  
G01 X-0.9285 Y2.9672  
G01 X-0.9250 Y2.9725  
G01 X-0.9205 Y2.9770  
G01 X-0.9152 Y2.9805  
G01 X-0.9094 Y2.9829  
G01 X-0.9032 Y2.9841  
G01 X-0.8968 Y2.9841  
G01 X-0.8906 Y2.9829  
G01 X-0.8848 Y2.9805  
G01 X-0.8795 Y2.9770  
G01 X-0.8750 Y2.9725  
G01 X-0.8715 Y2.9672  
G01 X-0.8691 Y2.9614  
G01 X-0.8679 Y2.9552  
G01 X-0.8679 Y2.8968  
G01 X-0.8691 Y2.8906  
G01 X-0.8715 Y2.8848  
G01 X-0.8750 Y2.8795  
G01 X-0.8795 Y2.8750  
G01 X-0.8848 Y2.8715  
G01 X-0.8906 Y2.8691  
G01 X-0.8968 Y2.8679  
G01 X-0.9008 Y2.8679  
G01 X-1.0364 Y2.7323  
G01 X-1.0415 Y2.7294  
G01 X-1.0471 Y2.7279  
G01 X-1.0767 Y2.7279  
G01 X-1.0867 Y2.7179  
G01 X-1.1133 Y2.7179  
G01 X-1.1171 Y2.7216  
G01 X-1.4596 Y2.7216  
G01 X-1.5573 Y2.6239  
G01 X-1.5614 Y2.6198  
G01 X-1.5665 Y2.6169  
G01 X-1.5721 Y2.6154  
G01 X-1.6342 Y2.6154  
G01 X-1.6398 Y2.6169  
G01 X-1.6449 Y2.6198  
G01 X-1.6906 Y2.6655  
G01 X-1.6965 Y2.6644  
G01 X-1.7035 Y2.6644  
G01 X-1.7104 Y2.6657  
G01 X-1.7169 Y2.6684  
G01 X-1.7227 Y2.6723  
G01 X-1.7277 Y2.6773  
G01 X-1.7316 Y2.6831  
G01 X-1.7343 Y2.6896  
G01 X-1.7345 Y2.6907  
G01 X-1.7842 Y2.7404  
G01 X-1.9090 Y2.7404  
G01 X-1.9042 Y2.7355  
G01 X-1.9035 Y2.7356  
G01 X-1.8965 Y2.7356  
G01 X-1.8896 Y2.7343  
G01 X-1.8831 Y2.7316  
G01 X-1.8773 Y2.7277  
G01 X-1.8723 Y2.7227  
G01 X-1.8684 Y2.7169  
G01 X-1.8657 Y2.7104  
G01 X-1.8644 Y2.7035  
G01 X-1.8644 Y2.6965  
G01 X-1.8657 Y2.6896  
G01 X-1.8684 Y2.6831  
G01 X-1.8723 Y2.6773  
G01 X-1.8773 Y2.6723  
G01 X-1.8831 Y2.6684  
G01 X-1.8896 Y2.6657  
G01 X-1.8965 Y2.6644  
G01 X-1.9035 Y2.6644  
G01 X-1.9104 Y2.6657  
G01 X-1.9169 Y2.6684  
G01 X-1.9227 Y2.6723  
G01 X-1.9277 Y2.6773  
G01 X-1.9316 Y2.6831  
G01 X-1.9343 Y2.6896  
G01 X-1.9356 Y2.6965  
G01 X-1.9356 Y2.7035  
G01 X-1.9355 Y2.7042  
G01 X-1.9667 Y2.7354  
G01 X-1.9708 Y2.7395  
G01 X-2.1092 Y2.8779  
G01 X-2.2179 Y2.8779  
G01 X-2.2179 Y2.8708  
G01 X-2.2191 Y2.8646  
G01 X-2.2215 Y2.8588  
G01 X-2.2250 Y2.8535  
G01 X-2.2295 Y2.8490  
G01 X-2.2348 Y2.8455  
G01 X-2.2406 Y2.8431  
G01 X-2.2468 Y2.8419  
G01 X-2.2532 Y2.8419  
G01 X-2.2594 Y2.8431  
G01 X-2.2652 Y2.8455  
G01 X-2.2705 Y2.8490  
G01 X-2.2750 Y2.8535  
G01 X-2.2785 Y2.8588  
G01 X-2.2809 Y2.8646  
G01 X-2.2821 Y2.8708  
G01 X-2.2821 Y2.8716  
G01 X-2.3596 Y2.8716  
G01 X-2.3989 Y2.8323  
G01 X-2.4040 Y2.8294  
G01 X-2.4096 Y2.8279  
G01 X-2.5404 Y2.8279  
G01 X-2.5404 Y2.7342  
G01 X-2.4908 Y2.6846  
G01 X-2.4721 Y2.6846  
G01 X-2.4665 Y2.6831  
G01 X-2.4614 Y2.6802  
G01 X-2.3239 Y2.5427  
G01 X-2.3198 Y2.5386  
G01 X-2.3169 Y2.5335  
G01 X-2.3154 Y2.5279  
G01 X-2.3154 Y1.8158  
G01 X-2.3169 Y1.8102  
G01 X-2.3198 Y1.8051  
G01 X-2.5718 Y1.5531  
G01 X-2.3864 Y1.3677  
G01 X-2.3823 Y1.3636  
G01 X-2.3800 Y1.3596  
G01 X-2.3342 Y1.3596  
G01 X-2.1761 Y1.5177  
G01 X-2.1710 Y1.5206  
G01 X-2.1654 Y1.5221  
G01 X-1.8233 Y1.5221  
G01 X-1.8133 Y1.5321  
G01 X-1.7867 Y1.5321  
G01 X-1.7679 Y1.5133  
G01 X-1.7679 Y1.4867  
G01 X-1.7867 Y1.4679  
G01 X-1.8133 Y1.4679  
G01 X-1.8233 Y1.4779  
G01 X-1.8904 Y1.4779  
G01 X-1.8904 Y1.1842  
G01 X-1.8658 Y1.1596  
G01 X-1.2284 Y1.1596  
G01 X-1.2284 Y1.1908  
G01 X-1.4615 Y1.4239  
G01 X-1.4644 Y1.4290  
G01 X-1.4659 Y1.4346  
G01 X-1.4659 Y1.4704  
G01 X-1.4821 Y1.4867  
G01 X-1.4821 Y1.5133  
G01 X-1.4721 Y1.5233  
G01 X-1.4721 Y1.6283  
G01 X-1.4880 Y1.6442  
G01 X-1.4906 Y1.6431  
G01 X-1.4968 Y1.6419  
G01 X-1.5032 Y1.6419  
G01 X-1.5094 Y1.6431  
G01 X-1.5152 Y1.6455  
G01 X-1.5205 Y1.6490  
G01 X-1.5250 Y1.6535  
G01 X-1.5285 Y1.6588  
G01 X-1.5309 Y1.6646  
G01 X-1.5321 Y1.6708  
G01 X-1.5321 Y1.7292  
G01 X-1.5309 Y1.7354  
G01 X-1.5285 Y1.7412  
G01 X-1.5250 Y1.7465  
G01 X-1.5205 Y1.7510  
G01 X-1.5152 Y1.7545  
G01 X-1.5094 Y1.7569  
G01 X-1.5032 Y1.7581  
G01 X-1.4968 Y1.7581  
G01 X-1.4906 Y1.7569  
G01 X-1.4880 Y1.7558  
G01 X-1.4221 Y1.8217  
G01 X-1.4221 Y1.9507  
G01 X-1.4250 Y1.9535  
G01 X-1.4285 Y1.9588  
G01 X-1.4309 Y1.9646  
G01 X-1.4321 Y1.9708  
G01 X-1.4321 Y2.0292  
G01 X-1.4309 Y2.0354  
G01 X-1.4285 Y2.0412  
G01 X-1.4250 Y2.0465  
G01 X-1.4205 Y2.0510  
G01 X-1.4152 Y2.0545  
G01 X-1.4094 Y2.0569  
G01 X-1.4032 Y2.0581  
G01 X-1.3968 Y2.0581  
G01 X-1.3906 Y2.0569  
G01 X-1.3848 Y2.0545  
G01 X-1.3795 Y2.0510  
G01 X-1.3750 Y2.0465  
G01 X-1.3715 Y2.0412  
G01 X-1.3691 Y2.0354  
G01 X-1.3679 Y2.0292  
G01 X-1.3679 Y1.9708  
G01 X-1.3691 Y1.9646  
G01 X-1.3715 Y1.9588  
G01 X-1.3750 Y1.9535  
G01 X-1.3779 Y1.9507  
G01 X-1.3779 Y1.8096  
G01 X-1.3794 Y1.8040  
G01 X-1.3823 Y1.7989  
G01 X-1.4679 Y1.7133  
G01 X-1.4679 Y1.6867  
G01 X-1.4323 Y1.6511  
G01 X-1.4294 Y1.6460  
G01 X-1.4279 Y1.6404  
G01 X-1.4279 Y1.5233  
G01 X-1.4179 Y1.5133  
G01 X-1.4179 Y1.4867  
G01 X-1.4216 Y1.4829  
G01 X-1.4216 Y1.4467  
G01 X-1.1926 Y1.2177  
G01 X-1.1885 Y1.2136  
G01 X-1.1856 Y1.2085  
G01 X-1.1841 Y1.2029  
G01 X-1.1841 Y0.9561  
G01 X-1.1767 Y0.9561  
G01 X-1.1439 Y0.9233  
G01 X-1.1439 Y0.8814  
G01 X-1.0408 Y0.7784  
G01 X-0.6826 Y0.7784  
G01 X-0.6679 Y0.7931  
G01 X-0.6321 Y0.7931  
G01 X-0.6111 Y0.7721  
G01 X-0.5889 Y0.7721  
G01 X-0.5679 Y0.7931  
G01 X-0.5321 Y0.7931  
G01 X-0.5069 Y0.7679  
G01 X-0.5069 Y0.7321  
G01 X-0.5279 Y0.7111  
G01 X-0.5279 Y0.6889  
G01 X-0.5069 Y0.6679  
G01 X-0.5069 Y0.6321  
G01 X-0.5279 Y0.6111  
G01 X-0.5279 Y0.5889  
G01 X-0.5069 Y0.5679  
G01 X-0.5069 Y0.5321  
G00 Z0.1000  
G00 X-0.5069 Y0.9321  
G01 Z-0.0021 F10    
G01 X-0.5321 Y0.9069  F20    
G01 X-0.5679 Y0.9069  
G01 X-0.5889 Y0.9279  
G01 X-0.6111 Y0.9279  
G01 X-0.6321 Y0.9069  
G01 X-0.6679 Y0.9069  
G01 X-0.6889 Y0.9279  
G01 X-0.8217 Y0.9279  
G01 X-0.8273 Y0.9294  
G01 X-0.8324 Y0.9323  
G01 X-0.8365 Y0.9364  
G01 X-1.3490 Y1.4489  
G01 X-1.3519 Y1.4540  
G01 X-1.3534 Y1.4596  
G01 X-1.4177 Y1.5239  
G01 X-1.4206 Y1.5290  
G01 X-1.4221 Y1.5346  
G01 X-1.4221 Y1.6507  
G01 X-1.4250 Y1.6535  
G01 X-1.4285 Y1.6588  
G01 X-1.4309 Y1.6646  
G01 X-1.4321 Y1.6708  
G01 X-1.4321 Y1.7292  
G01 X-1.4309 Y1.7354  
G01 X-1.4285 Y1.7412  
G01 X-1.4250 Y1.7465  
G01 X-1.4205 Y1.7510  
G01 X-1.4152 Y1.7545  
G01 X-1.4094 Y1.7569  
G01 X-1.4032 Y1.7581  
G01 X-1.3968 Y1.7581  
G01 X-1.3906 Y1.7569  
G01 X-1.3848 Y1.7545  
G01 X-1.3838 Y1.7538  
G01 X-1.3784 Y1.7592  
G01 X-1.3769 Y1.7648  
G01 X-1.3740 Y1.7699  
G01 X-1.2177 Y1.9261  
G01 X-1.2136 Y1.9302  
G01 X-1.2085 Y1.9331  
G01 X-1.2029 Y1.9346  
G01 X-0.7842 Y1.9346  
G01 X-0.7596 Y1.9592  
G01 X-0.7596 Y2.0408  
G01 X-0.9342 Y2.2154  
G01 X-1.0029 Y2.2154  
G01 X-1.0085 Y2.2169  
G01 X-1.0136 Y2.2198  
G01 X-1.2594 Y2.4656  
G01 X-1.3426 Y2.3823  
G01 X-1.3477 Y2.3794  
G01 X-1.3533 Y2.3779  
G01 X-1.5644 Y2.3779  
G01 X-1.5644 Y2.3693  
G01 X-1.5653 Y2.3670  
G01 X-1.5670 Y2.3653  
G01 X-1.5693 Y2.3644  
G01 X-1.6307 Y2.3644  
G01 X-1.6330 Y2.3653  
G01 X-1.6347 Y2.3670  
G01 X-1.6356 Y2.3693  
G01 X-1.6356 Y2.3981  
G01 X-1.7279 Y2.4904  
G01 X-1.9346 Y2.4904  
G01 X-2.0051 Y2.4198  
G01 X-2.0102 Y2.4169  
G01 X-2.0158 Y2.4154  
G01 X-2.2279 Y2.4154  
G01 X-2.2279 Y1.7971  
G01 X-2.2294 Y1.7915  
G01 X-2.2323 Y1.7864  
G01 X-2.3144 Y1.7043  
G01 X-2.3144 Y1.6693  
G01 X-2.3153 Y1.6670  
G01 X-2.3170 Y1.6653  
G01 X-2.3193 Y1.6644  
G01 X-2.3807 Y1.6644  
G01 X-2.3830 Y1.6653  
G01 X-2.3847 Y1.6670  
G01 X-2.3856 Y1.6693  
G01 X-2.3856 Y1.7307  
G01 X-2.3847 Y1.7330  
G01 X-2.3830 Y1.7347  
G01 X-2.3807 Y1.7356  
G01 X-2.3457 Y1.7356  
G01 X-2.2721 Y1.8092  
G01 X-2.2721 Y2.6507  
G01 X-2.2750 Y2.6535  
G01 X-2.2785 Y2.6588  
G01 X-2.2809 Y2.6646  
G01 X-2.2821 Y2.6708  
G01 X-2.2821 Y2.7292  
G01 X-2.2809 Y2.7354  
G01 X-2.2785 Y2.7412  
G01 X-2.2750 Y2.7465  
G01 X-2.2705 Y2.7510  
G01 X-2.2652 Y2.7545  
G01 X-2.2594 Y2.7569  
G01 X-2.2532 Y2.7581  
G01 X-2.2468 Y2.7581  
G01 X-2.2406 Y2.7569  
G01 X-2.2348 Y2.7545  
G01 X-2.2295 Y2.7510  
G01 X-2.2250 Y2.7465  
G01 X-2.2215 Y2.7412  
G01 X-2.2191 Y2.7354  
G01 X-2.2179 Y2.7292  
G01 X-2.2179 Y2.6708  
G01 X-2.2191 Y2.6646  
G01 X-2.2215 Y2.6588  
G01 X-2.2250 Y2.6535  
G01 X-2.2279 Y2.6507  
G01 X-2.2279 Y2.4596  
G01 X-2.0279 Y2.4596  
G01 X-1.9615 Y2.5261  
G01 X-1.9574 Y2.5302  
G01 X-1.9523 Y2.5331  
G01 X-1.9467 Y2.5346  
G01 X-1.7158 Y2.5346  
G01 X-1.7102 Y2.5331  
G01 X-1.7051 Y2.5302  
G01 X-1.6106 Y2.4356  
G01 X-1.5693 Y2.4356  
G01 X-1.5670 Y2.4347  
G01 X-1.5653 Y2.4330  
G01 X-1.5644 Y2.4307  
G01 X-1.5644 Y2.4221  
G01 X-1.3654 Y2.4221  
G01 X-1.2771 Y2.5105  
G01 X-1.2730 Y2.5146  
G01 X-1.1321 Y2.6554  
G01 X-1.1321 Y2.6633  
G01 X-1.1133 Y2.6821  
G01 X-1.1042 Y2.6821  
G01 X-1.1035 Y2.6826  
G01 X-1.1029 Y2.6828  
G01 X-1.1023 Y2.6831  
G01 X-1.1001 Y2.6837  
G01 X-1.0980 Y2.6844  
G01 X-1.0973 Y2.6845  
G01 X-1.0967 Y2.6846  
G01 X-1.0944 Y2.6846  
G01 X-1.0922 Y2.6848  
G01 X-1.0915 Y2.6846  
G01 X-0.8529 Y2.6846  
G01 X-0.6321 Y2.9054  
G01 X-0.6321 Y2.9552  
G01 X-0.6309 Y2.9614  
G01 X-0.6285 Y2.9672  
G01 X-0.6250 Y2.9725  
G01 X-0.6205 Y2.9770  
G01 X-0.6152 Y2.9805  
G01 X-0.6094 Y2.9829  
G01 X-0.6032 Y2.9841  
G01 X-0.5968 Y2.9841  
G01 X-0.5906 Y2.9829  
G01 X-0.5848 Y2.9805  
G01 X-0.5795 Y2.9770  
G01 X-0.5750 Y2.9725  
G01 X-0.5715 Y2.9672  
G01 X-0.5691 Y2.9614  
G01 X-0.5679 Y2.9552  
G01 X-0.5679 Y2.9221  
G01 X-0.4592 Y2.9221  
G01 X-0.4321 Y2.9492  
G01 X-0.4321 Y2.9633  
G01 X-0.4133 Y2.9821  
G01 X-0.3867 Y2.9821  
G01 X-0.3679 Y2.9633  
G01 X-0.3679 Y2.9367  
G01 X-0.3867 Y2.9179  
G01 X-0.4008 Y2.9179  
G01 X-0.4364 Y2.8823  
G01 X-0.4415 Y2.8794  
G01 X-0.4471 Y2.8779  
G01 X-0.5767 Y2.8779  
G01 X-0.5795 Y2.8750  
G01 X-0.5848 Y2.8715  
G01 X-0.5906 Y2.8691  
G01 X-0.5968 Y2.8679  
G01 X-0.6032 Y2.8679  
G01 X-0.6064 Y2.8685  
G01 X-0.8260 Y2.6489  
G01 X-0.8301 Y2.6448  
G01 X-0.8352 Y2.6419  
G01 X-0.8408 Y2.6404  
G01 X-1.0590 Y2.6404  
G01 X-0.4508 Y2.0321  
G01 X-0.4367 Y2.0321  
G01 X-0.4179 Y2.0133  
G01 X-0.4179 Y1.9867  
G01 X-0.4367 Y1.9679  
G01 X-0.4633 Y1.9679  
G01 X-0.4821 Y1.9867  
G01 X-0.4821 Y2.0008  
G01 X-1.0992 Y2.6179  
G01 X-1.1071 Y2.6179  
G01 X-1.2281 Y2.4969  
G01 X-0.9908 Y2.2596  
G01 X-0.9221 Y2.2596  
G01 X-0.9165 Y2.2581  
G01 X-0.9114 Y2.2552  
G01 X-0.9073 Y2.2511  
G01 X-0.7198 Y2.0636  
G01 X-0.7169 Y2.0585  
G01 X-0.7154 Y2.0529  
G01 X-0.7154 Y1.9471  
G01 X-0.7169 Y1.9415  
G01 X-0.7198 Y1.9364  
G01 X-0.7239 Y1.9323  
G01 X-0.7614 Y1.8948  
G01 X-0.7665 Y1.8919  
G01 X-0.7721 Y1.8904  
G01 X-1.1908 Y1.8904  
G01 X-1.3341 Y1.7471  
G01 X-1.3356 Y1.7415  
G01 X-1.3385 Y1.7364  
G01 X-1.3426 Y1.7323  
G01 X-1.3679 Y1.7071  
G01 X-1.3679 Y1.6708  
G01 X-1.3691 Y1.6646  
G01 X-1.3715 Y1.6588  
G01 X-1.3750 Y1.6535  
G01 X-1.3779 Y1.6507  
G01 X-1.3779 Y1.5467  
G01 X-1.3135 Y1.4824  
G01 X-1.3106 Y1.4773  
G01 X-1.3091 Y1.4717  
G01 X-0.8096 Y0.9721  
G01 X-0.6889 Y0.9721  
G01 X-0.6679 Y0.9931  
G01 X-0.6321 Y0.9931  
G01 X-0.6111 Y0.9721  
G01 X-0.5889 Y0.9721  
G01 X-0.5679 Y0.9931  
G01 X-0.5321 Y0.9931  
G01 X-0.5069 Y0.9679  
G01 X-0.5069 Y0.9321  
G00 Z0.1000  
G00 X-0.5069 Y1.0321  
G01 Z-0.0021 F10    
G01 X-0.5321 Y1.0069  F20    
G01 X-0.5679 Y1.0069  
G01 X-0.5931 Y1.0321  
G01 X-0.5931 Y1.0679  
G01 X-0.5679 Y1.0931  
G01 X-0.5321 Y1.0931  
G01 X-0.5069 Y1.0679  
G01 X-0.5069 Y1.0321  
G00 Z0.1000  
G00 X-0.5069 Y1.1321  
G01 Z-0.0021 F10    
G01 X-0.5321 Y1.1069  F20    
G01 X-0.5679 Y1.1069  
G01 X-0.5931 Y1.1321  
G01 X-0.5931 Y1.1679  
G01 X-0.5679 Y1.1931  
G01 X-0.5321 Y1.1931  
G01 X-0.5069 Y1.1679  
G01 X-0.5069 Y1.1321  
G00 Z0.1000  
G00 X-0.6069 Y1.1321  
G01 Z-0.0021 F10    
G01 X-0.6321 Y1.1069  F20    
G01 X-0.6679 Y1.1069  
G01 X-0.6931 Y1.1321  
G01 X-0.6931 Y1.1679  
G01 X-0.6679 Y1.1931  
G01 X-0.6321 Y1.1931  
G01 X-0.6069 Y1.1679  
G01 X-0.6069 Y1.1321  
G00 Z0.1000  
G00 X-0.6321 Y1.0931  
G01 Z-0.0021 F10    
G01 X-0.6069 Y1.0679  F20    
G01 X-0.6069 Y1.0321  
G01 X-0.6321 Y1.0069  
G01 X-0.6679 Y1.0069  
G01 X-0.6931 Y1.0321  
G01 X-0.6931 Y1.0679  
G01 X-0.6679 Y1.0931  
G01 X-0.6321 Y1.0931  
G00 Z0.1000  
G00 X-0.7439 Y1.4767  
G01 Z-0.0021 F10    
G01 X-0.7767 Y1.4439  F20    
G01 X-0.8233 Y1.4439  
G01 X-0.8561 Y1.4767  
G01 X-0.8561 Y1.5123  
G01 X-0.9880 Y1.6442  
G01 X-0.9906 Y1.6431  
G01 X-0.9968 Y1.6419  
G01 X-1.0032 Y1.6419  
G01 X-1.0094 Y1.6431  
G01 X-1.0152 Y1.6455  
G01 X-1.0205 Y1.6490  
G01 X-1.0250 Y1.6535  
G01 X-1.0285 Y1.6588  
G01 X-1.0309 Y1.6646  
G01 X-1.0321 Y1.6708  
G01 X-1.0321 Y1.7292  
G01 X-1.0309 Y1.7354  
G01 X-1.0285 Y1.7412  
G01 X-1.0250 Y1.7465  
G01 X-1.0205 Y1.7510  
G01 X-1.0152 Y1.7545  
G01 X-1.0094 Y1.7569  
G01 X-1.0032 Y1.7581  
G01 X-0.9968 Y1.7581  
G01 X-0.9906 Y1.7569  
G01 X-0.9848 Y1.7545  
G01 X-0.9795 Y1.7510  
G01 X-0.9750 Y1.7465  
G01 X-0.9715 Y1.7412  
G01 X-0.9691 Y1.7354  
G01 X-0.9679 Y1.7292  
G01 X-0.9679 Y1.6867  
G01 X-0.8303 Y1.5491  
G01 X-0.8233 Y1.5561  
G01 X-0.7767 Y1.5561  
G01 X-0.7439 Y1.5233  
G01 X-0.7439 Y1.4767  
G00 Z0.1000  
G00 X-0.8939 Y1.4767  
G01 Z-0.0021 F10    
G01 X-0.9267 Y1.4439  F20    
G01 X-0.9733 Y1.4439  
G01 X-1.0061 Y1.4767  
G01 X-1.0061 Y1.5233  
G01 X-1.0054 Y1.5240  
G01 X-1.1177 Y1.6364  
G01 X-1.1206 Y1.6415  
G01 X-1.1221 Y1.6471  
G01 X-1.1221 Y1.6507  
G01 X-1.1250 Y1.6535  
G01 X-1.1285 Y1.6588  
G01 X-1.1309 Y1.6646  
G01 X-1.1321 Y1.6708  
G01 X-1.1321 Y1.7292  
G01 X-1.1309 Y1.7354  
G01 X-1.1285 Y1.7412  
G01 X-1.1250 Y1.7465  
G01 X-1.1205 Y1.7510  
G01 X-1.1152 Y1.7545  
G01 X-1.1094 Y1.7569  
G01 X-1.1032 Y1.7581  
G01 X-1.0968 Y1.7581  
G01 X-1.0906 Y1.7569  
G01 X-1.0848 Y1.7545  
G01 X-1.0795 Y1.7510  
G01 X-1.0750 Y1.7465  
G01 X-1.0715 Y1.7412  
G01 X-1.0691 Y1.7354  
G01 X-1.0679 Y1.7292  
G01 X-1.0679 Y1.6708  
G01 X-1.0691 Y1.6646  
G01 X-1.0715 Y1.6588  
G01 X-1.0739 Y1.6552  
G01 X-0.9740 Y1.5554  
G01 X-0.9733 Y1.5561  
G01 X-0.9267 Y1.5561  
G01 X-0.8939 Y1.5233  
G01 X-0.8939 Y1.4767  
G00 Z0.1000  
G00 X-1.0439 Y1.4767  
G01 Z-0.0021 F10    
G01 X-1.0767 Y1.4439  F20    
G01 X-1.1233 Y1.4439  
G01 X-1.1561 Y1.4767  
G01 X-1.1561 Y1.5233  
G01 X-1.1554 Y1.5240  
G01 X-1.2177 Y1.5864  
G01 X-1.2206 Y1.5915  
G01 X-1.2221 Y1.5971  
G01 X-1.2221 Y1.6507  
G01 X-1.2250 Y1.6535  
G01 X-1.2285 Y1.6588  
G01 X-1.2309 Y1.6646  
G01 X-1.2321 Y1.6708  
G01 X-1.2321 Y1.7292  
G01 X-1.2309 Y1.7354  
G01 X-1.2285 Y1.7412  
G01 X-1.2250 Y1.7465  
G01 X-1.2205 Y1.7510  
G01 X-1.2152 Y1.7545  
G01 X-1.2094 Y1.7569  
G01 X-1.2032 Y1.7581  
G01 X-1.1968 Y1.7581  
G01 X-1.1906 Y1.7569  
G01 X-1.1848 Y1.7545  
G01 X-1.1795 Y1.7510  
G01 X-1.1750 Y1.7465  
G01 X-1.1715 Y1.7412  
G01 X-1.1691 Y1.7354  
G01 X-1.1679 Y1.7292  
G01 X-1.1679 Y1.6708  
G01 X-1.1691 Y1.6646  
G01 X-1.1715 Y1.6588  
G01 X-1.1750 Y1.6535  
G01 X-1.1779 Y1.6507  
G01 X-1.1779 Y1.6092  
G01 X-1.1240 Y1.5554  
G01 X-1.1233 Y1.5561  
G01 X-1.0767 Y1.5561  
G01 X-1.0439 Y1.5233  
G01 X-1.0439 Y1.4767  
G00 Z0.1000  
G00 X-1.1939 Y1.4767  
G01 Z-0.0021 F10    
G01 X-1.2267 Y1.4439  F20    
G01 X-1.2733 Y1.4439  
G01 X-1.3061 Y1.4767  
G01 X-1.3061 Y1.5233  
G01 X-1.3054 Y1.5240  
G01 X-1.3177 Y1.5364  
G01 X-1.3206 Y1.5415  
G01 X-1.3221 Y1.5471  
G01 X-1.3221 Y1.6507  
G01 X-1.3250 Y1.6535  
G01 X-1.3285 Y1.6588  
G01 X-1.3309 Y1.6646  
G01 X-1.3321 Y1.6708  
G01 X-1.3321 Y1.7292  
G01 X-1.3309 Y1.7354  
G01 X-1.3285 Y1.7412  
G01 X-1.3250 Y1.7465  
G01 X-1.3205 Y1.7510  
G01 X-1.3152 Y1.7545  
G01 X-1.3094 Y1.7569  
G01 X-1.3032 Y1.7581  
G01 X-1.2968 Y1.7581  
G01 X-1.2906 Y1.7569  
G01 X-1.2848 Y1.7545  
G01 X-1.2795 Y1.7510  
G01 X-1.2750 Y1.7465  
G01 X-1.2715 Y1.7412  
G01 X-1.2691 Y1.7354  
G01 X-1.2679 Y1.7292  
G01 X-1.2679 Y1.6708  
G01 X-1.2691 Y1.6646  
G01 X-1.2715 Y1.6588  
G01 X-1.2750 Y1.6535  
G01 X-1.2779 Y1.6507  
G01 X-1.2779 Y1.5592  
G01 X-1.2740 Y1.5554  
G01 X-1.2733 Y1.5561  
G01 X-1.2267 Y1.5561  
G01 X-1.1939 Y1.5233  
G01 X-1.1939 Y1.4767  
G00 Z0.1000  
G00 X-1.3385 Y1.2949  
G01 Z-0.0021 F10    
G01 X-1.3356 Y1.2898  F20    
G01 X-1.3341 Y1.2842  
G01 X-1.3341 Y1.2295  
G01 X-1.3320 Y1.2281  
G01 X-1.3269 Y1.2230  
G01 X-1.3230 Y1.2171  
G01 X-1.3202 Y1.2105  
G01 X-1.3189 Y1.2036  
G01 X-1.3189 Y1.1964  
G01 X-1.3202 Y1.1895  
G01 X-1.3230 Y1.1829  
G01 X-1.3269 Y1.1770  
G01 X-1.3320 Y1.1719  
G01 X-1.3379 Y1.1680  
G01 X-1.3445 Y1.1652  
G01 X-1.3514 Y1.1639  
G01 X-1.3586 Y1.1639  
G01 X-1.3655 Y1.1652  
G01 X-1.3721 Y1.1680  
G01 X-1.3780 Y1.1719  
G01 X-1.3831 Y1.1770  
G01 X-1.3870 Y1.1829  
G01 X-1.3898 Y1.1895  
G01 X-1.3911 Y1.1964  
G01 X-1.3911 Y1.2036  
G01 X-1.3898 Y1.2105  
G01 X-1.3870 Y1.2171  
G01 X-1.3831 Y1.2230  
G01 X-1.3784 Y1.2277  
G01 X-1.3784 Y1.2721  
G01 X-1.5615 Y1.4551  
G01 X-1.5644 Y1.4602  
G01 X-1.5659 Y1.4658  
G01 X-1.5659 Y1.4704  
G01 X-1.5821 Y1.4867  
G01 X-1.5821 Y1.5133  
G01 X-1.5721 Y1.5233  
G01 X-1.5721 Y1.6283  
G01 X-1.5880 Y1.6442  
G01 X-1.5906 Y1.6431  
G01 X-1.5968 Y1.6419  
G01 X-1.6032 Y1.6419  
G01 X-1.6094 Y1.6431  
G01 X-1.6152 Y1.6455  
G01 X-1.6205 Y1.6490  
G01 X-1.6250 Y1.6535  
G01 X-1.6285 Y1.6588  
G01 X-1.6309 Y1.6646  
G01 X-1.6321 Y1.6708  
G01 X-1.6321 Y1.7292  
G01 X-1.6309 Y1.7354  
G01 X-1.6285 Y1.7412  
G01 X-1.6250 Y1.7465  
G01 X-1.6205 Y1.7510  
G01 X-1.6152 Y1.7545  
G01 X-1.6094 Y1.7569  
G01 X-1.6032 Y1.7581  
G01 X-1.5968 Y1.7581  
G01 X-1.5906 Y1.7569  
G01 X-1.5848 Y1.7545  
G01 X-1.5795 Y1.7510  
G01 X-1.5750 Y1.7465  
G01 X-1.5715 Y1.7412  
G01 X-1.5691 Y1.7354  
G01 X-1.5679 Y1.7292  
G01 X-1.5679 Y1.6867  
G01 X-1.5323 Y1.6511  
G01 X-1.5294 Y1.6460  
G01 X-1.5279 Y1.6404  
G01 X-1.5279 Y1.5233  
G01 X-1.5179 Y1.5133  
G01 X-1.5179 Y1.4867  
G01 X-1.5216 Y1.4829  
G01 X-1.5216 Y1.4779  
G01 X-1.3385 Y1.2949  
G00 Z0.1000  
G00 X-1.4267 Y0.9561  
G01 Z-0.0021 F10    
G01 X-1.3939 Y0.9233  F20    
G01 X-1.3939 Y0.8767  
G01 X-1.4267 Y0.8439  
G01 X-1.4733 Y0.8439  
G01 X-1.4740 Y0.8446  
G01 X-1.4864 Y0.8323  
G01 X-1.4915 Y0.8294  
G01 X-1.4971 Y0.8279  
G01 X-1.5267 Y0.8279  
G01 X-1.5367 Y0.8179  
G01 X-1.5633 Y0.8179  
G01 X-1.5821 Y0.8367  
G01 X-1.5821 Y0.8446  
G01 X-1.7154 Y0.9779  
G01 X-2.2007 Y0.9779  
G01 X-2.2035 Y0.9750  
G01 X-2.2088 Y0.9715  
G01 X-2.2146 Y0.9691  
G01 X-2.2208 Y0.9679  
G01 X-2.2792 Y0.9679  
G01 X-2.2854 Y0.9691  
G01 X-2.2912 Y0.9715  
G01 X-2.2965 Y0.9750  
G01 X-2.3010 Y0.9795  
G01 X-2.3045 Y0.9848  
G01 X-2.3069 Y0.9906  
G01 X-2.3081 Y0.9968  
G01 X-2.3081 Y1.0032  
G01 X-2.3069 Y1.0094  
G01 X-2.3045 Y1.0152  
G01 X-2.3010 Y1.0205  
G01 X-2.2965 Y1.0250  
G01 X-2.2912 Y1.0285  
G01 X-2.2854 Y1.0309  
G01 X-2.2792 Y1.0321  
G01 X-2.2208 Y1.0321  
G01 X-2.2146 Y1.0309  
G01 X-2.2088 Y1.0285  
G01 X-2.2035 Y1.0250  
G01 X-2.2007 Y1.0221  
G01 X-1.7033 Y1.0221  
G01 X-1.6977 Y1.0206  
G01 X-1.6926 Y1.0177  
G01 X-1.5571 Y0.8821  
G01 X-1.5367 Y0.8821  
G01 X-1.5267 Y0.8721  
G01 X-1.5092 Y0.8721  
G01 X-1.5054 Y0.8760  
G01 X-1.5061 Y0.8767  
G01 X-1.5061 Y0.9233  
G01 X-1.4733 Y0.9561  
G01 X-1.4267 Y0.9561  
G00 Z0.1000  
G00 X-1.8114 Y0.9302  
G01 Z-0.0021 F10    
G01 X-1.7489 Y0.8677  F20    
G01 X-1.7448 Y0.8636  
G01 X-1.7419 Y0.8585  
G01 X-1.7404 Y0.8529  
G01 X-1.7404 Y0.6779  
G01 X-1.5446 Y0.4821  
G01 X-1.5367 Y0.4821  
G01 X-1.5267 Y0.4721  
G01 X-1.3733 Y0.4721  
G01 X-1.3633 Y0.4821  
G01 X-1.3367 Y0.4821  
G01 X-1.3179 Y0.4633  
G01 X-1.3179 Y0.4367  
G01 X-1.3367 Y0.4179  
G01 X-1.3633 Y0.4179  
G01 X-1.3733 Y0.4279  
G01 X-1.5267 Y0.4279  
G01 X-1.5367 Y0.4179  
G01 X-1.5633 Y0.4179  
G01 X-1.5821 Y0.4367  
G01 X-1.5821 Y0.4571  
G01 X-1.7802 Y0.6551  
G01 X-1.7831 Y0.6602  
G01 X-1.7846 Y0.6658  
G01 X-1.7846 Y0.8408  
G01 X-1.8342 Y0.8904  
G01 X-1.8658 Y0.8904  
G01 X-1.8739 Y0.8823  
G01 X-1.8790 Y0.8794  
G01 X-1.8846 Y0.8779  
G01 X-2.2007 Y0.8779  
G01 X-2.2035 Y0.8750  
G01 X-2.2088 Y0.8715  
G01 X-2.2146 Y0.8691  
G01 X-2.2208 Y0.8679  
G01 X-2.2792 Y0.8679  
G01 X-2.2854 Y0.8691  
G01 X-2.2912 Y0.8715  
G01 X-2.2965 Y0.8750  
G01 X-2.3010 Y0.8795  
G01 X-2.3045 Y0.8848  
G01 X-2.3069 Y0.8906  
G01 X-2.3081 Y0.8968  
G01 X-2.3081 Y0.9032  
G01 X-2.3069 Y0.9094  
G01 X-2.3045 Y0.9152  
G01 X-2.3010 Y0.9205  
G01 X-2.2965 Y0.9250  
G01 X-2.2912 Y0.9285  
G01 X-2.2854 Y0.9309  
G01 X-2.2792 Y0.9321  
G01 X-2.2208 Y0.9321  
G01 X-2.2146 Y0.9309  
G01 X-2.2088 Y0.9285  
G01 X-2.2035 Y0.9250  
G01 X-2.2007 Y0.9221  
G01 X-1.8967 Y0.9221  
G01 X-1.8927 Y0.9261  
G01 X-1.8886 Y0.9302  
G01 X-1.8835 Y0.9331  
G01 X-1.8779 Y0.9346  
G01 X-1.8221 Y0.9346  
G01 X-1.8165 Y0.9331  
G01 X-1.8114 Y0.9302  
G00 Z0.1000  
G00 X-1.8367 Y0.8821  
G01 Z-0.0021 F10    
G01 X-1.8179 Y0.8633  F20    
G01 X-1.8179 Y0.8367  
G01 X-1.8279 Y0.8267  
G01 X-1.8279 Y0.6967  
G01 X-1.8083 Y0.6771  
G01 X-1.8042 Y0.6730  
G01 X-1.6823 Y0.5511  
G01 X-1.6794 Y0.5460  
G01 X-1.6779 Y0.5404  
G01 X-1.6779 Y0.4733  
G01 X-1.6679 Y0.4633  
G01 X-1.6679 Y0.4367  
G01 X-1.6867 Y0.4179  
G01 X-1.7133 Y0.4179  
G01 X-1.7321 Y0.4367  
G01 X-1.7321 Y0.4633  
G01 X-1.7221 Y0.4733  
G01 X-1.7221 Y0.5283  
G01 X-1.8219 Y0.6281  
G01 X-2.0051 Y0.4448  
G01 X-2.0102 Y0.4419  
G01 X-2.0158 Y0.4404  
G01 X-2.0842 Y0.4404  
G01 X-2.0898 Y0.4419  
G01 X-2.0949 Y0.4448  
G01 X-2.0990 Y0.4489  
G01 X-2.1279 Y0.4779  
G01 X-2.2007 Y0.4779  
G01 X-2.2035 Y0.4750  
G01 X-2.2088 Y0.4715  
G01 X-2.2146 Y0.4691  
G01 X-2.2208 Y0.4679  
G01 X-2.2792 Y0.4679  
G01 X-2.2854 Y0.4691  
G01 X-2.2912 Y0.4715  
G01 X-2.2965 Y0.4750  
G01 X-2.3010 Y0.4795  
G01 X-2.3045 Y0.4848  
G01 X-2.3069 Y0.4906  
G01 X-2.3081 Y0.4968  
G01 X-2.3081 Y0.5032  
G01 X-2.3069 Y0.5094  
G01 X-2.3045 Y0.5152  
G01 X-2.3010 Y0.5205  
G01 X-2.2965 Y0.5250  
G01 X-2.2912 Y0.5285  
G01 X-2.2854 Y0.5309  
G01 X-2.2792 Y0.5321  
G01 X-2.2208 Y0.5321  
G01 X-2.2146 Y0.5309  
G01 X-2.2088 Y0.5285  
G01 X-2.2035 Y0.5250  
G01 X-2.2007 Y0.5221  
G01 X-2.1158 Y0.5221  
G01 X-2.1102 Y0.5206  
G01 X-2.1051 Y0.5177  
G01 X-2.0721 Y0.4846  
G01 X-2.0279 Y0.4846  
G01 X-1.8532 Y0.6594  
G01 X-1.8636 Y0.6698  
G01 X-1.8677 Y0.6739  
G01 X-1.8706 Y0.6790  
G01 X-1.8721 Y0.6846  
G01 X-1.8721 Y0.8267  
G01 X-1.8821 Y0.8367  
G01 X-1.8821 Y0.8633  
G01 X-1.8633 Y0.8821  
G01 X-1.8367 Y0.8821  
G00 Z0.1000  
G00 X-2.0267 Y0.8561  
G01 Z-0.0021 F10    
G01 X-1.9939 Y0.8233  F20    
G01 X-1.9939 Y0.7767  
G01 X-2.0267 Y0.7439  
G01 X-2.0733 Y0.7439  
G01 X-2.1061 Y0.7767  
G01 X-2.1061 Y0.7779  
G01 X-2.2007 Y0.7779  
G01 X-2.2035 Y0.7750  
G01 X-2.2088 Y0.7715  
G01 X-2.2146 Y0.7691  
G01 X-2.2208 Y0.7679  
G01 X-2.2792 Y0.7679  
G01 X-2.2854 Y0.7691  
G01 X-2.2912 Y0.7715  
G01 X-2.2965 Y0.7750  
G01 X-2.3010 Y0.7795  
G01 X-2.3045 Y0.7848  
G01 X-2.3069 Y0.7906  
G01 X-2.3081 Y0.7968  
G01 X-2.3081 Y0.8032  
G01 X-2.3069 Y0.8094  
G01 X-2.3045 Y0.8152  
G01 X-2.3010 Y0.8205  
G01 X-2.2965 Y0.8250  
G01 X-2.2912 Y0.8285  
G01 X-2.2854 Y0.8309  
G01 X-2.2792 Y0.8321  
G01 X-2.2208 Y0.8321  
G01 X-2.2146 Y0.8309  
G01 X-2.2088 Y0.8285  
G01 X-2.2035 Y0.8250  
G01 X-2.2007 Y0.8221  
G01 X-2.1061 Y0.8221  
G01 X-2.1061 Y0.8233  
G01 X-2.0733 Y0.8561  
G01 X-2.0267 Y0.8561  
G00 Z0.1000  
G00 X-2.0267 Y0.6061  
G01 Z-0.0021 F10    
G01 X-1.9939 Y0.5733  F20    
G01 X-1.9939 Y0.5267  
G01 X-2.0267 Y0.4939  
G01 X-2.0733 Y0.4939  
G01 X-2.1061 Y0.5267  
G01 X-2.1061 Y0.5733  
G01 X-2.1054 Y0.5740  
G01 X-2.1092 Y0.5779  
G01 X-2.2007 Y0.5779  
G01 X-2.2035 Y0.5750  
G01 X-2.2088 Y0.5715  
G01 X-2.2146 Y0.5691  
G01 X-2.2208 Y0.5679  
G01 X-2.2792 Y0.5679  
G01 X-2.2854 Y0.5691  
G01 X-2.2912 Y0.5715  
G01 X-2.2965 Y0.5750  
G01 X-2.3010 Y0.5795  
G01 X-2.3045 Y0.5848  
G01 X-2.3069 Y0.5906  
G01 X-2.3081 Y0.5968  
G01 X-2.3081 Y0.6032  
G01 X-2.3069 Y0.6094  
G01 X-2.3045 Y0.6152  
G01 X-2.3010 Y0.6205  
G01 X-2.2965 Y0.6250  
G01 X-2.2912 Y0.6285  
G01 X-2.2854 Y0.6309  
G01 X-2.2792 Y0.6321  
G01 X-2.2208 Y0.6321  
G01 X-2.2146 Y0.6309  
G01 X-2.2088 Y0.6285  
G01 X-2.2035 Y0.6250  
G01 X-2.2007 Y0.6221  
G01 X-2.0971 Y0.6221  
G01 X-2.0915 Y0.6206  
G01 X-2.0864 Y0.6177  
G01 X-2.0740 Y0.6054  
G01 X-2.0733 Y0.6061  
G01 X-2.0267 Y0.6061  
G00 Z0.1000  
G00 X-1.9658 Y0.4221  
G01 Z-0.0021 F10    
G01 X-1.9606 Y0.4207  F20    
G01 X-1.9136 Y0.4677  
G01 X-1.9085 Y0.4706  
G01 X-1.9029 Y0.4721  
G01 X-1.8733 Y0.4721  
G01 X-1.8633 Y0.4821  
G01 X-1.8367 Y0.4821  
G01 X-1.8179 Y0.4633  
G01 X-1.8179 Y0.4367  
G01 X-1.8367 Y0.4179  
G01 X-1.8633 Y0.4179  
G01 X-1.8733 Y0.4279  
G01 X-1.8908 Y0.4279  
G01 X-1.9417 Y0.3770  
G01 X-1.9446 Y0.3740  
G01 X-1.9439 Y0.3733  
G01 X-1.9439 Y0.3267  
G01 X-1.9767 Y0.2939  
G01 X-2.0233 Y0.2939  
G01 X-2.0561 Y0.3267  
G01 X-2.0561 Y0.3733  
G01 X-2.0516 Y0.3779  
G01 X-2.2007 Y0.3779  
G01 X-2.2035 Y0.3750  
G01 X-2.2088 Y0.3715  
G01 X-2.2146 Y0.3691  
G01 X-2.2208 Y0.3679  
G01 X-2.2792 Y0.3679  
G01 X-2.2854 Y0.3691  
G01 X-2.2912 Y0.3715  
G01 X-2.2965 Y0.3750  
G01 X-2.3010 Y0.3795  
G01 X-2.3045 Y0.3848  
G01 X-2.3069 Y0.3906  
G01 X-2.3081 Y0.3968  
G01 X-2.3081 Y0.4032  
G01 X-2.3069 Y0.4094  
G01 X-2.3045 Y0.4152  
G01 X-2.3010 Y0.4205  
G01 X-2.2965 Y0.4250  
G01 X-2.2912 Y0.4285  
G01 X-2.2854 Y0.4309  
G01 X-2.2792 Y0.4321  
G01 X-2.2208 Y0.4321  
G01 X-2.2146 Y0.4309  
G01 X-2.2088 Y0.4285  
G01 X-2.2035 Y0.4250  
G01 X-2.2007 Y0.4221  
G01 X-1.9658 Y0.4221  
G00 Z0.1000  
G00 X-2.4990 Y0.4205  
G01 Z-0.0021 F10    
G01 X-2.4955 Y0.4152  F20    
G01 X-2.4931 Y0.4094  
G01 X-2.4919 Y0.4032  
G01 X-2.4919 Y0.3968  
G01 X-2.4931 Y0.3906  
G01 X-2.4955 Y0.3848  
G01 X-2.4990 Y0.3795  
G01 X-2.5035 Y0.3750  
G01 X-2.5088 Y0.3715  
G01 X-2.5146 Y0.3691  
G01 X-2.5208 Y0.3679  
G01 X-2.5792 Y0.3679  
G01 X-2.5854 Y0.3691  
G01 X-2.5912 Y0.3715  
G01 X-2.5965 Y0.3750  
G01 X-2.5993 Y0.3779  
G01 X-2.7408 Y0.3779  
G01 X-2.7446 Y0.3740  
G01 X-2.7439 Y0.3733  
G01 X-2.7439 Y0.3267  
G01 X-2.7767 Y0.2939  
G01 X-2.8233 Y0.2939  
G01 X-2.8561 Y0.3267  
G01 X-2.8561 Y0.3686  
G01 X-2.9154 Y0.4279  
G01 X-2.9767 Y0.4279  
G01 X-2.9867 Y0.4179  
G01 X-3.0133 Y0.4179  
G01 X-3.0321 Y0.4367  
G01 X-3.0321 Y0.4633  
G01 X-3.0133 Y0.4821  
G01 X-2.9867 Y0.4821  
G01 X-2.9767 Y0.4721  
G01 X-2.9033 Y0.4721  
G01 X-2.8977 Y0.4706  
G01 X-2.8926 Y0.4677  
G01 X-2.8272 Y0.4022  
G01 X-2.8233 Y0.4061  
G01 X-2.7767 Y0.4061  
G01 X-2.7760 Y0.4054  
G01 X-2.7636 Y0.4177  
G01 X-2.7585 Y0.4206  
G01 X-2.7529 Y0.4221  
G01 X-2.5993 Y0.4221  
G01 X-2.5965 Y0.4250  
G01 X-2.5912 Y0.4285  
G01 X-2.5854 Y0.4309  
G01 X-2.5792 Y0.4321  
G01 X-2.5208 Y0.4321  
G01 X-2.5146 Y0.4309  
G01 X-2.5088 Y0.4285  
G01 X-2.5035 Y0.4250  
G01 X-2.4990 Y0.4205  
G00 Z0.1000  
G00 X-2.4990 Y0.4795  
G01 Z-0.0021 F10    
G01 X-2.5035 Y0.4750  F20    
G01 X-2.5088 Y0.4715  
G01 X-2.5146 Y0.4691  
G01 X-2.5208 Y0.4679  
G01 X-2.5792 Y0.4679  
G01 X-2.5854 Y0.4691  
G01 X-2.5912 Y0.4715  
G01 X-2.5965 Y0.4750  
G01 X-2.5993 Y0.4779  
G01 X-2.9654 Y0.4779  
G01 X-2.9710 Y0.4794  
G01 X-2.9761 Y0.4823  
G01 X-2.9842 Y0.4904  
G01 X-3.0158 Y0.4904  
G01 X-3.0654 Y0.4408  
G01 X-3.0654 Y0.4221  
G01 X-3.0669 Y0.4165  
G01 X-3.0698 Y0.4114  
G01 X-3.1073 Y0.3739  
G01 X-3.1114 Y0.3698  
G01 X-3.1165 Y0.3669  
G01 X-3.1221 Y0.3654  
G01 X-3.3904 Y0.3654  
G01 X-3.3960 Y0.3669  
G01 X-3.4011 Y0.3698  
G01 X-3.4052 Y0.3739  
G01 X-3.4386 Y0.4073  
G01 X-3.4427 Y0.4114  
G01 X-3.4492 Y0.4179  
G01 X-3.4633 Y0.4179  
G01 X-3.4821 Y0.4367  
G01 X-3.4821 Y0.4633  
G01 X-3.4633 Y0.4821  
G01 X-3.4367 Y0.4821  
G01 X-3.4179 Y0.4634  
G01 X-3.0321 Y0.8492  
G01 X-3.0321 Y0.8633  
G01 X-3.0133 Y0.8821  
G01 X-2.9867 Y0.8821  
G01 X-2.9679 Y0.8633  
G01 X-2.9679 Y0.8367  
G01 X-2.9867 Y0.8179  
G01 X-3.0008 Y0.8179  
G01 X-3.3937 Y0.4250  
G01 X-3.3783 Y0.4096  
G01 X-3.1342 Y0.4096  
G01 X-3.1096 Y0.4342  
G01 X-3.1096 Y0.4529  
G01 X-3.1081 Y0.4585  
G01 X-3.1052 Y0.4636  
G01 X-3.1011 Y0.4677  
G01 X-3.0386 Y0.5302  
G01 X-3.0335 Y0.5331  
G01 X-3.0279 Y0.5346  
G01 X-2.9721 Y0.5346  
G01 X-2.9665 Y0.5331  
G01 X-2.9614 Y0.5302  
G01 X-2.9573 Y0.5261  
G01 X-2.9533 Y0.5221  
G01 X-2.5993 Y0.5221  
G01 X-2.5965 Y0.5250  
G01 X-2.5912 Y0.5285  
G01 X-2.5854 Y0.5309  
G01 X-2.5792 Y0.5321  
G01 X-2.5208 Y0.5321  
G01 X-2.5146 Y0.5309  
G01 X-2.5088 Y0.5285  
G01 X-2.5035 Y0.5250  
G01 X-2.4990 Y0.5205  
G01 X-2.4955 Y0.5152  
G01 X-2.4931 Y0.5094  
G01 X-2.4919 Y0.5032  
G01 X-2.4919 Y0.4968  
G01 X-2.4931 Y0.4906  
G01 X-2.4955 Y0.4848  
G01 X-2.4990 Y0.4795  
G00 Z0.1000  
G00 X-2.4990 Y0.5795  
G01 Z-0.0021 F10    
G01 X-2.5035 Y0.5750  F20    
G01 X-2.5088 Y0.5715  
G01 X-2.5146 Y0.5691  
G01 X-2.5208 Y0.5679  
G01 X-2.5792 Y0.5679  
G01 X-2.5854 Y0.5691  
G01 X-2.5912 Y0.5715  
G01 X-2.5965 Y0.5750  
G01 X-2.5993 Y0.5779  
G01 X-2.6939 Y0.5779  
G01 X-2.6939 Y0.5767  
G01 X-2.7267 Y0.5439  
G01 X-2.7733 Y0.5439  
G01 X-2.8061 Y0.5767  
G01 X-2.8061 Y0.6233  
G01 X-2.7733 Y0.6561  
G01 X-2.7267 Y0.6561  
G01 X-2.6939 Y0.6233  
G01 X-2.6939 Y0.6221  
G01 X-2.5993 Y0.6221  
G01 X-2.5965 Y0.6250  
G01 X-2.5912 Y0.6285  
G01 X-2.5854 Y0.6309  
G01 X-2.5792 Y0.6321  
G01 X-2.5208 Y0.6321  
G01 X-2.5146 Y0.6309  
G01 X-2.5088 Y0.6285  
G01 X-2.5035 Y0.6250  
G01 X-2.4990 Y0.6205  
G01 X-2.4955 Y0.6152  
G01 X-2.4931 Y0.6094  
G01 X-2.4919 Y0.6032  
G01 X-2.4919 Y0.5968  
G01 X-2.4931 Y0.5906  
G01 X-2.4955 Y0.5848  
G01 X-2.4990 Y0.5795  
G00 Z0.1000  
G00 X-2.4990 Y0.7795  
G01 Z-0.0021 F10    
G01 X-2.5035 Y0.7750  F20    
G01 X-2.5088 Y0.7715  
G01 X-2.5146 Y0.7691  
G01 X-2.5208 Y0.7679  
G01 X-2.5792 Y0.7679  
G01 X-2.5854 Y0.7691  
G01 X-2.5912 Y0.7715  
G01 X-2.5965 Y0.7750  
G01 X-2.5993 Y0.7779  
G01 X-2.6939 Y0.7779  
G01 X-2.6939 Y0.7767  
G01 X-2.7267 Y0.7439  
G01 X-2.7733 Y0.7439  
G01 X-2.8061 Y0.7767  
G01 X-2.8061 Y0.8233  
G01 X-2.7733 Y0.8561  
G01 X-2.7267 Y0.8561  
G01 X-2.6939 Y0.8233  
G01 X-2.6939 Y0.8221  
G01 X-2.5993 Y0.8221  
G01 X-2.5965 Y0.8250  
G01 X-2.5912 Y0.8285  
G01 X-2.5854 Y0.8309  
G01 X-2.5792 Y0.8321  
G01 X-2.5208 Y0.8321  
G01 X-2.5146 Y0.8309  
G01 X-2.5088 Y0.8285  
G01 X-2.5035 Y0.8250  
G01 X-2.4990 Y0.8205  
G01 X-2.4955 Y0.8152  
G01 X-2.4931 Y0.8094  
G01 X-2.4919 Y0.8032  
G01 X-2.4919 Y0.7968  
G01 X-2.4931 Y0.7906  
G01 X-2.4955 Y0.7848  
G01 X-2.4990 Y0.7795  
G00 Z0.1000  
G00 X-2.4990 Y0.8795  
G01 Z-0.0021 F10    
G01 X-2.5035 Y0.8750  F20    
G01 X-2.5088 Y0.8715  
G01 X-2.5146 Y0.8691  
G01 X-2.5208 Y0.8679  
G01 X-2.5792 Y0.8679  
G01 X-2.5854 Y0.8691  
G01 X-2.5912 Y0.8715  
G01 X-2.5965 Y0.8750  
G01 X-2.5993 Y0.8779  
G01 X-2.7596 Y0.8779  
G01 X-3.1553 Y0.4821  
G01 X-3.1367 Y0.4821  
G01 X-3.1179 Y0.4633  
G01 X-3.1179 Y0.4367  
G01 X-3.1367 Y0.4179  
G01 X-3.1633 Y0.4179  
G01 X-3.1733 Y0.4279  
G01 X-3.2767 Y0.4279  
G01 X-3.2867 Y0.4179  
G01 X-3.3133 Y0.4179  
G01 X-3.3321 Y0.4367  
G01 X-3.3321 Y0.4633  
G01 X-3.3133 Y0.4821  
G01 X-3.2867 Y0.4821  
G01 X-3.2767 Y0.4721  
G01 X-3.2263 Y0.4721  
G01 X-3.2240 Y0.4761  
G01 X-3.2199 Y0.4802  
G01 X-2.7824 Y0.9177  
G01 X-2.7773 Y0.9206  
G01 X-2.7717 Y0.9221  
G01 X-2.5993 Y0.9221  
G01 X-2.5965 Y0.9250  
G01 X-2.5912 Y0.9285  
G01 X-2.5854 Y0.9309  
G01 X-2.5792 Y0.9321  
G01 X-2.5208 Y0.9321  
G01 X-2.5146 Y0.9309  
G01 X-2.5088 Y0.9285  
G01 X-2.5035 Y0.9250  
G01 X-2.4990 Y0.9205  
G01 X-2.4955 Y0.9152  
G01 X-2.4931 Y0.9094  
G01 X-2.4919 Y0.9032  
G01 X-2.4919 Y0.8968  
G01 X-2.4931 Y0.8906  
G01 X-2.4955 Y0.8848  
G01 X-2.4990 Y0.8795  
G00 Z0.1000  
G00 X-2.4990 Y0.9795  
G01 Z-0.0021 F10    
G01 X-2.5035 Y0.9750  F20    
G01 X-2.5088 Y0.9715  
G01 X-2.5146 Y0.9691  
G01 X-2.5208 Y0.9679  
G01 X-2.5792 Y0.9679  
G01 X-2.5854 Y0.9691  
G01 X-2.5912 Y0.9715  
G01 X-2.5965 Y0.9750  
G01 X-2.5993 Y0.9779  
G01 X-2.6967 Y0.9779  
G01 X-2.7023 Y0.9794  
G01 X-2.7074 Y0.9823  
G01 X-2.7228 Y0.9978  
G01 X-2.7267 Y0.9939  
G01 X-2.7733 Y0.9939  
G01 X-2.8061 Y1.0267  
G01 X-2.8061 Y1.0279  
G01 X-2.8783 Y1.0279  
G01 X-3.0739 Y0.8323  
G01 X-3.0790 Y0.8294  
G01 X-3.0846 Y0.8279  
G01 X-3.1267 Y0.8279  
G01 X-3.1367 Y0.8179  
G01 X-3.1633 Y0.8179  
G01 X-3.1821 Y0.8367  
G01 X-3.1821 Y0.8633  
G01 X-3.1633 Y0.8821  
G01 X-3.1367 Y0.8821  
G01 X-3.1267 Y0.8721  
G01 X-3.0967 Y0.8721  
G01 X-2.9052 Y1.0636  
G01 X-2.9011 Y1.0677  
G01 X-2.8960 Y1.0706  
G01 X-2.8904 Y1.0721  
G01 X-2.8061 Y1.0721  
G01 X-2.8061 Y1.0733  
G01 X-2.7733 Y1.1061  
G01 X-2.7267 Y1.1061  
G01 X-2.6939 Y1.0733  
G01 X-2.6939 Y1.0314  
G01 X-2.6846 Y1.0221  
G01 X-2.5993 Y1.0221  
G01 X-2.5965 Y1.0250  
G01 X-2.5912 Y1.0285  
G01 X-2.5854 Y1.0309  
G01 X-2.5792 Y1.0321  
G01 X-2.5208 Y1.0321  
G01 X-2.5146 Y1.0309  
G01 X-2.5088 Y1.0285  
G01 X-2.5035 Y1.0250  
G01 X-2.4990 Y1.0205  
G01 X-2.4955 Y1.0152  
G01 X-2.4931 Y1.0094  
G01 X-2.4919 Y1.0032  
G01 X-2.4919 Y0.9968  
G01 X-2.4931 Y0.9906  
G01 X-2.4955 Y0.9848  
G01 X-2.4990 Y0.9795  
G00 Z0.1000  
G00 X-2.3727 Y1.3723  
G01 Z-0.0021 F10    
G01 X-2.3777 Y1.3773  F20    
G01 X-2.3816 Y1.3831  
G01 X-2.3843 Y1.3896  
G01 X-2.3856 Y1.3965  
G01 X-2.3856 Y1.4035  
G01 X-2.3843 Y1.4104  
G01 X-2.3816 Y1.4169  
G01 X-2.3777 Y1.4227  
G01 X-2.3727 Y1.4277  
G01 X-2.3669 Y1.4316  
G01 X-2.3604 Y1.4343  
G01 X-2.3535 Y1.4356  
G01 X-2.3465 Y1.4356  
G01 X-2.3458 Y1.4355  
G01 X-2.1261 Y1.6552  
G01 X-2.1285 Y1.6588  
G01 X-2.1309 Y1.6646  
G01 X-2.1321 Y1.6708  
G01 X-2.1321 Y1.7292  
G01 X-2.1309 Y1.7354  
G01 X-2.1285 Y1.7412  
G01 X-2.1250 Y1.7465  
G01 X-2.1205 Y1.7510  
G01 X-2.1152 Y1.7545  
G01 X-2.1094 Y1.7569  
G01 X-2.1032 Y1.7581  
G01 X-2.0968 Y1.7581  
G01 X-2.0906 Y1.7569  
G01 X-2.0848 Y1.7545  
G01 X-2.0795 Y1.7510  
G01 X-2.0750 Y1.7465  
G01 X-2.0715 Y1.7412  
G01 X-2.0691 Y1.7354  
G01 X-2.0679 Y1.7292  
G01 X-2.0679 Y1.6708  
G01 X-2.0691 Y1.6646  
G01 X-2.0715 Y1.6588  
G01 X-2.0750 Y1.6535  
G01 X-2.0779 Y1.6507  
G01 X-2.0779 Y1.6471  
G01 X-2.0794 Y1.6415  
G01 X-2.0823 Y1.6364  
G01 X-2.3145 Y1.4042  
G01 X-2.3144 Y1.4035  
G01 X-2.3144 Y1.3965  
G01 X-2.3157 Y1.3896  
G01 X-2.3184 Y1.3831  
G01 X-2.3223 Y1.3773  
G01 X-2.3273 Y1.3723  
G01 X-2.3331 Y1.3684  
G01 X-2.3396 Y1.3657  
G01 X-2.3465 Y1.3644  
G01 X-2.3535 Y1.3644  
G01 X-2.3604 Y1.3657  
G01 X-2.3669 Y1.3684  
G01 X-2.3727 Y1.3723  
G00 Z0.1000  
G00 X-2.3727 Y1.4723  
G01 Z-0.0021 F10    
G01 X-2.3777 Y1.4773  F20    
G01 X-2.3816 Y1.4831  
G01 X-2.3843 Y1.4896  
G01 X-2.3856 Y1.4965  
G01 X-2.3856 Y1.5035  
G01 X-2.3843 Y1.5104  
G01 X-2.3816 Y1.5169  
G01 X-2.3777 Y1.5227  
G01 X-2.3727 Y1.5277  
G01 X-2.3669 Y1.5316  
G01 X-2.3604 Y1.5343  
G01 X-2.3535 Y1.5356  
G01 X-2.3465 Y1.5356  
G01 X-2.3458 Y1.5355  
G01 X-2.2596 Y1.6217  
G01 X-2.2596 Y1.6779  
G01 X-2.2581 Y1.6835  
G01 X-2.2552 Y1.6886  
G01 X-2.2511 Y1.6927  
G01 X-2.1386 Y1.8052  
G01 X-2.1335 Y1.8081  
G01 X-2.1279 Y1.8096  
G01 X-2.0721 Y1.8096  
G01 X-2.0665 Y1.8081  
G01 X-2.0614 Y1.8052  
G01 X-2.0573 Y1.8011  
G01 X-2.0120 Y1.7558  
G01 X-2.0094 Y1.7569  
G01 X-2.0032 Y1.7581  
G01 X-1.9968 Y1.7581  
G01 X-1.9906 Y1.7569  
G01 X-1.9848 Y1.7545  
G01 X-1.9795 Y1.7510  
G01 X-1.9750 Y1.7465  
G01 X-1.9715 Y1.7412  
G01 X-1.9691 Y1.7354  
G01 X-1.9679 Y1.7292  
G01 X-1.9679 Y1.6708  
G01 X-1.9691 Y1.6646  
G01 X-1.9715 Y1.6588  
G01 X-1.9750 Y1.6535  
G01 X-1.9795 Y1.6490  
G01 X-1.9848 Y1.6455  
G01 X-1.9906 Y1.6431  
G01 X-1.9968 Y1.6419  
G01 X-2.0032 Y1.6419  
G01 X-2.0094 Y1.6431  
G01 X-2.0152 Y1.6455  
G01 X-2.0205 Y1.6490  
G01 X-2.0250 Y1.6535  
G01 X-2.0285 Y1.6588  
G01 X-2.0309 Y1.6646  
G01 X-2.0321 Y1.6708  
G01 X-2.0321 Y1.7133  
G01 X-2.0842 Y1.7654  
G01 X-2.1158 Y1.7654  
G01 X-2.2154 Y1.6658  
G01 X-2.2154 Y1.6096  
G01 X-2.2169 Y1.6040  
G01 X-2.2198 Y1.5989  
G01 X-2.3145 Y1.5042  
G01 X-2.3144 Y1.5035  
G01 X-2.3144 Y1.4965  
G01 X-2.3157 Y1.4896  
G01 X-2.3184 Y1.4831  
G01 X-2.3223 Y1.4773  
G01 X-2.3273 Y1.4723  
G01 X-2.3331 Y1.4684  
G01 X-2.3396 Y1.4657  
G01 X-2.3465 Y1.4644  
G01 X-2.3535 Y1.4644  
G01 X-2.3604 Y1.4657  
G01 X-2.3669 Y1.4684  
G01 X-2.3727 Y1.4723  
G00 Z0.1000  
G00 X-2.3727 Y1.5723  
G01 Z-0.0021 F10    
G01 X-2.3777 Y1.5773  F20    
G01 X-2.3816 Y1.5831  
G01 X-2.3843 Y1.5896  
G01 X-2.3856 Y1.5965  
G01 X-2.3856 Y1.6035  
G01 X-2.3843 Y1.6104  
G01 X-2.3816 Y1.6169  
G01 X-2.3777 Y1.6227  
G01 X-2.3727 Y1.6277  
G01 X-2.3669 Y1.6316  
G01 X-2.3604 Y1.6343  
G01 X-2.3535 Y1.6356  
G01 X-2.3465 Y1.6356  
G01 X-2.3406 Y1.6345  
G01 X-2.3096 Y1.6654  
G01 X-2.3096 Y1.6967  
G01 X-2.3081 Y1.7023  
G01 X-2.3052 Y1.7074  
G01 X-2.3011 Y1.7115  
G01 X-2.1221 Y1.8904  
G01 X-2.1221 Y1.9507  
G01 X-2.1250 Y1.9535  
G01 X-2.1285 Y1.9588  
G01 X-2.1309 Y1.9646  
G01 X-2.1321 Y1.9708  
G01 X-2.1321 Y2.0292  
G01 X-2.1309 Y2.0354  
G01 X-2.1285 Y2.0412  
G01 X-2.1250 Y2.0465  
G01 X-2.1205 Y2.0510  
G01 X-2.1152 Y2.0545  
G01 X-2.1094 Y2.0569  
G01 X-2.1032 Y2.0581  
G01 X-2.0968 Y2.0581  
G01 X-2.0906 Y2.0569  
G01 X-2.0848 Y2.0545  
G01 X-2.0795 Y2.0510  
G01 X-2.0750 Y2.0465  
G01 X-2.0715 Y2.0412  
G01 X-2.0691 Y2.0354  
G01 X-2.0679 Y2.0292  
G01 X-2.0679 Y1.9708  
G01 X-2.0691 Y1.9646  
G01 X-2.0715 Y1.9588  
G01 X-2.0750 Y1.9535  
G01 X-2.0779 Y1.9507  
G01 X-2.0779 Y1.8783  
G01 X-2.0794 Y1.8727  
G01 X-2.0823 Y1.8676  
G01 X-2.2654 Y1.6846  
G01 X-2.2654 Y1.6533  
G01 X-2.2669 Y1.6477  
G01 X-2.2698 Y1.6426  
G01 X-2.3144 Y1.5981  
G01 X-2.3144 Y1.5965  
G01 X-2.3157 Y1.5896  
G01 X-2.3184 Y1.5831  
G01 X-2.3223 Y1.5773  
G01 X-2.3273 Y1.5723  
G01 X-2.3331 Y1.5684  
G01 X-2.3396 Y1.5657  
G01 X-2.3465 Y1.5644  
G01 X-2.3535 Y1.5644  
G01 X-2.3604 Y1.5657  
G01 X-2.3669 Y1.5684  
G01 X-2.3727 Y1.5723  
G00 Z0.1000  
G00 X-2.3867 Y1.8179  
G01 Z-0.0021 F10    
G01 X-2.4133 Y1.8179  F20    
G01 X-2.4321 Y1.8367  
G01 X-2.4321 Y1.8633  
G01 X-2.4221 Y1.8733  
G01 X-2.4221 Y2.0279  
G01 X-2.6679 Y2.0279  
G01 X-2.6679 Y2.0208  
G01 X-2.6691 Y2.0146  
G01 X-2.6715 Y2.0088  
G01 X-2.6750 Y2.0035  
G01 X-2.6795 Y1.9990  
G01 X-2.6848 Y1.9955  
G01 X-2.6906 Y1.9931  
G01 X-2.6968 Y1.9919  
G01 X-2.7032 Y1.9919  
G01 X-2.7094 Y1.9931  
G01 X-2.7152 Y1.9955  
G01 X-2.7205 Y1.9990  
G01 X-2.7250 Y2.0035  
G01 X-2.7285 Y2.0088  
G01 X-2.7309 Y2.0146  
G01 X-2.7321 Y2.0208  
G01 X-2.7321 Y2.0792  
G01 X-2.7309 Y2.0854  
G01 X-2.7285 Y2.0912  
G01 X-2.7250 Y2.0965  
G01 X-2.7205 Y2.1010  
G01 X-2.7152 Y2.1045  
G01 X-2.7094 Y2.1069  
G01 X-2.7032 Y2.1081  
G01 X-2.6968 Y2.1081  
G01 X-2.6906 Y2.1069  
G01 X-2.6848 Y2.1045  
G01 X-2.6795 Y2.1010  
G01 X-2.6750 Y2.0965  
G01 X-2.6715 Y2.0912  
G01 X-2.6691 Y2.0854  
G01 X-2.6679 Y2.0792  
G01 X-2.6679 Y2.0721  
G01 X-2.5016 Y2.0721  
G01 X-2.5061 Y2.0767  
G01 X-2.5061 Y2.1233  
G01 X-2.4733 Y2.1561  
G01 X-2.4267 Y2.1561  
G01 X-2.3939 Y2.1233  
G01 X-2.3939 Y2.0767  
G01 X-2.3946 Y2.0760  
G01 X-2.3917 Y2.0730  
G01 X-2.3823 Y2.0636  
G01 X-2.3794 Y2.0585  
G01 X-2.3779 Y2.0529  
G01 X-2.3779 Y1.8733  
G01 X-2.3679 Y1.8633  
G01 X-2.3679 Y1.8367  
G01 X-2.3867 Y1.8179  
G00 Z0.1000  
G00 X-2.6273 Y1.7277  
G01 Z-0.0021 F10    
G01 X-2.6223 Y1.7227  F20    
G01 X-2.6184 Y1.7169  
G01 X-2.6157 Y1.7104  
G01 X-2.6144 Y1.7035  
G01 X-2.6144 Y1.6965  
G01 X-2.6157 Y1.6896  
G01 X-2.6184 Y1.6831  
G01 X-2.6223 Y1.6773  
G01 X-2.6273 Y1.6723  
G01 X-2.6331 Y1.6684  
G01 X-2.6396 Y1.6657  
G01 X-2.6465 Y1.6644  
G01 X-2.6535 Y1.6644  
G01 X-2.6604 Y1.6657  
G01 X-2.6669 Y1.6684  
G01 X-2.6727 Y1.6723  
G01 X-2.6777 Y1.6773  
G01 X-2.6781 Y1.6779  
G01 X-2.8404 Y1.6779  
G01 X-2.8460 Y1.6794  
G01 X-2.8511 Y1.6823  
G01 X-2.8552 Y1.6864  
G01 X-2.9802 Y1.8114  
G01 X-2.9831 Y1.8165  
G01 X-2.9846 Y1.8221  
G01 X-2.9846 Y1.8779  
G01 X-2.9831 Y1.8835  
G01 X-2.9802 Y1.8886  
G01 X-2.9761 Y1.8927  
G01 X-2.9221 Y1.9467  
G01 X-2.9221 Y2.0007  
G01 X-2.9250 Y2.0035  
G01 X-2.9285 Y2.0088  
G01 X-2.9309 Y2.0146  
G01 X-2.9321 Y2.0208  
G01 X-2.9321 Y2.0792  
G01 X-2.9309 Y2.0854  
G01 X-2.9285 Y2.0912  
G01 X-2.9250 Y2.0965  
G01 X-2.9205 Y2.1010  
G01 X-2.9152 Y2.1045  
G01 X-2.9094 Y2.1069  
G01 X-2.9032 Y2.1081  
G01 X-2.8968 Y2.1081  
G01 X-2.8906 Y2.1069  
G01 X-2.8848 Y2.1045  
G01 X-2.8795 Y2.1010  
G01 X-2.8750 Y2.0965  
G01 X-2.8715 Y2.0912  
G01 X-2.8691 Y2.0854  
G01 X-2.8679 Y2.0792  
G01 X-2.8679 Y2.0208  
G01 X-2.8691 Y2.0146  
G01 X-2.8715 Y2.0088  
G01 X-2.8750 Y2.0035  
G01 X-2.8779 Y2.0007  
G01 X-2.8779 Y1.9346  
G01 X-2.8794 Y1.9290  
G01 X-2.8823 Y1.9239  
G01 X-2.9404 Y1.8658  
G01 X-2.9404 Y1.8342  
G01 X-2.8283 Y1.7221  
G01 X-2.6781 Y1.7221  
G01 X-2.6777 Y1.7227  
G01 X-2.6727 Y1.7277  
G01 X-2.6669 Y1.7316  
G01 X-2.6604 Y1.7343  
G01 X-2.6535 Y1.7356  
G01 X-2.6465 Y1.7356  
G01 X-2.6396 Y1.7343  
G01 X-2.6331 Y1.7316  
G01 X-2.6273 Y1.7277  
G00 Z0.1000  
G00 X-2.6273 Y1.5277  
G01 Z-0.0021 F10    
G01 X-2.6223 Y1.5227  F20    
G01 X-2.6184 Y1.5169  
G01 X-2.6157 Y1.5104  
G01 X-2.6144 Y1.5035  
G01 X-2.6144 Y1.4965  
G01 X-2.6157 Y1.4896  
G01 X-2.6184 Y1.4831  
G01 X-2.6223 Y1.4773  
G01 X-2.6273 Y1.4723  
G01 X-2.6331 Y1.4684  
G01 X-2.6396 Y1.4657  
G01 X-2.6465 Y1.4644  
G01 X-2.6535 Y1.4644  
G01 X-2.6604 Y1.4657  
G01 X-2.6669 Y1.4684  
G01 X-2.6727 Y1.4723  
G01 X-2.6777 Y1.4773  
G01 X-2.6781 Y1.4779  
G01 X-2.8029 Y1.4779  
G01 X-2.8085 Y1.4794  
G01 X-2.8136 Y1.4823  
G01 X-2.8177 Y1.4864  
G01 X-2.8206 Y1.4915  
G01 X-2.8221 Y1.4971  
G01 X-2.8221 Y1.5779  
G01 X-3.0529 Y1.5779  
G01 X-3.0585 Y1.5794  
G01 X-3.0636 Y1.5823  
G01 X-3.0677 Y1.5864  
G01 X-3.0706 Y1.5915  
G01 X-3.0721 Y1.5971  
G01 X-3.0721 Y1.6745  
G01 X-3.0733 Y1.6750  
G01 X-3.0750 Y1.6767  
G01 X-3.0760 Y1.6790  
G01 X-3.0760 Y1.7210  
G01 X-3.0750 Y1.7233  
G01 X-3.0733 Y1.7250  
G01 X-3.0710 Y1.7260  
G01 X-3.0290 Y1.7260  
G01 X-3.0267 Y1.7250  
G01 X-3.0250 Y1.7233  
G01 X-3.0240 Y1.7210  
G01 X-3.0240 Y1.6790  
G01 X-3.0250 Y1.6767  
G01 X-3.0267 Y1.6750  
G01 X-3.0279 Y1.6745  
G01 X-3.0279 Y1.6221  
G01 X-2.7971 Y1.6221  
G01 X-2.7915 Y1.6206  
G01 X-2.7864 Y1.6177  
G01 X-2.7823 Y1.6136  
G01 X-2.7794 Y1.6085  
G01 X-2.7779 Y1.6029  
G01 X-2.7779 Y1.5221  
G01 X-2.6781 Y1.5221  
G01 X-2.6777 Y1.5227  
G01 X-2.6727 Y1.5277  
G01 X-2.6669 Y1.5316  
G01 X-2.6604 Y1.5343  
G01 X-2.6535 Y1.5356  
G01 X-2.6465 Y1.5356  
G01 X-2.6396 Y1.5343  
G01 X-2.6331 Y1.5316  
G01 X-2.6273 Y1.5277  
G00 Z0.1000  
G00 X-2.7679 Y1.8367  
G01 Z-0.0021 F10    
G01 X-2.7867 Y1.8179  F20    
G01 X-2.8133 Y1.8179  
G01 X-2.8233 Y1.8279  
G01 X-2.8767 Y1.8279  
G01 X-2.8867 Y1.8179  
G01 X-2.9133 Y1.8179  
G01 X-2.9321 Y1.8367  
G01 X-2.9321 Y1.8633  
G01 X-2.9133 Y1.8821  
G01 X-2.8867 Y1.8821  
G01 X-2.8767 Y1.8721  
G01 X-2.8233 Y1.8721  
G01 X-2.8221 Y1.8733  
G01 X-2.8221 Y2.0007  
G01 X-2.8250 Y2.0035  
G01 X-2.8285 Y2.0088  
G01 X-2.8309 Y2.0146  
G01 X-2.8321 Y2.0208  
G01 X-2.8321 Y2.0792  
G01 X-2.8309 Y2.0854  
G01 X-2.8285 Y2.0912  
G01 X-2.8250 Y2.0965  
G01 X-2.8205 Y2.1010  
G01 X-2.8152 Y2.1045  
G01 X-2.8094 Y2.1069  
G01 X-2.8032 Y2.1081  
G01 X-2.7968 Y2.1081  
G01 X-2.7906 Y2.1069  
G01 X-2.7848 Y2.1045  
G01 X-2.7795 Y2.1010  
G01 X-2.7750 Y2.0965  
G01 X-2.7715 Y2.0912  
G01 X-2.7691 Y2.0854  
G01 X-2.7679 Y2.0792  
G01 X-2.7679 Y2.0208  
G01 X-2.7691 Y2.0146  
G01 X-2.7715 Y2.0088  
G01 X-2.7750 Y2.0035  
G01 X-2.7779 Y2.0007  
G01 X-2.7779 Y1.8733  
G01 X-2.7679 Y1.8633  
G01 X-2.7679 Y1.8367  
G00 Z0.1000  
G00 X-3.0750 Y1.8767  
G01 Z-0.0021 F10    
G01 X-3.0767 Y1.8750  F20    
G01 X-3.0790 Y1.8740  
G01 X-3.1210 Y1.8740  
G01 X-3.1233 Y1.8750  
G01 X-3.1250 Y1.8767  
G01 X-3.1260 Y1.8790  
G01 X-3.1260 Y1.9210  
G01 X-3.1250 Y1.9233  
G01 X-3.1233 Y1.9250  
G01 X-3.1221 Y1.9255  
G01 X-3.1221 Y2.0007  
G01 X-3.1250 Y2.0035  
G01 X-3.1285 Y2.0088  
G01 X-3.1309 Y2.0146  
G01 X-3.1321 Y2.0208  
G01 X-3.1321 Y2.0792  
G01 X-3.1309 Y2.0854  
G01 X-3.1285 Y2.0912  
G01 X-3.1250 Y2.0965  
G01 X-3.1205 Y2.1010  
G01 X-3.1152 Y2.1045  
G01 X-3.1094 Y2.1069  
G01 X-3.1032 Y2.1081  
G01 X-3.0968 Y2.1081  
G01 X-3.0906 Y2.1069  
G01 X-3.0848 Y2.1045  
G01 X-3.0795 Y2.1010  
G01 X-3.0750 Y2.0965  
G01 X-3.0715 Y2.0912  
G01 X-3.0691 Y2.0854  
G01 X-3.0679 Y2.0792  
G01 X-3.0679 Y2.0208  
G01 X-3.0691 Y2.0146  
G01 X-3.0715 Y2.0088  
G01 X-3.0750 Y2.0035  
G01 X-3.0779 Y2.0007  
G01 X-3.0779 Y1.9255  
G01 X-3.0767 Y1.9250  
G01 X-3.0750 Y1.9233  
G01 X-3.0740 Y1.9210  
G01 X-3.0740 Y1.8790  
G01 X-3.0750 Y1.8767  
G00 Z0.1000  
G00 X-3.1750 Y2.0035  
G01 Z-0.0021 F10    
G01 X-3.1779 Y2.0007  F20    
G01 X-3.1779 Y1.7033  
G01 X-3.1794 Y1.6977  
G01 X-3.1823 Y1.6926  
G01 X-3.3679 Y1.5071  
G01 X-3.3679 Y1.4867  
G01 X-3.3779 Y1.4767  
G01 X-3.3779 Y1.3733  
G01 X-3.3679 Y1.3633  
G01 X-3.3679 Y1.3367  
G01 X-3.3867 Y1.3179  
G01 X-3.4133 Y1.3179  
G01 X-3.4321 Y1.3367  
G01 X-3.4321 Y1.3633  
G01 X-3.4221 Y1.3733  
G01 X-3.4221 Y1.4767  
G01 X-3.4321 Y1.4867  
G01 X-3.4321 Y1.5133  
G01 X-3.4133 Y1.5321  
G01 X-3.4054 Y1.5321  
G01 X-3.2221 Y1.7154  
G01 X-3.2221 Y2.0007  
G01 X-3.2250 Y2.0035  
G01 X-3.2285 Y2.0088  
G01 X-3.2309 Y2.0146  
G01 X-3.2321 Y2.0208  
G01 X-3.2321 Y2.0792  
G01 X-3.2309 Y2.0854  
G01 X-3.2285 Y2.0912  
G01 X-3.2250 Y2.0965  
G01 X-3.2205 Y2.1010  
G01 X-3.2152 Y2.1045  
G01 X-3.2094 Y2.1069  
G01 X-3.2032 Y2.1081  
G01 X-3.1968 Y2.1081  
G01 X-3.1906 Y2.1069  
G01 X-3.1848 Y2.1045  
G01 X-3.1795 Y2.1010  
G01 X-3.1750 Y2.0965  
G01 X-3.1715 Y2.0912  
G01 X-3.1691 Y2.0854  
G01 X-3.1679 Y2.0792  
G01 X-3.1679 Y2.0208  
G01 X-3.1691 Y2.0146  
G01 X-3.1715 Y2.0088  
G01 X-3.1750 Y2.0035  
G00 Z0.1000  
G00 X-3.2750 Y2.0035  
G01 Z-0.0021 F10    
G01 X-3.2795 Y1.9990  F20    
G01 X-3.2848 Y1.9955  
G01 X-3.2906 Y1.9931  
G01 X-3.2968 Y1.9919  
G01 X-3.3032 Y1.9919  
G01 X-3.3094 Y1.9931  
G01 X-3.3152 Y1.9955  
G01 X-3.3200 Y1.9987  
G01 X-3.3542 Y1.9645  
G01 X-3.3583 Y1.9604  
G01 X-3.3779 Y1.9408  
G01 X-3.3779 Y1.9233  
G01 X-3.3679 Y1.9133  
G01 X-3.3679 Y1.8867  
G01 X-3.3867 Y1.8679  
G01 X-3.4133 Y1.8679  
G01 X-3.4321 Y1.8867  
G01 X-3.4321 Y1.9133  
G01 X-3.4221 Y1.9233  
G01 X-3.4221 Y1.9529  
G01 X-3.4206 Y1.9585  
G01 X-3.4177 Y1.9636  
G01 X-3.4032 Y1.9781  
G01 X-3.4728 Y2.0478  
G01 X-3.4767 Y2.0439  
G01 X-3.5233 Y2.0439  
G01 X-3.5561 Y2.0767  
G01 X-3.5561 Y2.1233  
G01 X-3.5233 Y2.1561  
G01 X-3.4767 Y2.1561  
G01 X-3.4439 Y2.1233  
G01 X-3.4439 Y2.0814  
G01 X-3.3719 Y2.0094  
G01 X-3.3321 Y2.0492  
G01 X-3.3321 Y2.0792  
G01 X-3.3309 Y2.0854  
G01 X-3.3285 Y2.0912  
G01 X-3.3250 Y2.0965  
G01 X-3.3205 Y2.1010  
G01 X-3.3152 Y2.1045  
G01 X-3.3094 Y2.1069  
G01 X-3.3032 Y2.1081  
G01 X-3.2968 Y2.1081  
G01 X-3.2906 Y2.1069  
G01 X-3.2848 Y2.1045  
G01 X-3.2795 Y2.1010  
G01 X-3.2750 Y2.0965  
G01 X-3.2715 Y2.0912  
G01 X-3.2691 Y2.0854  
G01 X-3.2679 Y2.0792  
G01 X-3.2679 Y2.0208  
G01 X-3.2691 Y2.0146  
G01 X-3.2715 Y2.0088  
G01 X-3.2750 Y2.0035  
G00 Z0.1000  
G00 X-3.2750 Y2.3035  
G01 Z-0.0021 F10    
G01 X-3.2795 Y2.2990  F20    
G01 X-3.2848 Y2.2955  
G01 X-3.2906 Y2.2931  
G01 X-3.2968 Y2.2919  
G01 X-3.3032 Y2.2919  
G01 X-3.3094 Y2.2931  
G01 X-3.3152 Y2.2955  
G01 X-3.3205 Y2.2990  
G01 X-3.3250 Y2.3035  
G01 X-3.3285 Y2.3088  
G01 X-3.3309 Y2.3146  
G01 X-3.3321 Y2.3208  
G01 X-3.3321 Y2.3279  
G01 X-3.4408 Y2.3279  
G01 X-3.4446 Y2.3240  
G01 X-3.4439 Y2.3233  
G01 X-3.4439 Y2.2767  
G01 X-3.4767 Y2.2439  
G01 X-3.5233 Y2.2439  
G01 X-3.5561 Y2.2767  
G01 X-3.5561 Y2.3233  
G01 X-3.5233 Y2.3561  
G01 X-3.5221 Y2.3561  
G01 X-3.5221 Y2.4767  
G01 X-3.5321 Y2.4867  
G01 X-3.5321 Y2.5133  
G01 X-3.5133 Y2.5321  
G01 X-3.4867 Y2.5321  
G01 X-3.4679 Y2.5133  
G01 X-3.4679 Y2.4867  
G01 X-3.4779 Y2.4767  
G01 X-3.4779 Y2.3561  
G01 X-3.4767 Y2.3561  
G01 X-3.4760 Y2.3554  
G01 X-3.4636 Y2.3677  
G01 X-3.4585 Y2.3706  
G01 X-3.4529 Y2.3721  
G01 X-3.3321 Y2.3721  
G01 X-3.3321 Y2.3792  
G01 X-3.3309 Y2.3854  
G01 X-3.3285 Y2.3912  
G01 X-3.3250 Y2.3965  
G01 X-3.3205 Y2.4010  
G01 X-3.3152 Y2.4045  
G01 X-3.3094 Y2.4069  
G01 X-3.3032 Y2.4081  
G01 X-3.2968 Y2.4081  
G01 X-3.2906 Y2.4069  
G01 X-3.2848 Y2.4045  
G01 X-3.2795 Y2.4010  
G01 X-3.2750 Y2.3965  
G01 X-3.2715 Y2.3912  
G01 X-3.2691 Y2.3854  
G01 X-3.2679 Y2.3792  
G01 X-3.2679 Y2.3208  
G01 X-3.2691 Y2.3146  
G01 X-3.2715 Y2.3088  
G01 X-3.2750 Y2.3035  
G00 Z0.1000  
G00 X-3.2250 Y2.3035  
G01 Z-0.0021 F10    
G01 X-3.2285 Y2.3088  F20    
G01 X-3.2309 Y2.3146  
G01 X-3.2321 Y2.3208  
G01 X-3.2321 Y2.3792  
G01 X-3.2309 Y2.3854  
G01 X-3.2285 Y2.3912  
G01 X-3.2250 Y2.3965  
G01 X-3.2221 Y2.3993  
G01 X-3.2221 Y2.4283  
G01 X-3.3636 Y2.5698  
G01 X-3.3677 Y2.5739  
G01 X-3.3706 Y2.5790  
G01 X-3.3721 Y2.5846  
G01 X-3.3721 Y2.6507  
G01 X-3.3750 Y2.6535  
G01 X-3.3785 Y2.6588  
G01 X-3.3809 Y2.6646  
G01 X-3.3821 Y2.6708  
G01 X-3.3821 Y2.7071  
G01 X-3.5177 Y2.8426  
G01 X-3.5206 Y2.8477  
G01 X-3.5221 Y2.8533  
G01 X-3.5221 Y2.8767  
G01 X-3.5321 Y2.8867  
G01 X-3.5321 Y2.9133  
G01 X-3.5133 Y2.9321  
G01 X-3.4867 Y2.9321  
G01 X-3.4679 Y2.9133  
G01 X-3.4679 Y2.8867  
G01 X-3.4779 Y2.8767  
G01 X-3.4779 Y2.8654  
G01 X-3.3662 Y2.7538  
G01 X-3.3652 Y2.7545  
G01 X-3.3594 Y2.7569  
G01 X-3.3532 Y2.7581  
G01 X-3.3468 Y2.7581  
G01 X-3.3406 Y2.7569  
G01 X-3.3348 Y2.7545  
G01 X-3.3295 Y2.7510  
G01 X-3.3250 Y2.7465  
G01 X-3.3215 Y2.7412  
G01 X-3.3191 Y2.7354  
G01 X-3.3179 Y2.7292  
G01 X-3.3179 Y2.6708  
G01 X-3.3191 Y2.6646  
G01 X-3.3215 Y2.6588  
G01 X-3.3250 Y2.6535  
G01 X-3.3279 Y2.6507  
G01 X-3.3279 Y2.5967  
G01 X-3.1823 Y2.4511  
G01 X-3.1794 Y2.4460  
G01 X-3.1779 Y2.4404  
G01 X-3.1779 Y2.3993  
G01 X-3.1750 Y2.3965  
G01 X-3.1715 Y2.3912  
G01 X-3.1691 Y2.3854  
G01 X-3.1679 Y2.3792  
G01 X-3.1679 Y2.3208  
G01 X-3.1691 Y2.3146  
G01 X-3.1715 Y2.3088  
G01 X-3.1750 Y2.3035  
G01 X-3.1795 Y2.2990  
G01 X-3.1848 Y2.2955  
G01 X-3.1906 Y2.2931  
G01 X-3.1968 Y2.2919  
G01 X-3.2032 Y2.2919  
G01 X-3.2094 Y2.2931  
G01 X-3.2152 Y2.2955  
G01 X-3.2205 Y2.2990  
G01 X-3.2250 Y2.3035  
G00 Z0.1000  
G00 X-3.1250 Y2.3035  
G01 Z-0.0021 F10    
G01 X-3.1285 Y2.3088  F20    
G01 X-3.1309 Y2.3146  
G01 X-3.1321 Y2.3208  
G01 X-3.1321 Y2.3792  
G01 X-3.1309 Y2.3854  
G01 X-3.1285 Y2.3912  
G01 X-3.1250 Y2.3965  
G01 X-3.1205 Y2.4010  
G01 X-3.1152 Y2.4045  
G01 X-3.1094 Y2.4069  
G01 X-3.1032 Y2.4081  
G01 X-3.0968 Y2.4081  
G01 X-3.0906 Y2.4069  
G01 X-3.0880 Y2.4058  
G01 X-3.0721 Y2.4217  
G01 X-3.0721 Y2.4767  
G01 X-3.0821 Y2.4867  
G01 X-3.0821 Y2.5133  
G01 X-3.0633 Y2.5321  
G01 X-3.0367 Y2.5321  
G01 X-3.0179 Y2.5133  
G01 X-3.0179 Y2.4867  
G01 X-3.0279 Y2.4767  
G01 X-3.0279 Y2.4096  
G01 X-3.0294 Y2.4040  
G01 X-3.0323 Y2.3989  
G01 X-3.0679 Y2.3633  
G01 X-3.0679 Y2.3208  
G01 X-3.0691 Y2.3146  
G01 X-3.0715 Y2.3088  
G01 X-3.0750 Y2.3035  
G01 X-3.0795 Y2.2990  
G01 X-3.0848 Y2.2955  
G01 X-3.0906 Y2.2931  
G01 X-3.0968 Y2.2919  
G01 X-3.1032 Y2.2919  
G01 X-3.1094 Y2.2931  
G01 X-3.1152 Y2.2955  
G01 X-3.1205 Y2.2990  
G01 X-3.1250 Y2.3035  
G00 Z0.1000  
G00 X-2.9250 Y2.3035  
G01 Z-0.0021 F10    
G01 X-2.9285 Y2.3088  F20    
G01 X-2.9309 Y2.3146  
G01 X-2.9321 Y2.3208  
G01 X-2.9321 Y2.3792  
G01 X-2.9309 Y2.3854  
G01 X-2.9285 Y2.3912  
G01 X-2.9250 Y2.3965  
G01 X-2.9205 Y2.4010  
G01 X-2.9152 Y2.4045  
G01 X-2.9094 Y2.4069  
G01 X-2.9032 Y2.4081  
G01 X-2.8968 Y2.4081  
G01 X-2.8906 Y2.4069  
G01 X-2.8848 Y2.4045  
G01 X-2.8795 Y2.4010  
G01 X-2.8750 Y2.3965  
G01 X-2.8715 Y2.3912  
G01 X-2.8691 Y2.3854  
G01 X-2.8679 Y2.3792  
G01 X-2.8679 Y2.3367  
G01 X-2.8158 Y2.2846  
G01 X-2.6842 Y2.2846  
G01 X-2.5221 Y2.4467  
G01 X-2.5221 Y2.4767  
G01 X-2.5321 Y2.4867  
G01 X-2.5321 Y2.5133  
G01 X-2.5133 Y2.5321  
G01 X-2.4867 Y2.5321  
G01 X-2.4679 Y2.5133  
G01 X-2.4679 Y2.4867  
G01 X-2.4779 Y2.4767  
G01 X-2.4779 Y2.4346  
G01 X-2.4794 Y2.4290  
G01 X-2.4823 Y2.4239  
G01 X-2.6573 Y2.2489  
G01 X-2.6614 Y2.2448  
G01 X-2.6665 Y2.2419  
G01 X-2.6721 Y2.2404  
G01 X-2.8279 Y2.2404  
G01 X-2.8335 Y2.2419  
G01 X-2.8386 Y2.2448  
G01 X-2.8880 Y2.2942  
G01 X-2.8906 Y2.2931  
G01 X-2.8968 Y2.2919  
G01 X-2.9032 Y2.2919  
G01 X-2.9094 Y2.2931  
G01 X-2.9152 Y2.2955  
G01 X-2.9205 Y2.2990  
G01 X-2.9250 Y2.3035  
G00 Z0.1000  
G00 X-2.8250 Y2.3035  
G01 Z-0.0021 F10    
G01 X-2.8285 Y2.3088  F20    
G01 X-2.8309 Y2.3146  
G01 X-2.8321 Y2.3208  
G01 X-2.8321 Y2.3792  
G01 X-2.8309 Y2.3854  
G01 X-2.8285 Y2.3912  
G01 X-2.8250 Y2.3965  
G01 X-2.8221 Y2.3993  
G01 X-2.8221 Y2.4908  
G01 X-2.8992 Y2.5679  
G01 X-2.9133 Y2.5679  
G01 X-2.9321 Y2.5867  
G01 X-2.9321 Y2.6133  
G01 X-2.9221 Y2.6233  
G01 X-2.9221 Y2.7267  
G01 X-2.9321 Y2.7367  
G01 X-2.9321 Y2.7633  
G01 X-2.9133 Y2.7821  
G01 X-2.8867 Y2.7821  
G01 X-2.8679 Y2.7633  
G01 X-2.8679 Y2.7367  
G01 X-2.8779 Y2.7267  
G01 X-2.8779 Y2.6233  
G01 X-2.8679 Y2.6133  
G01 X-2.8679 Y2.5992  
G01 X-2.7823 Y2.5136  
G01 X-2.7794 Y2.5085  
G01 X-2.7779 Y2.5029  
G01 X-2.7779 Y2.3993  
G01 X-2.7750 Y2.3965  
G01 X-2.7715 Y2.3912  
G01 X-2.7691 Y2.3854  
G01 X-2.7679 Y2.3792  
G01 X-2.7679 Y2.3208  
G01 X-2.7691 Y2.3146  
G01 X-2.7715 Y2.3088  
G01 X-2.7750 Y2.3035  
G01 X-2.7795 Y2.2990  
G01 X-2.7848 Y2.2955  
G01 X-2.7906 Y2.2931  
G01 X-2.7968 Y2.2919  
G01 X-2.8032 Y2.2919  
G01 X-2.8094 Y2.2931  
G01 X-2.8152 Y2.2955  
G01 X-2.8205 Y2.2990  
G01 X-2.8250 Y2.3035  
G00 Z0.1000  
G00 X-2.7250 Y2.3035  
G01 Z-0.0021 F10    
G01 X-2.7285 Y2.3088  F20    
G01 X-2.7309 Y2.3146  
G01 X-2.7321 Y2.3208  
G01 X-2.7321 Y2.3792  
G01 X-2.7309 Y2.3854  
G01 X-2.7285 Y2.3912  
G01 X-2.7250 Y2.3965  
G01 X-2.7205 Y2.4010  
G01 X-2.7152 Y2.4045  
G01 X-2.7137 Y2.4051  
G01 X-2.7136 Y2.4052  
G01 X-2.5321 Y2.5867  
G01 X-2.5321 Y2.6133  
G01 X-2.5133 Y2.6321  
G01 X-2.4867 Y2.6321  
G01 X-2.4679 Y2.6133  
G01 X-2.4679 Y2.5929  
G01 X-2.4198 Y2.5449  
G01 X-2.4169 Y2.5398  
G01 X-2.4154 Y2.5342  
G01 X-2.4154 Y2.4721  
G01 X-2.4169 Y2.4665  
G01 X-2.4198 Y2.4614  
G01 X-2.4239 Y2.4573  
G01 X-2.4279 Y2.4533  
G01 X-2.4279 Y2.3561  
G01 X-2.4267 Y2.3561  
G01 X-2.3939 Y2.3233  
G01 X-2.3939 Y2.2767  
G01 X-2.4267 Y2.2439  
G01 X-2.4733 Y2.2439  
G01 X-2.5061 Y2.2767  
G01 X-2.5061 Y2.3233  
G01 X-2.4733 Y2.3561  
G01 X-2.4721 Y2.3561  
G01 X-2.4721 Y2.4654  
G01 X-2.4706 Y2.4710  
G01 X-2.4677 Y2.4761  
G01 X-2.4596 Y2.4842  
G01 X-2.4596 Y2.5221  
G01 X-2.4969 Y2.5593  
G01 X-2.6696 Y2.3866  
G01 X-2.6691 Y2.3854  
G01 X-2.6679 Y2.3792  
G01 X-2.6679 Y2.3208  
G01 X-2.6691 Y2.3146  
G01 X-2.6715 Y2.3088  
G01 X-2.6750 Y2.3035  
G01 X-2.6795 Y2.2990  
G01 X-2.6848 Y2.2955  
G01 X-2.6906 Y2.2931  
G01 X-2.6968 Y2.2919  
G01 X-2.7032 Y2.2919  
G01 X-2.7094 Y2.2931  
G01 X-2.7152 Y2.2955  
G01 X-2.7205 Y2.2990  
G01 X-2.7250 Y2.3035  
G00 Z0.1000  
G00 X-2.5321 Y2.7367  
G01 Z-0.0021 F10    
G01 X-2.5321 Y2.7633  F20    
G01 X-2.5133 Y2.7821  
G01 X-2.4992 Y2.7821  
G01 X-2.4636 Y2.8177  
G01 X-2.4585 Y2.8206  
G01 X-2.4529 Y2.8221  
G01 X-2.3821 Y2.8221  
G01 X-2.3821 Y2.8292  
G01 X-2.3809 Y2.8354  
G01 X-2.3785 Y2.8412  
G01 X-2.3750 Y2.8465  
G01 X-2.3705 Y2.8510  
G01 X-2.3652 Y2.8545  
G01 X-2.3594 Y2.8569  
G01 X-2.3532 Y2.8581  
G01 X-2.3468 Y2.8581  
G01 X-2.3406 Y2.8569  
G01 X-2.3348 Y2.8545  
G01 X-2.3295 Y2.8510  
G01 X-2.3250 Y2.8465  
G01 X-2.3215 Y2.8412  
G01 X-2.3191 Y2.8354  
G01 X-2.3179 Y2.8292  
G01 X-2.3179 Y2.7708  
G01 X-2.3191 Y2.7646  
G01 X-2.3215 Y2.7588  
G01 X-2.3250 Y2.7535  
G01 X-2.3295 Y2.7490  
G01 X-2.3348 Y2.7455  
G01 X-2.3406 Y2.7431  
G01 X-2.3468 Y2.7419  
G01 X-2.3532 Y2.7419  
G01 X-2.3594 Y2.7431  
G01 X-2.3652 Y2.7455  
G01 X-2.3705 Y2.7490  
G01 X-2.3750 Y2.7535  
G01 X-2.3785 Y2.7588  
G01 X-2.3809 Y2.7646  
G01 X-2.3821 Y2.7708  
G01 X-2.3821 Y2.7779  
G01 X-2.4408 Y2.7779  
G01 X-2.4679 Y2.7508  
G01 X-2.4679 Y2.7367  
G01 X-2.4867 Y2.7179  
G01 X-2.5133 Y2.7179  
G01 X-2.5321 Y2.7367  
G00 Z0.1000  
G00 X-2.4283 Y2.8779  
G01 Z-0.0021 F10    
G01 X-3.0267 Y2.8779  F20    
G01 X-3.0367 Y2.8679  
G01 X-3.0633 Y2.8679  
G01 X-3.0821 Y2.8867  
G01 X-3.0821 Y2.9133  
G01 X-3.0633 Y2.9321  
G01 X-3.0367 Y2.9321  
G01 X-3.0267 Y2.9221  
G01 X-2.4404 Y2.9221  
G01 X-2.3615 Y3.0011  
G01 X-2.3574 Y3.0052  
G01 X-2.3523 Y3.0081  
G01 X-2.3467 Y3.0096  
G01 X-1.8846 Y3.0096  
G01 X-1.8790 Y3.0081  
G01 X-1.8739 Y3.0052  
G01 X-1.6042 Y2.7355  
G01 X-1.6035 Y2.7356  
G01 X-1.5965 Y2.7356  
G01 X-1.5896 Y2.7343  
G01 X-1.5831 Y2.7316  
G01 X-1.5773 Y2.7277  
G01 X-1.5723 Y2.7227  
G01 X-1.5684 Y2.7169  
G01 X-1.5657 Y2.7104  
G01 X-1.5644 Y2.7035  
G01 X-1.5644 Y2.6965  
G01 X-1.5657 Y2.6896  
G01 X-1.5684 Y2.6831  
G01 X-1.5723 Y2.6773  
G01 X-1.5773 Y2.6723  
G01 X-1.5831 Y2.6684  
G01 X-1.5896 Y2.6657  
G01 X-1.5965 Y2.6644  
G01 X-1.6035 Y2.6644  
G01 X-1.6104 Y2.6657  
G01 X-1.6169 Y2.6684  
G01 X-1.6227 Y2.6723  
G01 X-1.6277 Y2.6773  
G01 X-1.6316 Y2.6831  
G01 X-1.6343 Y2.6896  
G01 X-1.6356 Y2.6965  
G01 X-1.6356 Y2.7035  
G01 X-1.6355 Y2.7042  
G01 X-1.8967 Y2.9654  
G01 X-2.3346 Y2.9654  
G01 X-2.4176 Y2.8823  
G01 X-2.4227 Y2.8794  
G01 X-2.4283 Y2.8779  
G00 Z0.1000  
G00 X-2.1321 Y2.5133  
G01 Z-0.0021 F10    
G01 X-2.1133 Y2.5321  F20    
G01 X-2.0867 Y2.5321  
G01 X-2.0767 Y2.5221  
G01 X-2.0342 Y2.5221  
G01 X-1.9052 Y2.6511  
G01 X-1.9011 Y2.6552  
G01 X-1.8960 Y2.6581  
G01 X-1.8904 Y2.6596  
G01 X-1.8717 Y2.6596  
G01 X-1.8355 Y2.6958  
G01 X-1.8356 Y2.6965  
G01 X-1.8356 Y2.7035  
G01 X-1.8343 Y2.7104  
G01 X-1.8316 Y2.7169  
G01 X-1.8277 Y2.7227  
G01 X-1.8227 Y2.7277  
G01 X-1.8169 Y2.7316  
G01 X-1.8104 Y2.7343  
G01 X-1.8035 Y2.7356  
G01 X-1.7965 Y2.7356  
G01 X-1.7896 Y2.7343  
G01 X-1.7831 Y2.7316  
G01 X-1.7773 Y2.7277  
G01 X-1.7723 Y2.7227  
G01 X-1.7684 Y2.7169  
G01 X-1.7657 Y2.7104  
G01 X-1.7644 Y2.7035  
G01 X-1.7644 Y2.6965  
G01 X-1.7657 Y2.6896  
G01 X-1.7684 Y2.6831  
G01 X-1.7723 Y2.6773  
G01 X-1.7773 Y2.6723  
G01 X-1.7831 Y2.6684  
G01 X-1.7896 Y2.6657  
G01 X-1.7965 Y2.6644  
G01 X-1.8035 Y2.6644  
G01 X-1.8042 Y2.6645  
G01 X-1.8489 Y2.6198  
G01 X-1.8540 Y2.6169  
G01 X-1.8596 Y2.6154  
G01 X-1.8783 Y2.6154  
G01 X-2.0114 Y2.4823  
G01 X-2.0165 Y2.4794  
G01 X-2.0221 Y2.4779  
G01 X-2.0767 Y2.4779  
G01 X-2.0867 Y2.4679  
G01 X-2.1133 Y2.4679  
G01 X-2.1321 Y2.4867  
G01 X-2.1321 Y2.5133  
G00 Z0.1000  
G00 X-2.0177 Y2.4011  
G01 Z-0.0021 F10    
G01 X-1.9427 Y2.4761  F20    
G01 X-1.9386 Y2.4802  
G01 X-1.9335 Y2.4831  
G01 X-1.9279 Y2.4846  
G01 X-1.8596 Y2.4846  
G01 X-1.8540 Y2.4831  
G01 X-1.8489 Y2.4802  
G01 X-1.8042 Y2.4355  
G01 X-1.8035 Y2.4356  
G01 X-1.7965 Y2.4356  
G01 X-1.7896 Y2.4343  
G01 X-1.7831 Y2.4316  
G01 X-1.7773 Y2.4277  
G01 X-1.7723 Y2.4227  
G01 X-1.7684 Y2.4169  
G01 X-1.7657 Y2.4104  
G01 X-1.7644 Y2.4035  
G01 X-1.7644 Y2.3965  
G01 X-1.7657 Y2.3896  
G01 X-1.7684 Y2.3831  
G01 X-1.7723 Y2.3773  
G01 X-1.7773 Y2.3723  
G01 X-1.7831 Y2.3684  
G01 X-1.7896 Y2.3657  
G01 X-1.7965 Y2.3644  
G01 X-1.8035 Y2.3644  
G01 X-1.8104 Y2.3657  
G01 X-1.8169 Y2.3684  
G01 X-1.8227 Y2.3723  
G01 X-1.8277 Y2.3773  
G01 X-1.8316 Y2.3831  
G01 X-1.8343 Y2.3896  
G01 X-1.8356 Y2.3965  
G01 X-1.8356 Y2.4035  
G01 X-1.8355 Y2.4042  
G01 X-1.8717 Y2.4404  
G01 X-1.9158 Y2.4404  
G01 X-1.9779 Y2.3783  
G01 X-1.9779 Y2.0493  
G01 X-1.9750 Y2.0465  
G01 X-1.9715 Y2.0412  
G01 X-1.9691 Y2.0354  
G01 X-1.9679 Y2.0292  
G01 X-1.9679 Y1.9708  
G01 X-1.9691 Y1.9646  
G01 X-1.9715 Y1.9588  
G01 X-1.9750 Y1.9535  
G01 X-1.9795 Y1.9490  
G01 X-1.9848 Y1.9455  
G01 X-1.9906 Y1.9431  
G01 X-1.9968 Y1.9419  
G01 X-2.0032 Y1.9419  
G01 X-2.0094 Y1.9431  
G01 X-2.0152 Y1.9455  
G01 X-2.0205 Y1.9490  
G01 X-2.0250 Y1.9535  
G01 X-2.0285 Y1.9588  
G01 X-2.0309 Y1.9646  
G01 X-2.0321 Y1.9708  
G01 X-2.0321 Y2.0292  
G01 X-2.0309 Y2.0354  
G01 X-2.0285 Y2.0412  
G01 X-2.0250 Y2.0465  
G01 X-2.0221 Y2.0493  
G01 X-2.0221 Y2.3904  
G01 X-2.0206 Y2.3960  
G01 X-2.0177 Y2.4011  
G00 Z0.1000  
G00 X-1.9356 Y2.4035  
G01 Z-0.0021 F10    
G01 X-1.9343 Y2.4104  F20    
G01 X-1.9316 Y2.4169  
G01 X-1.9277 Y2.4227  
G01 X-1.9227 Y2.4277  
G01 X-1.9169 Y2.4316  
G01 X-1.9104 Y2.4343  
G01 X-1.9035 Y2.4356  
G01 X-1.8965 Y2.4356  
G01 X-1.8896 Y2.4343  
G01 X-1.8831 Y2.4316  
G01 X-1.8773 Y2.4277  
G01 X-1.8723 Y2.4227  
G01 X-1.8684 Y2.4169  
G01 X-1.8657 Y2.4104  
G01 X-1.8644 Y2.4035  
G01 X-1.8644 Y2.3965  
G01 X-1.8657 Y2.3896  
G01 X-1.8684 Y2.3831  
G01 X-1.8723 Y2.3773  
G01 X-1.8773 Y2.3723  
G01 X-1.8779 Y2.3719  
G01 X-1.8779 Y2.0493  
G01 X-1.8750 Y2.0465  
G01 X-1.8715 Y2.0412  
G01 X-1.8691 Y2.0354  
G01 X-1.8679 Y2.0292  
G01 X-1.8679 Y1.9708  
G01 X-1.8691 Y1.9646  
G01 X-1.8715 Y1.9588  
G01 X-1.8750 Y1.9535  
G01 X-1.8795 Y1.9490  
G01 X-1.8848 Y1.9455  
G01 X-1.8906 Y1.9431  
G01 X-1.8968 Y1.9419  
G01 X-1.9032 Y1.9419  
G01 X-1.9094 Y1.9431  
G01 X-1.9152 Y1.9455  
G01 X-1.9205 Y1.9490  
G01 X-1.9250 Y1.9535  
G01 X-1.9285 Y1.9588  
G01 X-1.9309 Y1.9646  
G01 X-1.9321 Y1.9708  
G01 X-1.9321 Y2.0292  
G01 X-1.9309 Y2.0354  
G01 X-1.9285 Y2.0412  
G01 X-1.9250 Y2.0465  
G01 X-1.9221 Y2.0493  
G01 X-1.9221 Y2.3719  
G01 X-1.9227 Y2.3723  
G01 X-1.9277 Y2.3773  
G01 X-1.9316 Y2.3831  
G01 X-1.9343 Y2.3896  
G01 X-1.9356 Y2.3965  
G01 X-1.9356 Y2.4035  
G00 Z0.1000  
G00 X-1.7356 Y2.4035  
G01 Z-0.0021 F10    
G01 X-1.7343 Y2.4104  F20    
G01 X-1.7316 Y2.4169  
G01 X-1.7277 Y2.4227  
G01 X-1.7227 Y2.4277  
G01 X-1.7169 Y2.4316  
G01 X-1.7104 Y2.4343  
G01 X-1.7035 Y2.4356  
G01 X-1.6965 Y2.4356  
G01 X-1.6896 Y2.4343  
G01 X-1.6831 Y2.4316  
G01 X-1.6773 Y2.4277  
G01 X-1.6723 Y2.4227  
G01 X-1.6684 Y2.4169  
G01 X-1.6657 Y2.4104  
G01 X-1.6644 Y2.4035  
G01 X-1.6644 Y2.3965  
G01 X-1.6657 Y2.3896  
G01 X-1.6684 Y2.3831  
G01 X-1.6723 Y2.3773  
G01 X-1.6773 Y2.3723  
G01 X-1.6831 Y2.3684  
G01 X-1.6896 Y2.3657  
G01 X-1.6965 Y2.3644  
G01 X-1.7035 Y2.3644  
G01 X-1.7042 Y2.3645  
G01 X-1.7779 Y2.2908  
G01 X-1.7779 Y2.0493  
G01 X-1.7750 Y2.0465  
G01 X-1.7715 Y2.0412  
G01 X-1.7691 Y2.0354  
G01 X-1.7679 Y2.0292  
G01 X-1.7679 Y1.9708  
G01 X-1.7691 Y1.9646  
G01 X-1.7715 Y1.9588  
G01 X-1.7750 Y1.9535  
G01 X-1.7795 Y1.9490  
G01 X-1.7848 Y1.9455  
G01 X-1.7906 Y1.9431  
G01 X-1.7968 Y1.9419  
G01 X-1.8032 Y1.9419  
G01 X-1.8094 Y1.9431  
G01 X-1.8152 Y1.9455  
G01 X-1.8205 Y1.9490  
G01 X-1.8250 Y1.9535  
G01 X-1.8285 Y1.9588  
G01 X-1.8309 Y1.9646  
G01 X-1.8321 Y1.9708  
G01 X-1.8321 Y2.0292  
G01 X-1.8309 Y2.0354  
G01 X-1.8285 Y2.0412  
G01 X-1.8250 Y2.0465  
G01 X-1.8221 Y2.0493  
G01 X-1.8221 Y2.3029  
G01 X-1.8206 Y2.3085  
G01 X-1.8177 Y2.3136  
G01 X-1.7355 Y2.3958  
G01 X-1.7356 Y2.3965  
G01 X-1.7356 Y2.4035  
G00 Z0.1000  
G00 X-1.6821 Y2.2133  
G01 Z-0.0021 F10    
G01 X-1.6633 Y2.2321  F20    
G01 X-1.6367 Y2.2321  
G01 X-1.6179 Y2.2133  
G01 X-1.6179 Y2.1867  
G01 X-1.6279 Y2.1767  
G01 X-1.6279 Y2.0596  
G01 X-1.6294 Y2.0540  
G01 X-1.6323 Y2.0489  
G01 X-1.6679 Y2.0133  
G01 X-1.6679 Y1.9708  
G01 X-1.6691 Y1.9646  
G01 X-1.6715 Y1.9588  
G01 X-1.6750 Y1.9535  
G01 X-1.6795 Y1.9490  
G01 X-1.6848 Y1.9455  
G01 X-1.6906 Y1.9431  
G01 X-1.6968 Y1.9419  
G01 X-1.7032 Y1.9419  
G01 X-1.7094 Y1.9431  
G01 X-1.7152 Y1.9455  
G01 X-1.7205 Y1.9490  
G01 X-1.7250 Y1.9535  
G01 X-1.7285 Y1.9588  
G01 X-1.7309 Y1.9646  
G01 X-1.7321 Y1.9708  
G01 X-1.7321 Y2.0292  
G01 X-1.7309 Y2.0354  
G01 X-1.7285 Y2.0412  
G01 X-1.7250 Y2.0465  
G01 X-1.7205 Y2.0510  
G01 X-1.7152 Y2.0545  
G01 X-1.7094 Y2.0569  
G01 X-1.7032 Y2.0581  
G01 X-1.6968 Y2.0581  
G01 X-1.6906 Y2.0569  
G01 X-1.6880 Y2.0558  
G01 X-1.6721 Y2.0717  
G01 X-1.6721 Y2.1767  
G01 X-1.6821 Y2.1867  
G01 X-1.6821 Y2.2133  
G00 Z0.1000  
G00 X-1.6250 Y2.0465  
G01 Z-0.0021 F10    
G01 X-1.6205 Y2.0510  F20    
G01 X-1.6152 Y2.0545  
G01 X-1.6094 Y2.0569  
G01 X-1.6032 Y2.0581  
G01 X-1.5968 Y2.0581  
G01 X-1.5906 Y2.0569  
G01 X-1.5848 Y2.0545  
G01 X-1.5795 Y2.0510  
G01 X-1.5750 Y2.0465  
G01 X-1.5715 Y2.0412  
G01 X-1.5691 Y2.0354  
G01 X-1.5679 Y2.0292  
G01 X-1.5679 Y1.9708  
G01 X-1.5691 Y1.9646  
G01 X-1.5715 Y1.9588  
G01 X-1.5750 Y1.9535  
G01 X-1.5795 Y1.9490  
G01 X-1.5848 Y1.9455  
G01 X-1.5906 Y1.9431  
G01 X-1.5968 Y1.9419  
G01 X-1.6032 Y1.9419  
G01 X-1.6094 Y1.9431  
G01 X-1.6152 Y1.9455  
G01 X-1.6205 Y1.9490  
G01 X-1.6250 Y1.9535  
G01 X-1.6285 Y1.9588  
G01 X-1.6309 Y1.9646  
G01 X-1.6321 Y1.9708  
G01 X-1.6321 Y2.0292  
G01 X-1.6309 Y2.0354  
G01 X-1.6285 Y2.0412  
G01 X-1.6250 Y2.0465  
G00 Z0.1000  
G00 X-1.5250 Y2.0465  
G01 Z-0.0021 F10    
G01 X-1.5205 Y2.0510  F20    
G01 X-1.5152 Y2.0545  
G01 X-1.5094 Y2.0569  
G01 X-1.5032 Y2.0581  
G01 X-1.4968 Y2.0581  
G01 X-1.4906 Y2.0569  
G01 X-1.4848 Y2.0545  
G01 X-1.4795 Y2.0510  
G01 X-1.4750 Y2.0465  
G01 X-1.4715 Y2.0412  
G01 X-1.4691 Y2.0354  
G01 X-1.4679 Y2.0292  
G01 X-1.4679 Y1.9708  
G01 X-1.4691 Y1.9646  
G01 X-1.4715 Y1.9588  
G01 X-1.4750 Y1.9535  
G01 X-1.4795 Y1.9490  
G01 X-1.4848 Y1.9455  
G01 X-1.4906 Y1.9431  
G01 X-1.4968 Y1.9419  
G01 X-1.5032 Y1.9419  
G01 X-1.5094 Y1.9431  
G01 X-1.5152 Y1.9455  
G01 X-1.5205 Y1.9490  
G01 X-1.5250 Y1.9535  
G01 X-1.5285 Y1.9588  
G01 X-1.5309 Y1.9646  
G01 X-1.5321 Y1.9708  
G01 X-1.5321 Y2.0292  
G01 X-1.5309 Y2.0354  
G01 X-1.5285 Y2.0412  
G01 X-1.5250 Y2.0465  
G00 Z0.1000  
G00 X-1.3250 Y2.0465  
G01 Z-0.0021 F10    
G01 X-1.3205 Y2.0510  F20    
G01 X-1.3152 Y2.0545  
G01 X-1.3094 Y2.0569  
G01 X-1.3032 Y2.0581  
G01 X-1.2968 Y2.0581  
G01 X-1.2906 Y2.0569  
G01 X-1.2848 Y2.0545  
G01 X-1.2795 Y2.0510  
G01 X-1.2750 Y2.0465  
G01 X-1.2715 Y2.0412  
G01 X-1.2691 Y2.0354  
G01 X-1.2679 Y2.0292  
G01 X-1.2679 Y1.9708  
G01 X-1.2691 Y1.9646  
G01 X-1.2715 Y1.9588  
G01 X-1.2750 Y1.9535  
G01 X-1.2795 Y1.9490  
G01 X-1.2848 Y1.9455  
G01 X-1.2906 Y1.9431  
G01 X-1.2968 Y1.9419  
G01 X-1.3032 Y1.9419  
G01 X-1.3094 Y1.9431  
G01 X-1.3152 Y1.9455  
G01 X-1.3205 Y1.9490  
G01 X-1.3250 Y1.9535  
G01 X-1.3285 Y1.9588  
G01 X-1.3309 Y1.9646  
G01 X-1.3321 Y1.9708  
G01 X-1.3321 Y2.0292  
G01 X-1.3309 Y2.0354  
G01 X-1.3285 Y2.0412  
G01 X-1.3250 Y2.0465  
G00 Z0.1000  
G00 X-1.2250 Y2.0465  
G01 Z-0.0021 F10    
G01 X-1.2205 Y2.0510  F20    
G01 X-1.2152 Y2.0545  
G01 X-1.2094 Y2.0569  
G01 X-1.2032 Y2.0581  
G01 X-1.1968 Y2.0581  
G01 X-1.1906 Y2.0569  
G01 X-1.1848 Y2.0545  
G01 X-1.1795 Y2.0510  
G01 X-1.1750 Y2.0465  
G01 X-1.1715 Y2.0412  
G01 X-1.1691 Y2.0354  
G01 X-1.1679 Y2.0292  
G01 X-1.1679 Y1.9708  
G01 X-1.1691 Y1.9646  
G01 X-1.1715 Y1.9588  
G01 X-1.1750 Y1.9535  
G01 X-1.1795 Y1.9490  
G01 X-1.1848 Y1.9455  
G01 X-1.1906 Y1.9431  
G01 X-1.1968 Y1.9419  
G01 X-1.2032 Y1.9419  
G01 X-1.2094 Y1.9431  
G01 X-1.2152 Y1.9455  
G01 X-1.2205 Y1.9490  
G01 X-1.2250 Y1.9535  
G01 X-1.2285 Y1.9588  
G01 X-1.2309 Y1.9646  
G01 X-1.2321 Y1.9708  
G01 X-1.2321 Y2.0292  
G01 X-1.2309 Y2.0354  
G01 X-1.2285 Y2.0412  
G01 X-1.2250 Y2.0465  
G00 Z0.1000  
G00 X-1.1250 Y2.0465  
G01 Z-0.0021 F10    
G01 X-1.1205 Y2.0510  F20    
G01 X-1.1152 Y2.0545  
G01 X-1.1094 Y2.0569  
G01 X-1.1032 Y2.0581  
G01 X-1.0968 Y2.0581  
G01 X-1.0906 Y2.0569  
G01 X-1.0848 Y2.0545  
G01 X-1.0795 Y2.0510  
G01 X-1.0750 Y2.0465  
G01 X-1.0715 Y2.0412  
G01 X-1.0691 Y2.0354  
G01 X-1.0679 Y2.0292  
G01 X-1.0679 Y1.9708  
G01 X-1.0691 Y1.9646  
G01 X-1.0715 Y1.9588  
G01 X-1.0750 Y1.9535  
G01 X-1.0795 Y1.9490  
G01 X-1.0848 Y1.9455  
G01 X-1.0906 Y1.9431  
G01 X-1.0968 Y1.9419  
G01 X-1.1032 Y1.9419  
G01 X-1.1094 Y1.9431  
G01 X-1.1152 Y1.9455  
G01 X-1.1205 Y1.9490  
G01 X-1.1250 Y1.9535  
G01 X-1.1285 Y1.9588  
G01 X-1.1309 Y1.9646  
G01 X-1.1321 Y1.9708  
G01 X-1.1321 Y2.0292  
G01 X-1.1309 Y2.0354  
G01 X-1.1285 Y2.0412  
G01 X-1.1250 Y2.0465  
G00 Z0.1000  
G00 X-1.0250 Y2.0465  
G01 Z-0.0021 F10    
G01 X-1.0205 Y2.0510  F20    
G01 X-1.0152 Y2.0545  
G01 X-1.0094 Y2.0569  
G01 X-1.0032 Y2.0581  
G01 X-0.9968 Y2.0581  
G01 X-0.9906 Y2.0569  
G01 X-0.9848 Y2.0545  
G01 X-0.9795 Y2.0510  
G01 X-0.9750 Y2.0465  
G01 X-0.9715 Y2.0412  
G01 X-0.9691 Y2.0354  
G01 X-0.9679 Y2.0292  
G01 X-0.9679 Y1.9708  
G01 X-0.9691 Y1.9646  
G01 X-0.9715 Y1.9588  
G01 X-0.9750 Y1.9535  
G01 X-0.9795 Y1.9490  
G01 X-0.9848 Y1.9455  
G01 X-0.9906 Y1.9431  
G01 X-0.9968 Y1.9419  
G01 X-1.0032 Y1.9419  
G01 X-1.0094 Y1.9431  
G01 X-1.0152 Y1.9455  
G01 X-1.0205 Y1.9490  
G01 X-1.0250 Y1.9535  
G01 X-1.0285 Y1.9588  
G01 X-1.0309 Y1.9646  
G01 X-1.0321 Y1.9708  
G01 X-1.0321 Y2.0292  
G01 X-1.0309 Y2.0354  
G01 X-1.0285 Y2.0412  
G01 X-1.0250 Y2.0465  
G00 Z0.1000  
G00 X-0.9250 Y2.0465  
G01 Z-0.0021 F10    
G01 X-0.9205 Y2.0510  F20    
G01 X-0.9152 Y2.0545  
G01 X-0.9094 Y2.0569  
G01 X-0.9032 Y2.0581  
G01 X-0.8968 Y2.0581  
G01 X-0.8906 Y2.0569  
G01 X-0.8848 Y2.0545  
G01 X-0.8795 Y2.0510  
G01 X-0.8750 Y2.0465  
G01 X-0.8715 Y2.0412  
G01 X-0.8691 Y2.0354  
G01 X-0.8679 Y2.0292  
G01 X-0.8679 Y1.9708  
G01 X-0.8691 Y1.9646  
G01 X-0.8715 Y1.9588  
G01 X-0.8750 Y1.9535  
G01 X-0.8795 Y1.9490  
G01 X-0.8848 Y1.9455  
G01 X-0.8906 Y1.9431  
G01 X-0.8968 Y1.9419  
G01 X-0.9032 Y1.9419  
G01 X-0.9094 Y1.9431  
G01 X-0.9152 Y1.9455  
G01 X-0.9205 Y1.9490  
G01 X-0.9250 Y1.9535  
G01 X-0.9285 Y1.9588  
G01 X-0.9309 Y1.9646  
G01 X-0.9321 Y1.9708  
G01 X-0.9321 Y2.0292  
G01 X-0.9309 Y2.0354  
G01 X-0.9285 Y2.0412  
G01 X-0.9250 Y2.0465  
G00 Z0.1000  
G00 X-0.8250 Y2.0465  
G01 Z-0.0021 F10    
G01 X-0.8205 Y2.0510  F20    
G01 X-0.8152 Y2.0545  
G01 X-0.8094 Y2.0569  
G01 X-0.8032 Y2.0581  
G01 X-0.7968 Y2.0581  
G01 X-0.7906 Y2.0569  
G01 X-0.7848 Y2.0545  
G01 X-0.7795 Y2.0510  
G01 X-0.7750 Y2.0465  
G01 X-0.7715 Y2.0412  
G01 X-0.7691 Y2.0354  
G01 X-0.7679 Y2.0292  
G01 X-0.7679 Y1.9708  
G01 X-0.7691 Y1.9646  
G01 X-0.7715 Y1.9588  
G01 X-0.7750 Y1.9535  
G01 X-0.7795 Y1.9490  
G01 X-0.7848 Y1.9455  
G01 X-0.7906 Y1.9431  
G01 X-0.7968 Y1.9419  
G01 X-0.8032 Y1.9419  
G01 X-0.8094 Y1.9431  
G01 X-0.8152 Y1.9455  
G01 X-0.8205 Y1.9490  
G01 X-0.8250 Y1.9535  
G01 X-0.8285 Y1.9588  
G01 X-0.8309 Y1.9646  
G01 X-0.8321 Y1.9708  
G01 X-0.8321 Y2.0292  
G01 X-0.8309 Y2.0354  
G01 X-0.8285 Y2.0412  
G01 X-0.8250 Y2.0465  
G00 Z0.1000  
G00 X-0.8467 Y2.2779  
G01 Z-0.0021 F10    
G01 X-0.9007 Y2.2779  F20    
G01 X-0.9035 Y2.2750  
G01 X-0.9088 Y2.2715  
G01 X-0.9146 Y2.2691  
G01 X-0.9208 Y2.2679  
G01 X-0.9792 Y2.2679  
G01 X-0.9854 Y2.2691  
G01 X-0.9912 Y2.2715  
G01 X-0.9965 Y2.2750  
G01 X-1.0010 Y2.2795  
G01 X-1.0045 Y2.2848  
G01 X-1.0069 Y2.2906  
G01 X-1.0081 Y2.2968  
G01 X-1.0081 Y2.3032  
G01 X-1.0069 Y2.3094  
G01 X-1.0045 Y2.3152  
G01 X-1.0010 Y2.3205  
G01 X-0.9965 Y2.3250  
G01 X-0.9912 Y2.3285  
G01 X-0.9854 Y2.3309  
G01 X-0.9792 Y2.3321  
G01 X-0.9208 Y2.3321  
G01 X-0.9146 Y2.3309  
G01 X-0.9088 Y2.3285  
G01 X-0.9035 Y2.3250  
G01 X-0.9007 Y2.3221  
G01 X-0.8346 Y2.3221  
G01 X-0.8290 Y2.3206  
G01 X-0.8239 Y2.3177  
G01 X-0.4658 Y1.9596  
G01 X-0.4342 Y1.9596  
G01 X-0.4096 Y1.9842  
G01 X-0.4096 Y2.0783  
G01 X-0.4260 Y2.0946  
G01 X-0.4267 Y2.0939  
G01 X-0.4733 Y2.0939  
G01 X-0.5061 Y2.1267  
G01 X-0.5061 Y2.1341  
G01 X-0.5217 Y2.1341  
G01 X-0.5273 Y2.1356  
G01 X-0.5324 Y2.1385  
G01 X-0.5365 Y2.1426  
G01 X-0.8177 Y2.4239  
G01 X-0.8206 Y2.4290  
G01 X-0.8221 Y2.4346  
G01 X-0.8221 Y2.5247  
G01 X-0.8250 Y2.5275  
G01 X-0.8285 Y2.5328  
G01 X-0.8309 Y2.5386  
G01 X-0.8321 Y2.5448  
G01 X-0.8321 Y2.6032  
G01 X-0.8309 Y2.6094  
G01 X-0.8285 Y2.6152  
G01 X-0.8250 Y2.6205  
G01 X-0.8205 Y2.6250  
G01 X-0.8152 Y2.6285  
G01 X-0.8094 Y2.6309  
G01 X-0.8032 Y2.6321  
G01 X-0.7968 Y2.6321  
G01 X-0.7906 Y2.6309  
G01 X-0.7848 Y2.6285  
G01 X-0.7795 Y2.6250  
G01 X-0.7750 Y2.6205  
G01 X-0.7715 Y2.6152  
G01 X-0.7691 Y2.6094  
G01 X-0.7679 Y2.6032  
G01 X-0.7679 Y2.5448  
G01 X-0.7691 Y2.5386  
G01 X-0.7715 Y2.5328  
G01 X-0.7750 Y2.5275  
G01 X-0.7779 Y2.5247  
G01 X-0.7779 Y2.4467  
G01 X-0.5096 Y2.1784  
G01 X-0.5010 Y2.1784  
G01 X-0.4733 Y2.2061  
G01 X-0.4267 Y2.2061  
G01 X-0.3939 Y2.1733  
G01 X-0.3939 Y2.1267  
G01 X-0.3946 Y2.1260  
G01 X-0.3698 Y2.1011  
G01 X-0.3669 Y2.0960  
G01 X-0.3654 Y2.0904  
G01 X-0.3654 Y1.9721  
G01 X-0.3669 Y1.9665  
G01 X-0.3698 Y1.9614  
G01 X-0.3739 Y1.9573  
G01 X-0.4114 Y1.9198  
G01 X-0.4165 Y1.9169  
G01 X-0.4221 Y1.9154  
G01 X-0.4779 Y1.9154  
G01 X-0.4835 Y1.9169  
G01 X-0.4886 Y1.9198  
G01 X-0.4927 Y1.9239  
G01 X-0.8467 Y2.2779  
G00 Z0.1000  
G00 X-0.6010 Y2.2795  
G01 Z-0.0021 F10    
G01 X-0.6045 Y2.2848  F20    
G01 X-0.6069 Y2.2906  
G01 X-0.6081 Y2.2968  
G01 X-0.6081 Y2.3032  
G01 X-0.6069 Y2.3094  
G01 X-0.6045 Y2.3152  
G01 X-0.6010 Y2.3205  
G01 X-0.5965 Y2.3250  
G01 X-0.5912 Y2.3285  
G01 X-0.5854 Y2.3309  
G01 X-0.5792 Y2.3321  
G01 X-0.5492 Y2.3321  
G01 X-0.5282 Y2.3531  
G01 X-0.6919 Y2.5168  
G01 X-0.6968 Y2.5159  
G01 X-0.7032 Y2.5159  
G01 X-0.7094 Y2.5171  
G01 X-0.7152 Y2.5195  
G01 X-0.7205 Y2.5230  
G01 X-0.7250 Y2.5275  
G01 X-0.7285 Y2.5328  
G01 X-0.7309 Y2.5386  
G01 X-0.7321 Y2.5448  
G01 X-0.7321 Y2.6032  
G01 X-0.7309 Y2.6094  
G01 X-0.7285 Y2.6152  
G01 X-0.7250 Y2.6205  
G01 X-0.7205 Y2.6250  
G01 X-0.7152 Y2.6285  
G01 X-0.7094 Y2.6309  
G01 X-0.7032 Y2.6321  
G01 X-0.6968 Y2.6321  
G01 X-0.6906 Y2.6309  
G01 X-0.6848 Y2.6285  
G01 X-0.6795 Y2.6250  
G01 X-0.6750 Y2.6205  
G01 X-0.6715 Y2.6152  
G01 X-0.6691 Y2.6094  
G01 X-0.6679 Y2.6032  
G01 X-0.6679 Y2.5554  
G01 X-0.4969 Y2.3844  
G01 X-0.4636 Y2.4177  
G01 X-0.4585 Y2.4206  
G01 X-0.4529 Y2.4221  
G01 X-0.2733 Y2.4221  
G01 X-0.2633 Y2.4321  
G01 X-0.2367 Y2.4321  
G01 X-0.2179 Y2.4133  
G01 X-0.2179 Y2.3867  
G01 X-0.2367 Y2.3679  
G01 X-0.2633 Y2.3679  
G01 X-0.2733 Y2.3779  
G01 X-0.4408 Y2.3779  
G01 X-0.4792 Y2.3395  
G01 X-0.4833 Y2.3354  
G01 X-0.4987 Y2.3200  
G01 X-0.4955 Y2.3152  
G01 X-0.4931 Y2.3094  
G01 X-0.4919 Y2.3032  
G01 X-0.4919 Y2.2968  
G01 X-0.4931 Y2.2906  
G01 X-0.4955 Y2.2848  
G01 X-0.4990 Y2.2795  
G01 X-0.5035 Y2.2750  
G01 X-0.5088 Y2.2715  
G01 X-0.5146 Y2.2691  
G01 X-0.5208 Y2.2679  
G01 X-0.5792 Y2.2679  
G01 X-0.5854 Y2.2691  
G01 X-0.5912 Y2.2715  
G01 X-0.5965 Y2.2750  
G01 X-0.6010 Y2.2795  
G00 Z0.1000  
G00 X-0.6032 Y2.5159  
G01 Z-0.0021 F10    
G01 X-0.6094 Y2.5171  F20    
G01 X-0.6152 Y2.5195  
G01 X-0.6205 Y2.5230  
G01 X-0.6250 Y2.5275  
G01 X-0.6285 Y2.5328  
G01 X-0.6309 Y2.5386  
G01 X-0.6321 Y2.5448  
G01 X-0.6321 Y2.6032  
G01 X-0.6309 Y2.6094  
G01 X-0.6285 Y2.6152  
G01 X-0.6250 Y2.6205  
G01 X-0.6205 Y2.6250  
G01 X-0.6152 Y2.6285  
G01 X-0.6094 Y2.6309  
G01 X-0.6032 Y2.6321  
G01 X-0.5968 Y2.6321  
G01 X-0.5906 Y2.6309  
G01 X-0.5848 Y2.6285  
G01 X-0.5795 Y2.6250  
G01 X-0.5750 Y2.6205  
G01 X-0.5715 Y2.6152  
G01 X-0.5691 Y2.6094  
G01 X-0.5679 Y2.6032  
G01 X-0.5679 Y2.5448  
G01 X-0.5691 Y2.5386  
G01 X-0.5715 Y2.5328  
G01 X-0.5750 Y2.5275  
G01 X-0.5795 Y2.5230  
G01 X-0.5848 Y2.5195  
G01 X-0.5906 Y2.5171  
G01 X-0.5968 Y2.5159  
G01 X-0.6032 Y2.5159  
G00 Z0.1000  
G00 X-0.4321 Y2.5367  
G01 Z-0.0021 F10    
G01 X-0.4321 Y2.5633  F20    
G01 X-0.4133 Y2.5821  
G01 X-0.3867 Y2.5821  
G01 X-0.3767 Y2.5721  
G01 X-0.3096 Y2.5721  
G01 X-0.3040 Y2.5706  
G01 X-0.2989 Y2.5677  
G01 X-0.1739 Y2.4427  
G01 X-0.1698 Y2.4386  
G01 X-0.1669 Y2.4335  
G01 X-0.1654 Y2.4279  
G01 X-0.1654 Y2.1471  
G01 X-0.1669 Y2.1415  
G01 X-0.1698 Y2.1364  
G01 X-0.3154 Y1.9908  
G01 X-0.3154 Y1.9533  
G01 X-0.3169 Y1.9477  
G01 X-0.3198 Y1.9426  
G01 X-0.4198 Y1.8426  
G01 X-0.4239 Y1.8385  
G01 X-0.4290 Y1.8356  
G01 X-0.4346 Y1.8341  
G01 X-0.5439 Y1.8341  
G01 X-0.5439 Y1.8267  
G01 X-0.5767 Y1.7939  
G01 X-0.6233 Y1.7939  
G01 X-0.6240 Y1.7946  
G01 X-0.7364 Y1.6823  
G01 X-0.7415 Y1.6794  
G01 X-0.7471 Y1.6779  
G01 X-0.7679 Y1.6779  
G01 X-0.7679 Y1.6708  
G01 X-0.7691 Y1.6646  
G01 X-0.7715 Y1.6588  
G01 X-0.7750 Y1.6535  
G01 X-0.7795 Y1.6490  
G01 X-0.7848 Y1.6455  
G01 X-0.7906 Y1.6431  
G01 X-0.7968 Y1.6419  
G01 X-0.8032 Y1.6419  
G01 X-0.8094 Y1.6431  
G01 X-0.8152 Y1.6455  
G01 X-0.8205 Y1.6490  
G01 X-0.8250 Y1.6535  
G01 X-0.8285 Y1.6588  
G01 X-0.8309 Y1.6646  
G01 X-0.8321 Y1.6708  
G01 X-0.8321 Y1.7292  
G01 X-0.8309 Y1.7354  
G01 X-0.8285 Y1.7412  
G01 X-0.8250 Y1.7465  
G01 X-0.8205 Y1.7510  
G01 X-0.8152 Y1.7545  
G01 X-0.8094 Y1.7569  
G01 X-0.8032 Y1.7581  
G01 X-0.7968 Y1.7581  
G01 X-0.7906 Y1.7569  
G01 X-0.7848 Y1.7545  
G01 X-0.7795 Y1.7510  
G01 X-0.7750 Y1.7465  
G01 X-0.7715 Y1.7412  
G01 X-0.7691 Y1.7354  
G01 X-0.7679 Y1.7292  
G01 X-0.7679 Y1.7221  
G01 X-0.7592 Y1.7221  
G01 X-0.6554 Y1.8260  
G01 X-0.6561 Y1.8267  
G01 X-0.6561 Y1.8733  
G01 X-0.6233 Y1.9061  
G01 X-0.5767 Y1.9061  
G01 X-0.5490 Y1.8784  
G01 X-0.4467 Y1.8784  
G01 X-0.3596 Y1.9654  
G01 X-0.3596 Y2.0029  
G01 X-0.3581 Y2.0085  
G01 X-0.3552 Y2.0136  
G01 X-0.3511 Y2.0177  
G01 X-0.2096 Y2.1592  
G01 X-0.2096 Y2.4158  
G01 X-0.3217 Y2.5279  
G01 X-0.3767 Y2.5279  
G01 X-0.3867 Y2.5179  
G01 X-0.4133 Y2.5179  
G01 X-0.4321 Y2.5367  
G00 Z0.1000  
G00 X-0.8691 Y2.5386  
G01 Z-0.0021 F10    
G01 X-0.8715 Y2.5328  F20    
G01 X-0.8750 Y2.5275  
G01 X-0.8795 Y2.5230  
G01 X-0.8848 Y2.5195  
G01 X-0.8906 Y2.5171  
G01 X-0.8968 Y2.5159  
G01 X-0.9032 Y2.5159  
G01 X-0.9094 Y2.5171  
G01 X-0.9152 Y2.5195  
G01 X-0.9205 Y2.5230  
G01 X-0.9250 Y2.5275  
G01 X-0.9285 Y2.5328  
G01 X-0.9309 Y2.5386  
G01 X-0.9321 Y2.5448  
G01 X-0.9321 Y2.6032  
G01 X-0.9309 Y2.6094  
G01 X-0.9285 Y2.6152  
G01 X-0.9250 Y2.6205  
G01 X-0.9205 Y2.6250  
G01 X-0.9152 Y2.6285  
G01 X-0.9094 Y2.6309  
G01 X-0.9032 Y2.6321  
G01 X-0.8968 Y2.6321  
G01 X-0.8906 Y2.6309  
G01 X-0.8848 Y2.6285  
G01 X-0.8795 Y2.6250  
G01 X-0.8750 Y2.6205  
G01 X-0.8715 Y2.6152  
G01 X-0.8691 Y2.6094  
G01 X-0.8679 Y2.6032  
G01 X-0.8679 Y2.5448  
G01 X-0.8691 Y2.5386  
G00 Z0.1000  
G00 X-0.8205 Y2.8750  
G01 Z-0.0021 F10    
G01 X-0.8250 Y2.8795  F20    
G01 X-0.8285 Y2.8848  
G01 X-0.8309 Y2.8906  
G01 X-0.8321 Y2.8968  
G01 X-0.8321 Y2.9552  
G01 X-0.8309 Y2.9614  
G01 X-0.8285 Y2.9672  
G01 X-0.8250 Y2.9725  
G01 X-0.8205 Y2.9770  
G01 X-0.8152 Y2.9805  
G01 X-0.8094 Y2.9829  
G01 X-0.8032 Y2.9841  
G01 X-0.7968 Y2.9841  
G01 X-0.7906 Y2.9829  
G01 X-0.7873 Y2.9815  
G01 X-0.7427 Y3.0261  
G01 X-0.7386 Y3.0302  
G01 X-0.7335 Y3.0331  
G01 X-0.7279 Y3.0346  
G01 X-0.3721 Y3.0346  
G01 X-0.3665 Y3.0331  
G01 X-0.3614 Y3.0302  
G01 X-0.1239 Y2.7927  
G01 X-0.1198 Y2.7886  
G01 X-0.1169 Y2.7835  
G01 X-0.1154 Y2.7779  
G01 X-0.1154 Y1.7908  
G01 X-0.1169 Y1.7852  
G01 X-0.1198 Y1.7801  
G01 X-0.3073 Y1.5926  
G01 X-0.3114 Y1.5885  
G01 X-0.3165 Y1.5856  
G01 X-0.3221 Y1.5841  
G01 X-0.4204 Y1.5841  
G01 X-0.4367 Y1.5679  
G01 X-0.4633 Y1.5679  
G01 X-0.4733 Y1.5779  
G01 X-0.8154 Y1.5779  
G01 X-0.8210 Y1.5794  
G01 X-0.8261 Y1.5823  
G01 X-0.8880 Y1.6442  
G01 X-0.8906 Y1.6431  
G01 X-0.8968 Y1.6419  
G01 X-0.9032 Y1.6419  
G01 X-0.9094 Y1.6431  
G01 X-0.9152 Y1.6455  
G01 X-0.9205 Y1.6490  
G01 X-0.9250 Y1.6535  
G01 X-0.9285 Y1.6588  
G01 X-0.9309 Y1.6646  
G01 X-0.9321 Y1.6708  
G01 X-0.9321 Y1.7292  
G01 X-0.9309 Y1.7354  
G01 X-0.9285 Y1.7412  
G01 X-0.9250 Y1.7465  
G01 X-0.9205 Y1.7510  
G01 X-0.9152 Y1.7545  
G01 X-0.9094 Y1.7569  
G01 X-0.9032 Y1.7581  
G01 X-0.8968 Y1.7581  
G01 X-0.8906 Y1.7569  
G01 X-0.8848 Y1.7545  
G01 X-0.8795 Y1.7510  
G01 X-0.8750 Y1.7465  
G01 X-0.8715 Y1.7412  
G01 X-0.8691 Y1.7354  
G01 X-0.8679 Y1.7292  
G01 X-0.8679 Y1.6867  
G01 X-0.8033 Y1.6221  
G01 X-0.4733 Y1.6221  
G01 X-0.4633 Y1.6321  
G01 X-0.4367 Y1.6321  
G01 X-0.4329 Y1.6284  
G01 X-0.3342 Y1.6284  
G01 X-0.1596 Y1.8029  
G01 X-0.1596 Y2.7658  
G01 X-0.3842 Y2.9904  
G01 X-0.7158 Y2.9904  
G01 X-0.7679 Y2.9383  
G01 X-0.7679 Y2.8968  
G01 X-0.7691 Y2.8906  
G01 X-0.7715 Y2.8848  
G01 X-0.7750 Y2.8795  
G01 X-0.7795 Y2.8750  
G01 X-0.7848 Y2.8715  
G01 X-0.7906 Y2.8691  
G01 X-0.7968 Y2.8679  
G01 X-0.8032 Y2.8679  
G01 X-0.8094 Y2.8691  
G01 X-0.8152 Y2.8715  
G01 X-0.8205 Y2.8750  
G00 Z0.1000  
G00 X-0.7205 Y2.8750  
G01 Z-0.0021 F10    
G01 X-0.7250 Y2.8795  F20    
G01 X-0.7285 Y2.8848  
G01 X-0.7309 Y2.8906  
G01 X-0.7321 Y2.8968  
G01 X-0.7321 Y2.9552  
G01 X-0.7309 Y2.9614  
G01 X-0.7285 Y2.9672  
G01 X-0.7250 Y2.9725  
G01 X-0.7205 Y2.9770  
G01 X-0.7152 Y2.9805  
G01 X-0.7094 Y2.9829  
G01 X-0.7032 Y2.9841  
G01 X-0.6968 Y2.9841  
G01 X-0.6906 Y2.9829  
G01 X-0.6848 Y2.9805  
G01 X-0.6795 Y2.9770  
G01 X-0.6750 Y2.9725  
G01 X-0.6715 Y2.9672  
G01 X-0.6691 Y2.9614  
G01 X-0.6679 Y2.9552  
G01 X-0.6679 Y2.8968  
G01 X-0.6691 Y2.8906  
G01 X-0.6715 Y2.8848  
G01 X-0.6750 Y2.8795  
G01 X-0.6795 Y2.8750  
G01 X-0.6848 Y2.8715  
G01 X-0.6906 Y2.8691  
G01 X-0.6968 Y2.8679  
G01 X-0.7032 Y2.8679  
G01 X-0.7094 Y2.8691  
G01 X-0.7152 Y2.8715  
G01 X-0.7205 Y2.8750  
G00 Z0.1000  
G00 X-1.2267 Y2.4061  
G01 Z-0.0021 F10    
G01 X-1.1939 Y2.3733  F20    
G01 X-1.1939 Y2.3267  
G01 X-1.2267 Y2.2939  
G01 X-1.2279 Y2.2939  
G01 X-1.2279 Y2.2233  
G01 X-1.2179 Y2.2133  
G01 X-1.2179 Y2.1867  
G01 X-1.2367 Y2.1679  
G01 X-1.2633 Y2.1679  
G01 X-1.2821 Y2.1867  
G01 X-1.2821 Y2.2133  
G01 X-1.2721 Y2.2233  
G01 X-1.2721 Y2.2939  
G01 X-1.2733 Y2.2939  
G01 X-1.3061 Y2.3267  
G01 X-1.3061 Y2.3733  
G01 X-1.2733 Y2.4061  
G01 X-1.2267 Y2.4061  
G00 Z0.1000  
G00 X-1.6795 Y1.7510  
G01 Z-0.0021 F10    
G01 X-1.6750 Y1.7465  F20    
G01 X-1.6715 Y1.7412  
G01 X-1.6691 Y1.7354  
G01 X-1.6679 Y1.7292  
G01 X-1.6679 Y1.6708  
G01 X-1.6691 Y1.6646  
G01 X-1.6715 Y1.6588  
G01 X-1.6750 Y1.6535  
G01 X-1.6779 Y1.6507  
G01 X-1.6779 Y1.5233  
G01 X-1.6679 Y1.5133  
G01 X-1.6679 Y1.4867  
G01 X-1.6867 Y1.4679  
G01 X-1.6946 Y1.4679  
G01 X-1.8216 Y1.3408  
G01 X-1.8216 Y1.2277  
G01 X-1.8169 Y1.2230  
G01 X-1.8130 Y1.2171  
G01 X-1.8102 Y1.2105  
G01 X-1.8089 Y1.2036  
G01 X-1.8089 Y1.1964  
G01 X-1.8102 Y1.1895  
G01 X-1.8130 Y1.1829  
G01 X-1.8169 Y1.1770  
G01 X-1.8220 Y1.1719  
G01 X-1.8279 Y1.1680  
G01 X-1.8345 Y1.1652  
G01 X-1.8414 Y1.1639  
G01 X-1.8486 Y1.1639  
G01 X-1.8555 Y1.1652  
G01 X-1.8621 Y1.1680  
G01 X-1.8680 Y1.1719  
G01 X-1.8731 Y1.1770  
G01 X-1.8770 Y1.1829  
G01 X-1.8798 Y1.1895  
G01 X-1.8811 Y1.1964  
G01 X-1.8811 Y1.2036  
G01 X-1.8798 Y1.2105  
G01 X-1.8770 Y1.2171  
G01 X-1.8731 Y1.2230  
G01 X-1.8680 Y1.2281  
G01 X-1.8659 Y1.2295  
G01 X-1.8659 Y1.3529  
G01 X-1.8644 Y1.3585  
G01 X-1.8615 Y1.3636  
G01 X-1.7321 Y1.4929  
G01 X-1.7321 Y1.5133  
G01 X-1.7221 Y1.5233  
G01 X-1.7221 Y1.6507  
G01 X-1.7250 Y1.6535  
G01 X-1.7285 Y1.6588  
G01 X-1.7309 Y1.6646  
G01 X-1.7321 Y1.6708  
G01 X-1.7321 Y1.7292  
G01 X-1.7309 Y1.7354  
G01 X-1.7285 Y1.7412  
G01 X-1.7250 Y1.7465  
G01 X-1.7205 Y1.7510  
G01 X-1.7152 Y1.7545  
G01 X-1.7094 Y1.7569  
G01 X-1.7032 Y1.7581  
G01 X-1.6968 Y1.7581  
G01 X-1.6906 Y1.7569  
G01 X-1.6848 Y1.7545  
G01 X-1.6795 Y1.7510  
G00 Z0.1000  
G00 X-1.7795 Y1.7510  
G01 Z-0.0021 F10    
G01 X-1.7750 Y1.7465  F20    
G01 X-1.7715 Y1.7412  
G01 X-1.7691 Y1.7354  
G01 X-1.7679 Y1.7292  
G01 X-1.7679 Y1.6708  
G01 X-1.7691 Y1.6646  
G01 X-1.7715 Y1.6588  
G01 X-1.7750 Y1.6535  
G01 X-1.7795 Y1.6490  
G01 X-1.7848 Y1.6455  
G01 X-1.7906 Y1.6431  
G01 X-1.7968 Y1.6419  
G01 X-1.8032 Y1.6419  
G01 X-1.8094 Y1.6431  
G01 X-1.8152 Y1.6455  
G01 X-1.8205 Y1.6490  
G01 X-1.8250 Y1.6535  
G01 X-1.8285 Y1.6588  
G01 X-1.8309 Y1.6646  
G01 X-1.8321 Y1.6708  
G01 X-1.8321 Y1.7292  
G01 X-1.8309 Y1.7354  
G01 X-1.8285 Y1.7412  
G01 X-1.8250 Y1.7465  
G01 X-1.8205 Y1.7510  
G01 X-1.8152 Y1.7545  
G01 X-1.8094 Y1.7569  
G01 X-1.8032 Y1.7581  
G01 X-1.7968 Y1.7581  
G01 X-1.7906 Y1.7569  
G01 X-1.7848 Y1.7545  
G01 X-1.7795 Y1.7510  
G00 Z0.1000  
G00 X-1.8795 Y1.7510  
G01 Z-0.0021 F10    
G01 X-1.8750 Y1.7465  F20    
G01 X-1.8715 Y1.7412  
G01 X-1.8691 Y1.7354  
G01 X-1.8679 Y1.7292  
G01 X-1.8679 Y1.6708  
G01 X-1.8691 Y1.6646  
G01 X-1.8715 Y1.6588  
G01 X-1.8750 Y1.6535  
G01 X-1.8795 Y1.6490  
G01 X-1.8848 Y1.6455  
G01 X-1.8906 Y1.6431  
G01 X-1.8968 Y1.6419  
G01 X-1.9032 Y1.6419  
G01 X-1.9094 Y1.6431  
G01 X-1.9152 Y1.6455  
G01 X-1.9205 Y1.6490  
G01 X-1.9250 Y1.6535  
G01 X-1.9285 Y1.6588  
G01 X-1.9309 Y1.6646  
G01 X-1.9321 Y1.6708  
G01 X-1.9321 Y1.7292  
G01 X-1.9309 Y1.7354  
G01 X-1.9285 Y1.7412  
G01 X-1.9250 Y1.7465  
G01 X-1.9205 Y1.7510  
G01 X-1.9152 Y1.7545  
G01 X-1.9094 Y1.7569  
G01 X-1.9032 Y1.7581  
G01 X-1.8968 Y1.7581  
G01 X-1.8906 Y1.7569  
G01 X-1.8848 Y1.7545  
G01 X-1.8795 Y1.7510  
G00 Z0.1000  
G00 X-0.3061 Y1.7767  
G01 Z-0.0021 F10    
G01 X-0.3061 Y1.8233  F20    
G01 X-0.2733 Y1.8561  
G01 X-0.2721 Y1.8561  
G01 X-0.2721 Y1.9767  
G01 X-0.2821 Y1.9867  
G01 X-0.2821 Y2.0133  
G01 X-0.2633 Y2.0321  
G01 X-0.2367 Y2.0321  
G01 X-0.2179 Y2.0133  
G01 X-0.2179 Y1.9867  
G01 X-0.2279 Y1.9767  
G01 X-0.2279 Y1.8561  
G01 X-0.2267 Y1.8561  
G01 X-0.1939 Y1.8233  
G01 X-0.1939 Y1.7767  
G01 X-0.2267 Y1.7439  
G01 X-0.2733 Y1.7439  
G01 X-0.3061 Y1.7767  
G00 Z0.1000  
G00 X-3.2250 Y2.5535  
G01 Z-0.0021 F10    
G01 X-3.2295 Y2.5490  F20    
G01 X-3.2348 Y2.5455  
G01 X-3.2406 Y2.5431  
G01 X-3.2468 Y2.5419  
G01 X-3.2532 Y2.5419  
G01 X-3.2594 Y2.5431  
G01 X-3.2652 Y2.5455  
G01 X-3.2705 Y2.5490  
G01 X-3.2750 Y2.5535  
G01 X-3.2785 Y2.5588  
G01 X-3.2809 Y2.5646  
G01 X-3.2821 Y2.5708  
G01 X-3.2821 Y2.6292  
G01 X-3.2809 Y2.6354  
G01 X-3.2785 Y2.6412  
G01 X-3.2750 Y2.6465  
G01 X-3.2705 Y2.6510  
G01 X-3.2652 Y2.6545  
G01 X-3.2594 Y2.6569  
G01 X-3.2532 Y2.6581  
G01 X-3.2468 Y2.6581  
G01 X-3.2406 Y2.6569  
G01 X-3.2348 Y2.6545  
G01 X-3.2295 Y2.6510  
G01 X-3.2250 Y2.6465  
G01 X-3.2215 Y2.6412  
G01 X-3.2191 Y2.6354  
G01 X-3.2179 Y2.6292  
G01 X-3.2179 Y2.5708  
G01 X-3.2191 Y2.5646  
G01 X-3.2215 Y2.5588  
G01 X-3.2250 Y2.5535  
G00 Z0.1000  
G00 X-0.4570 Y0.4102  
G01 Z-0.0021 F10    
G01 X-0.4602 Y0.4070  F20    
G01 X-0.6727 Y0.1945  
G01 X-0.6765 Y0.1920  
G01 X-0.6807 Y0.1902  
G01 X-0.6852 Y0.1894  
G01 X-2.2460 Y0.1894  
G01 X-2.2505 Y0.1902  
G01 X-2.2547 Y0.1920  
G01 X-2.2585 Y0.1945  
G01 X-2.2617 Y0.1977  
G01 X-2.3047 Y0.2407  
G01 X-2.3057 Y0.2402  
G01 X-2.3102 Y0.2394  
G01 X-3.3523 Y0.2394  
G01 X-3.3568 Y0.2402  
G01 X-3.3610 Y0.2420  
G01 X-3.3648 Y0.2445  
G01 X-3.3680 Y0.2477  
G01 X-3.6055 Y0.4852  
G01 X-3.6080 Y0.4890  
G01 X-3.6098 Y0.4932  
G01 X-3.6106 Y0.4977  
G01 X-3.6106 Y2.1335  
G01 X-3.6098 Y2.1380  
G01 X-3.6080 Y2.1422  
G01 X-3.6055 Y2.1460  
G01 X-3.6023 Y2.1492  
G01 X-3.5460 Y2.2055  
G01 X-3.5422 Y2.2080  
G01 X-3.5380 Y2.2098  
G01 X-3.5335 Y2.2106  
G01 X-3.1596 Y2.2106  
G01 X-3.0331 Y2.3371  
G01 X-3.0331 Y2.3793  
G01 X-3.0319 Y2.3857  
