(/Applications/pcbgcode.repo/pcb-gcode.ulp)
(Copyright 2005 - 2012 by John Johnson)
(See readme.txt for licensing terms.)
(This file generated from the board:)
(.../atmega_midi_cv_polysynth/eagle/midi_to_cv.brd)
(Current profile is .../pcbgcode.repo/profiles/mach.pp  )
(This file generated 12/24/14 11:35 PM)
(Settings from pcb-machine.h)
(spindle on time = 0.0000)
(  Tool Size)
(0.0103  )
(spindle speed = 30000.0000)
(tool change at 0.0000  0.0000  3.0000  )
(feed rate xy = F20    )
(feed rate z  = F10    )
(Z Axis Settings)
(  High     Up        Down     Drill)
(0.5000  	0.1000  	-0.0021 	-0.0631 )
(Settings from pcb-defaults.h)
(isolate min = 0.0030)
(isolate max = 0.0050)
(isolate step = 0.0010)
(Generated bottom outlines, bottom drill, )
(Unit of measure: inch)
(Inch Mode)
G20
(Absolute Coordinates)
G90
S30000
G00 Z0.5000  
G00 X0.0000  Y0.0000  
M03
G04 P0.000000
G00 Z0.1000  
G00 X-0.2549 Y0.2313  
G01 Z-0.0021 F10    
G01 X-0.2813 Y0.2049  F20    
G01 X-0.3187 Y0.2049  
G01 X-0.3451 Y0.2313  
G01 X-0.3451 Y0.2687  
G01 X-0.3187 Y0.2951  
G01 X-0.2813 Y0.2951  
G01 X-0.2549 Y0.2687  
G01 X-0.2549 Y0.2313  
G00 Z0.1000  
G00 X-0.3549 Y0.2313  
G01 Z-0.0021 F10    
G01 X-0.3813 Y0.2049  F20    
G01 X-0.4187 Y0.2049  
G01 X-0.4451 Y0.2313  
G01 X-0.4451 Y0.2687  
G01 X-0.4187 Y0.2951  
G01 X-0.3813 Y0.2951  
G01 X-0.3549 Y0.2687  
G01 X-0.3549 Y0.2313  
G00 Z0.1000  
G00 X-0.3549 Y0.3313  
G01 Z-0.0021 F10    
G01 X-0.3813 Y0.3049  F20    
G01 X-0.4187 Y0.3049  
G01 X-0.4451 Y0.3313  
G01 X-0.4451 Y0.3687  
G01 X-0.4187 Y0.3951  
G01 X-0.3813 Y0.3951  
G01 X-0.3549 Y0.3687  
G01 X-0.3549 Y0.3313  
G00 Z0.1000  
G00 X-0.3451 Y0.3313  
G01 Z-0.0021 F10    
G01 X-0.3451 Y0.3687  F20    
G01 X-0.3187 Y0.3951  
G01 X-0.2813 Y0.3951  
G01 X-0.2549 Y0.3687  
G01 X-0.2549 Y0.3313  
G01 X-0.2813 Y0.3049  
G01 X-0.3187 Y0.3049  
G01 X-0.3451 Y0.3313  
G00 Z0.1000  
G00 X-0.4549 Y0.3313  
G01 Z-0.0021 F10    
G01 X-0.4759 Y0.3103  F20    
G01 X-0.4759 Y0.2897  
G01 X-0.4549 Y0.2687  
G01 X-0.4549 Y0.2313  
G01 X-0.4813 Y0.2049  
G01 X-0.5187 Y0.2049  
G01 X-0.5451 Y0.2313  
G01 X-0.5451 Y0.2687  
G01 X-0.5241 Y0.2897  
G01 X-0.5241 Y0.3103  
G01 X-0.5451 Y0.3313  
G01 X-0.5451 Y0.3687  
G01 X-0.5382 Y0.3757  
G01 X-0.5693 Y0.4440  
G01 X-0.6636 Y0.5101  
G01 X-0.6654 Y0.5112  
G01 X-0.6656 Y0.5114  
G01 X-0.6658 Y0.5116  
G01 X-0.6673 Y0.5131  
G01 X-0.6800 Y0.5259  
G01 X-0.7924 Y0.5259  
G01 X-0.7970 Y0.5268  
G01 X-0.8014 Y0.5286  
G01 X-0.8054 Y0.5312  
G01 X-0.8088 Y0.5346  
G01 X-1.0288 Y0.7546  
G01 X-1.0314 Y0.7586  
G01 X-1.0332 Y0.7630  
G01 X-1.0341 Y0.7676  
G01 X-1.0341 Y0.9800  
G01 X-1.0779 Y1.0238  
G01 X-1.0782 Y1.0235  
G01 X-1.0838 Y1.0197  
G01 X-1.0900 Y1.0172  
G01 X-1.0966 Y1.0159  
G01 X-1.1554 Y1.0159  
G01 X-1.1620 Y1.0172  
G01 X-1.1682 Y1.0197  
G01 X-1.1738 Y1.0235  
G01 X-1.1785 Y1.0282  
G01 X-1.1823 Y1.0338  
G01 X-1.1848 Y1.0400  
G01 X-1.1861 Y1.0466  
G01 X-1.1861 Y1.0534  
G01 X-1.1848 Y1.0600  
G01 X-1.1823 Y1.0662  
G01 X-1.1785 Y1.0718  
G01 X-1.1738 Y1.0765  
G01 X-1.1682 Y1.0803  
G01 X-1.1620 Y1.0828  
G01 X-1.1554 Y1.0841  
G01 X-1.0966 Y1.0841  
G01 X-1.0900 Y1.0828  
G01 X-1.0838 Y1.0803  
G01 X-1.0782 Y1.0765  
G01 X-1.0779 Y1.0762  
G01 X-0.9788 Y1.1754  
G01 X-0.9754 Y1.1788  
G01 X-0.9714 Y1.1814  
G01 X-0.9670 Y1.1832  
G01 X-0.9624 Y1.1841  
G01 X-0.8107 Y1.1841  
G01 X-0.8111 Y1.1868  
G01 X-0.8111 Y1.1932  
G01 X-0.8101 Y1.1996  
G01 X-0.8081 Y1.2058  
G01 X-0.8052 Y1.2116  
G01 X-0.8014 Y1.2168  
G01 X-0.7968 Y1.2214  
G01 X-0.7916 Y1.2252  
G01 X-0.7858 Y1.2281  
G01 X-0.7796 Y1.2301  
G01 X-0.7732 Y1.2311  
G01 X-0.7668 Y1.2311  
G01 X-0.7604 Y1.2301  
G01 X-0.7542 Y1.2281  
G01 X-0.7484 Y1.2252  
G01 X-0.7432 Y1.2214  
G01 X-0.7386 Y1.2168  
G01 X-0.7367 Y1.2141  
G01 X-0.7100 Y1.2141  
G01 X-0.6688 Y1.2554  
G01 X-0.6654 Y1.2588  
G01 X-0.6614 Y1.2614  
G01 X-0.6570 Y1.2632  
G01 X-0.6524 Y1.2641  
G01 X-0.5200 Y1.2641  
G01 X-0.4788 Y1.3054  
G01 X-0.4754 Y1.3088  
G01 X-0.4714 Y1.3114  
G01 X-0.4670 Y1.3132  
G01 X-0.4624 Y1.3141  
G01 X-0.3876 Y1.3141  
G01 X-0.3830 Y1.3132  
G01 X-0.3786 Y1.3114  
G01 X-0.3746 Y1.3088  
G01 X-0.3712 Y1.3054  
G01 X-0.3686 Y1.3014  
G01 X-0.3668 Y1.2970  
G01 X-0.3659 Y1.2924  
G01 X-0.3659 Y1.2900  
G01 X-0.3646 Y1.2888  
G01 X-0.3612 Y1.2854  
G01 X-0.3586 Y1.2814  
G01 X-0.3568 Y1.2770  
G01 X-0.3559 Y1.2724  
G01 X-0.3559 Y1.1141  
G01 X-0.2600 Y1.1141  
G01 X-0.2341 Y1.1400  
G01 X-0.2341 Y1.4900  
G01 X-0.4225 Y1.6783  
G01 X-0.5385 Y1.7093  
G01 X-0.5409 Y1.6839  
G01 X-0.5409 Y1.6826  
G01 X-0.5411 Y1.6815  
G01 X-0.5412 Y1.6804  
G01 X-0.5415 Y1.6792  
G01 X-0.5418 Y1.6780  
G01 X-0.5422 Y1.6769  
G01 X-0.5425 Y1.6759  
G01 X-0.5431 Y1.6747  
G01 X-0.5436 Y1.6736  
G01 X-0.5442 Y1.6726  
G01 X-0.5447 Y1.6717  
G01 X-0.5455 Y1.6707  
G01 X-0.5462 Y1.6696  
G01 X-0.5470 Y1.6688  
G01 X-0.5477 Y1.6680  
G01 X-0.5487 Y1.6671  
G01 X-0.6446 Y1.5712  
G01 X-0.6486 Y1.5686  
G01 X-0.6530 Y1.5668  
G01 X-0.6576 Y1.5659  
G01 X-0.7167 Y1.5659  
G01 X-0.7186 Y1.5632  
G01 X-0.7232 Y1.5586  
G01 X-0.7284 Y1.5548  
G01 X-0.7342 Y1.5519  
G01 X-0.7404 Y1.5499  
G01 X-0.7468 Y1.5489  
G01 X-0.7532 Y1.5489  
G01 X-0.7596 Y1.5499  
G01 X-0.7658 Y1.5519  
G01 X-0.7716 Y1.5548  
G01 X-0.7768 Y1.5586  
G01 X-0.7814 Y1.5632  
G01 X-0.7833 Y1.5659  
G01 X-0.8300 Y1.5659  
G01 X-0.8946 Y1.5012  
G01 X-0.8986 Y1.4986  
G01 X-0.9030 Y1.4968  
G01 X-0.9076 Y1.4959  
G01 X-0.9500 Y1.4959  
G01 X-0.9646 Y1.4812  
G01 X-0.9686 Y1.4786  
G01 X-0.9730 Y1.4768  
G01 X-0.9776 Y1.4759  
G01 X-1.5000 Y1.4759  
G01 X-1.5258 Y1.4501  
G01 X-1.5235 Y1.4478  
G01 X-1.5197 Y1.4422  
G01 X-1.5172 Y1.4360  
G01 X-1.5159 Y1.4294  
G01 X-1.5159 Y1.3706  
G01 X-1.5172 Y1.3640  
G01 X-1.5197 Y1.3578  
G01 X-1.5235 Y1.3522  
G01 X-1.5259 Y1.3499  
G01 X-1.5259 Y1.2741  
G01 X-1.5159 Y1.2641  
G01 X-1.5159 Y1.2359  
G01 X-1.5359 Y1.2159  
G01 X-1.5641 Y1.2159  
G01 X-1.5841 Y1.2359  
G01 X-1.5841 Y1.2641  
G01 X-1.5741 Y1.2741  
G01 X-1.5741 Y1.3499  
G01 X-1.5765 Y1.3522  
G01 X-1.5803 Y1.3578  
G01 X-1.5828 Y1.3640  
G01 X-1.5841 Y1.3706  
G01 X-1.5841 Y1.4294  
G01 X-1.5828 Y1.4360  
G01 X-1.5803 Y1.4422  
G01 X-1.5765 Y1.4478  
G01 X-1.5741 Y1.4501  
G01 X-1.5741 Y1.4624  
G01 X-1.5732 Y1.4670  
G01 X-1.5714 Y1.4714  
G01 X-1.5688 Y1.4754  
G01 X-1.5288 Y1.5154  
G01 X-1.5254 Y1.5188  
G01 X-1.5214 Y1.5214  
G01 X-1.5170 Y1.5232  
G01 X-1.5124 Y1.5241  
G01 X-0.9900 Y1.5241  
G01 X-0.9788 Y1.5354  
G01 X-0.9754 Y1.5388  
G01 X-0.9714 Y1.5414  
G01 X-0.9670 Y1.5432  
G01 X-0.9624 Y1.5441  
G01 X-0.9200 Y1.5441  
G01 X-0.8554 Y1.6088  
G01 X-0.8514 Y1.6114  
G01 X-0.8470 Y1.6132  
G01 X-0.8424 Y1.6141  
G01 X-0.7833 Y1.6141  
G01 X-0.7814 Y1.6168  
G01 X-0.7768 Y1.6214  
G01 X-0.7716 Y1.6252  
G01 X-0.7658 Y1.6281  
G01 X-0.7596 Y1.6301  
G01 X-0.7532 Y1.6311  
G01 X-0.7468 Y1.6311  
G01 X-0.7404 Y1.6301  
G01 X-0.7342 Y1.6281  
G01 X-0.7284 Y1.6252  
G01 X-0.7232 Y1.6214  
G01 X-0.7186 Y1.6168  
G01 X-0.7167 Y1.6141  
G01 X-0.6700 Y1.6141  
G01 X-0.5883 Y1.6959  
G01 X-0.5863 Y1.7180  
G01 X-0.5941 Y1.7259  
G01 X-0.5941 Y1.7541  
G01 X-0.5741 Y1.7741  
G01 X-0.5734 Y1.7762  
G01 X-0.5732 Y1.7770  
G01 X-0.5726 Y1.7785  
G01 X-0.5722 Y1.7799  
G01 X-0.5717 Y1.7806  
G01 X-0.5714 Y1.7814  
G01 X-0.5706 Y1.7827  
G01 X-0.5698 Y1.7840  
G01 X-0.5692 Y1.7847  
G01 X-0.5688 Y1.7854  
G01 X-0.5677 Y1.7865  
G01 X-0.5667 Y1.7876  
G01 X-0.5660 Y1.7881  
G01 X-0.5141 Y1.8400  
G01 X-0.5141 Y1.8624  
G01 X-0.5311 Y1.8624  
G01 X-0.5341 Y1.8636  
G01 X-0.5364 Y1.8659  
G01 X-0.5376 Y1.8689  
G01 X-0.5376 Y1.9035  
G01 X-0.5688 Y1.9346  
G01 X-0.5714 Y1.9386  
G01 X-0.5732 Y1.9430  
G01 X-0.5741 Y1.9476  
G01 X-0.5741 Y1.9700  
G01 X-0.5800 Y1.9759  
G01 X-1.1300 Y1.9759  
G01 X-1.1684 Y1.9375  
G01 X-1.1659 Y1.9364  
G01 X-1.1636 Y1.9341  
G01 X-1.1624 Y1.9311  
G01 X-1.1624 Y1.8689  
G01 X-1.1636 Y1.8659  
G01 X-1.1659 Y1.8636  
G01 X-1.1689 Y1.8624  
G01 X-1.2311 Y1.8624  
G01 X-1.2341 Y1.8636  
G01 X-1.2364 Y1.8659  
G01 X-1.2376 Y1.8689  
G01 X-1.2376 Y1.9035  
G01 X-1.3100 Y1.9759  
G01 X-1.5100 Y1.9759  
G01 X-1.5894 Y1.8965  
G01 X-1.5889 Y1.8932  
G01 X-1.5889 Y1.8868  
G01 X-1.5899 Y1.8804  
G01 X-1.5919 Y1.8742  
G01 X-1.5948 Y1.8684  
G01 X-1.5986 Y1.8632  
G01 X-1.6032 Y1.8586  
G01 X-1.6084 Y1.8548  
G01 X-1.6142 Y1.8519  
G01 X-1.6204 Y1.8499  
G01 X-1.6268 Y1.8489  
G01 X-1.6332 Y1.8489  
G01 X-1.6396 Y1.8499  
G01 X-1.6458 Y1.8519  
G01 X-1.6516 Y1.8548  
G01 X-1.6568 Y1.8586  
G01 X-1.6614 Y1.8632  
G01 X-1.6652 Y1.8684  
G01 X-1.6681 Y1.8742  
G01 X-1.6701 Y1.8804  
G01 X-1.6711 Y1.8868  
G01 X-1.6711 Y1.8932  
G01 X-1.6701 Y1.8996  
G01 X-1.6681 Y1.9058  
G01 X-1.6652 Y1.9116  
G01 X-1.6614 Y1.9168  
G01 X-1.6568 Y1.9214  
G01 X-1.6516 Y1.9252  
G01 X-1.6458 Y1.9281  
G01 X-1.6396 Y1.9301  
G01 X-1.6332 Y1.9311  
G01 X-1.6268 Y1.9311  
G01 X-1.6235 Y1.9306  
G01 X-1.5388 Y2.0154  
G01 X-1.5354 Y2.0188  
G01 X-1.5314 Y2.0214  
G01 X-1.5270 Y2.0232  
G01 X-1.5224 Y2.0241  
G01 X-1.2976 Y2.0241  
G01 X-1.2930 Y2.0232  
G01 X-1.2886 Y2.0214  
G01 X-1.2846 Y2.0188  
G01 X-1.2198 Y1.9539  
G01 X-1.2188 Y1.9554  
G01 X-1.1588 Y2.0154  
G01 X-1.1554 Y2.0188  
G01 X-1.1514 Y2.0214  
G01 X-1.1470 Y2.0232  
G01 X-1.1424 Y2.0241  
G01 X-0.5676 Y2.0241  
G01 X-0.5630 Y2.0232  
G01 X-0.5586 Y2.0214  
G01 X-0.5546 Y2.0188  
G01 X-0.5346 Y1.9988  
G01 X-0.5312 Y1.9954  
G01 X-0.5286 Y1.9914  
G01 X-0.5268 Y1.9870  
G01 X-0.5259 Y1.9824  
G01 X-0.5259 Y1.9600  
G01 X-0.5035 Y1.9376  
G01 X-0.4689 Y1.9376  
G01 X-0.4659 Y1.9364  
G01 X-0.4636 Y1.9341  
G01 X-0.4624 Y1.9311  
G01 X-0.4624 Y1.8689  
G01 X-0.4636 Y1.8659  
G01 X-0.4659 Y1.8636  
G01 X-0.4659 Y1.8276  
G01 X-0.4668 Y1.8230  
G01 X-0.4686 Y1.8186  
G01 X-0.4712 Y1.8146  
G01 X-0.4746 Y1.8112  
G01 X-0.5288 Y1.7571  
G01 X-0.5282 Y1.7565  
G01 X-0.4045 Y1.7235  
G01 X-0.4030 Y1.7232  
G01 X-0.4022 Y1.7229  
G01 X-0.4015 Y1.7227  
G01 X-0.4000 Y1.7220  
G01 X-0.3986 Y1.7214  
G01 X-0.3979 Y1.7210  
G01 X-0.3972 Y1.7206  
G01 X-0.3959 Y1.7196  
G01 X-0.3946 Y1.7188  
G01 X-0.3941 Y1.7182  
G01 X-0.3934 Y1.7177  
G01 X-0.3924 Y1.7165  
G01 X-0.1912 Y1.5154  
G01 X-0.1886 Y1.5114  
G01 X-0.1868 Y1.5070  
G01 X-0.1859 Y1.5024  
G01 X-0.1859 Y1.1276  
G01 X-0.1868 Y1.1230  
G01 X-0.1886 Y1.1186  
G01 X-0.1912 Y1.1146  
G01 X-0.1946 Y1.1112  
G01 X-0.2346 Y1.0712  
G01 X-0.2386 Y1.0686  
G01 X-0.2430 Y1.0668  
G01 X-0.2476 Y1.0659  
G01 X-0.3724 Y1.0659  
G01 X-0.3770 Y1.0668  
G01 X-0.3814 Y1.0686  
G01 X-0.3854 Y1.0712  
G01 X-0.3888 Y1.0746  
G01 X-0.3988 Y1.0846  
G01 X-0.4014 Y1.0886  
G01 X-0.4032 Y1.0930  
G01 X-0.4041 Y1.0976  
G01 X-0.4041 Y1.2600  
G01 X-0.4088 Y1.2646  
G01 X-0.4096 Y1.2659  
G01 X-0.4500 Y1.2659  
G01 X-0.4946 Y1.2212  
G01 X-0.4986 Y1.2186  
G01 X-0.5030 Y1.2168  
G01 X-0.5076 Y1.2159  
G01 X-0.6400 Y1.2159  
G01 X-0.6812 Y1.1746  
G01 X-0.6846 Y1.1712  
G01 X-0.6886 Y1.1686  
G01 X-0.6930 Y1.1668  
G01 X-0.6976 Y1.1659  
G01 X-0.7367 Y1.1659  
G01 X-0.7386 Y1.1632  
G01 X-0.7432 Y1.1586  
G01 X-0.7484 Y1.1548  
G01 X-0.7542 Y1.1519  
G01 X-0.7604 Y1.1499  
G01 X-0.7668 Y1.1489  
G01 X-0.7732 Y1.1489  
G01 X-0.7765 Y1.1494  
G01 X-0.7812 Y1.1446  
G01 X-0.7846 Y1.1412  
G01 X-0.7886 Y1.1386  
G01 X-0.7930 Y1.1368  
G01 X-0.7976 Y1.1359  
G01 X-0.9500 Y1.1359  
G01 X-1.0358 Y1.0500  
G01 X-0.9946 Y1.0088  
G01 X-0.9912 Y1.0054  
G01 X-0.9886 Y1.0014  
G01 X-0.9868 Y0.9970  
G01 X-0.9859 Y0.9924  
G01 X-0.9859 Y0.7800  
G01 X-0.7800 Y0.5741  
G01 X-0.6676 Y0.5741  
G01 X-0.6630 Y0.5732  
G01 X-0.6586 Y0.5714  
G01 X-0.6546 Y0.5688  
G01 X-0.6344 Y0.5486  
G01 X-0.5367 Y0.4802  
G01 X-0.5353 Y0.4793  
G01 X-0.5348 Y0.4788  
G01 X-0.5342 Y0.4784  
G01 X-0.5330 Y0.4772  
G01 X-0.5318 Y0.4760  
G01 X-0.5314 Y0.4755  
G01 X-0.5309 Y0.4750  
G01 X-0.5300 Y0.4735  
G01 X-0.5290 Y0.4722  
G01 X-0.5287 Y0.4715  
G01 X-0.5284 Y0.4710  
G01 X-0.5277 Y0.4694  
G01 X-0.5081 Y0.4261  
G01 X-0.4588 Y0.4754  
G01 X-0.4554 Y0.4788  
G01 X-0.4514 Y0.4814  
G01 X-0.4470 Y0.4832  
G01 X-0.4424 Y0.4841  
G01 X-0.2800 Y0.4841  
G01 X-0.2241 Y0.5400  
G01 X-0.2241 Y0.6900  
G01 X-0.3000 Y0.7659  
G01 X-0.3141 Y0.7659  
G01 X-0.3341 Y0.7859  
G01 X-0.3341 Y0.8141  
G01 X-0.3141 Y0.8341  
G01 X-0.2859 Y0.8341  
G01 X-0.2659 Y0.8141  
G01 X-0.2659 Y0.8000  
G01 X-0.1812 Y0.7154  
G01 X-0.1786 Y0.7114  
G01 X-0.1768 Y0.7070  
G01 X-0.1759 Y0.7024  
G01 X-0.1759 Y0.5276  
G01 X-0.1768 Y0.5230  
G01 X-0.1786 Y0.5186  
G01 X-0.1812 Y0.5146  
G01 X-0.1846 Y0.5112  
G01 X-0.2512 Y0.4446  
G01 X-0.2546 Y0.4412  
G01 X-0.2586 Y0.4386  
G01 X-0.2630 Y0.4368  
G01 X-0.2676 Y0.4359  
G01 X-0.4300 Y0.4359  
G01 X-0.4759 Y0.3900  
G01 X-0.4759 Y0.3897  
G01 X-0.4549 Y0.3687  
G01 X-0.4549 Y0.3313  
G00 Z0.1000  
G00 X-0.5549 Y0.3313  
G01 Z-0.0021 F10    
G01 X-0.5759 Y0.3103  F20    
G01 X-0.5759 Y0.2897  
G01 X-0.5549 Y0.2687  
G01 X-0.5549 Y0.2313  
G01 X-0.5759 Y0.2103  
G01 X-0.5759 Y0.0676  
G01 X-0.5768 Y0.0630  
G01 X-0.5786 Y0.0586  
G01 X-0.5812 Y0.0546  
G01 X-0.5846 Y0.0512  
G01 X-0.5886 Y0.0486  
G01 X-0.5930 Y0.0468  
G01 X-0.5976 Y0.0459  
G01 X-3.5124 Y0.0459  
G01 X-3.5170 Y0.0468  
G01 X-3.5214 Y0.0486  
G01 X-3.5254 Y0.0512  
G01 X-3.5288 Y0.0546  
G01 X-3.7288 Y0.2546  
G01 X-3.7314 Y0.2586  
G01 X-3.7332 Y0.2630  
G01 X-3.7341 Y0.2676  
G01 X-3.7341 Y0.8924  
G01 X-3.7332 Y0.8970  
G01 X-3.7314 Y0.9014  
G01 X-3.7288 Y0.9054  
G01 X-3.7254 Y0.9088  
G01 X-3.5992 Y1.0350  
G01 X-3.7288 Y1.1646  
G01 X-3.7314 Y1.1686  
G01 X-3.7332 Y1.1730  
G01 X-3.7341 Y1.1776  
G01 X-3.7341 Y1.6124  
G01 X-3.7332 Y1.6170  
G01 X-3.7314 Y1.6214  
G01 X-3.7288 Y1.6254  
G01 X-3.7254 Y1.6288  
G01 X-3.7041 Y1.6500  
G01 X-3.7041 Y2.1724  
G01 X-3.7032 Y2.1770  
G01 X-3.7014 Y2.1814  
G01 X-3.6988 Y2.1854  
G01 X-3.6954 Y2.1888  
G01 X-3.6154 Y2.2688  
G01 X-3.6114 Y2.2714  
G01 X-3.6070 Y2.2732  
G01 X-3.6024 Y2.2741  
G01 X-3.3741 Y2.2741  
G01 X-3.3741 Y2.3100  
G01 X-3.4400 Y2.3759  
G01 X-3.6124 Y2.3759  
G01 X-3.6170 Y2.3768  
G01 X-3.6214 Y2.3786  
G01 X-3.6254 Y2.3812  
G01 X-3.6288 Y2.3846  
G01 X-3.6314 Y2.3886  
G01 X-3.6332 Y2.3930  
G01 X-3.6341 Y2.3976  
G01 X-3.6341 Y2.9124  
G01 X-3.6332 Y2.9170  
G01 X-3.6314 Y2.9214  
G01 X-3.6288 Y2.9254  
G01 X-3.5088 Y3.0454  
G01 X-3.5054 Y3.0488  
G01 X-3.5014 Y3.0514  
G01 X-3.4970 Y3.0532  
G01 X-3.4924 Y3.0541  
G01 X-2.3476 Y3.0541  
G01 X-2.3430 Y3.0532  
G01 X-2.3386 Y3.0514  
G01 X-2.3346 Y3.0488  
G01 X-2.3185 Y3.0326  
G01 X-2.2586 Y3.0526  
G01 X-2.2574 Y3.0531  
G01 X-2.2564 Y3.0533  
G01 X-2.2554 Y3.0537  
G01 X-2.2540 Y3.0538  
G01 X-2.1477 Y3.0766  
G01 X-2.1452 Y3.0816  
G01 X-2.1414 Y3.0868  
G01 X-2.1368 Y3.0914  
G01 X-2.1316 Y3.0952  
G01 X-2.1258 Y3.0981  
G01 X-2.1196 Y3.1001  
G01 X-2.1132 Y3.1011  
G01 X-2.1068 Y3.1011  
G01 X-2.1004 Y3.1001  
G01 X-2.0942 Y3.0981  
G01 X-2.0884 Y3.0952  
G01 X-2.0832 Y3.0914  
G01 X-2.0786 Y3.0868  
G01 X-2.0748 Y3.0816  
G01 X-2.0719 Y3.0758  
G01 X-2.0699 Y3.0696  
G01 X-2.0689 Y3.0632  
G01 X-2.0689 Y3.0568  
G01 X-2.0699 Y3.0504  
G01 X-2.0719 Y3.0442  
G01 X-2.0748 Y3.0384  
G01 X-2.0786 Y3.0332  
G01 X-2.0832 Y3.0286  
G01 X-2.0884 Y3.0248  
G01 X-2.0942 Y3.0219  
G01 X-2.1004 Y3.0199  
G01 X-2.1068 Y3.0189  
G01 X-2.1132 Y3.0189  
G01 X-2.1196 Y3.0199  
G01 X-2.1258 Y3.0219  
G01 X-2.1316 Y3.0248  
G01 X-2.1368 Y3.0286  
G01 X-2.1376 Y3.0294  
G01 X-2.2436 Y3.0067  
G01 X-2.2803 Y2.9944  
G01 X-2.2346 Y2.9488  
G01 X-2.2312 Y2.9454  
G01 X-2.2286 Y2.9414  
G01 X-2.2268 Y2.9370  
G01 X-2.2259 Y2.9324  
G01 X-2.2259 Y2.6241  
G01 X-2.2235 Y2.6218  
G01 X-2.2197 Y2.6162  
G01 X-2.2172 Y2.6100  
G01 X-2.2159 Y2.6034  
G01 X-2.2159 Y2.5966  
G01 X-2.2172 Y2.5900  
G01 X-2.2197 Y2.5838  
G01 X-2.2235 Y2.5782  
G01 X-2.2282 Y2.5735  
G01 X-2.2338 Y2.5697  
G01 X-2.2400 Y2.5672  
G01 X-2.2466 Y2.5659  
G01 X-2.2534 Y2.5659  
G01 X-2.2600 Y2.5672  
G01 X-2.2662 Y2.5697  
G01 X-2.2718 Y2.5735  
G01 X-2.2765 Y2.5782  
G01 X-2.2803 Y2.5838  
G01 X-2.2828 Y2.5900  
G01 X-2.2841 Y2.5966  
G01 X-2.2841 Y2.6034  
G01 X-2.2828 Y2.6100  
G01 X-2.2803 Y2.6162  
G01 X-2.2765 Y2.6218  
G01 X-2.2741 Y2.6241  
G01 X-2.2741 Y2.9200  
G01 X-2.3410 Y2.9869  
G01 X-2.3417 Y2.9874  
G01 X-2.3427 Y2.9885  
G01 X-2.3438 Y2.9896  
G01 X-2.3600 Y3.0059  
G01 X-3.4800 Y3.0059  
G01 X-3.5859 Y2.9000  
G01 X-3.5859 Y2.4241  
G01 X-3.4276 Y2.4241  
G01 X-3.4230 Y2.4232  
G01 X-3.4186 Y2.4214  
G01 X-3.4146 Y2.4188  
G01 X-3.4112 Y2.4154  
G01 X-3.3312 Y2.3354  
G01 X-3.3286 Y2.3314  
G01 X-3.3268 Y2.3270  
G01 X-3.3259 Y2.3224  
G01 X-3.3259 Y2.2741  
G01 X-3.3235 Y2.2718  
G01 X-3.3197 Y2.2662  
G01 X-3.3172 Y2.2600  
G01 X-3.3159 Y2.2534  
G01 X-3.3159 Y2.2466  
G01 X-3.3172 Y2.2400  
G01 X-3.3197 Y2.2338  
G01 X-3.3235 Y2.2282  
G01 X-3.3282 Y2.2235  
G01 X-3.3338 Y2.2197  
G01 X-3.3400 Y2.2172  
G01 X-3.3466 Y2.2159  
G01 X-3.3534 Y2.2159  
G01 X-3.3600 Y2.2172  
G01 X-3.3662 Y2.2197  
G01 X-3.3718 Y2.2235  
G01 X-3.3741 Y2.2259  
G01 X-3.5900 Y2.2259  
G01 X-3.6559 Y2.1600  
G01 X-3.6559 Y1.6376  
G01 X-3.6568 Y1.6330  
G01 X-3.6586 Y1.6286  
G01 X-3.6612 Y1.6246  
G01 X-3.6859 Y1.6000  
G01 X-3.6859 Y1.1900  
G01 X-3.5649 Y1.0691  
G01 X-3.5614 Y1.0714  
G01 X-3.5570 Y1.0732  
G01 X-3.5524 Y1.0741  
G01 X-3.3741 Y1.0741  
G01 X-3.3718 Y1.0765  
G01 X-3.3662 Y1.0803  
G01 X-3.3600 Y1.0828  
G01 X-3.3534 Y1.0841  
G01 X-3.3466 Y1.0841  
G01 X-3.3400 Y1.0828  
G01 X-3.3338 Y1.0803  
G01 X-3.3282 Y1.0765  
G01 X-3.3235 Y1.0718  
G01 X-3.3197 Y1.0662  
G01 X-3.3172 Y1.0600  
G01 X-3.3159 Y1.0534  
G01 X-3.3159 Y1.0466  
G01 X-3.3172 Y1.0400  
G01 X-3.3197 Y1.0338  
G01 X-3.3235 Y1.0282  
G01 X-3.3282 Y1.0235  
G01 X-3.3338 Y1.0197  
G01 X-3.3400 Y1.0172  
G01 X-3.3466 Y1.0159  
G01 X-3.3534 Y1.0159  
G01 X-3.3600 Y1.0172  
G01 X-3.3662 Y1.0197  
G01 X-3.3718 Y1.0235  
G01 X-3.3741 Y1.0259  
G01 X-3.5400 Y1.0259  
G01 X-3.5462 Y1.0196  
G01 X-3.5496 Y1.0162  
G01 X-3.6859 Y0.8800  
G01 X-3.6859 Y0.2800  
G01 X-3.5000 Y0.0941  
G01 X-2.3741 Y0.0941  
G01 X-2.3741 Y0.5259  
G01 X-2.3999 Y0.5259  
G01 X-2.4022 Y0.5235  
G01 X-2.4078 Y0.5197  
G01 X-2.4140 Y0.5172  
G01 X-2.4206 Y0.5159  
G01 X-2.4794 Y0.5159  
G01 X-2.4860 Y0.5172  
G01 X-2.4922 Y0.5197  
G01 X-2.4978 Y0.5235  
G01 X-2.5025 Y0.5282  
G01 X-2.5063 Y0.5338  
G01 X-2.5088 Y0.5400  
G01 X-2.5101 Y0.5466  
G01 X-2.5101 Y0.5534  
G01 X-2.5088 Y0.5600  
G01 X-2.5063 Y0.5662  
G01 X-2.5025 Y0.5718  
G01 X-2.4978 Y0.5765  
G01 X-2.4922 Y0.5803  
G01 X-2.4860 Y0.5828  
G01 X-2.4794 Y0.5841  
G01 X-2.4206 Y0.5841  
G01 X-2.4140 Y0.5828  
G01 X-2.4078 Y0.5803  
G01 X-2.4022 Y0.5765  
G01 X-2.3999 Y0.5741  
G01 X-2.3476 Y0.5741  
G01 X-2.3430 Y0.5732  
G01 X-2.3386 Y0.5714  
G01 X-2.3346 Y0.5688  
G01 X-2.3312 Y0.5654  
G01 X-2.3286 Y0.5614  
G01 X-2.3268 Y0.5570  
G01 X-2.3259 Y0.5524  
G01 X-2.3259 Y0.0941  
G01 X-0.6241 Y0.0941  
G01 X-0.6241 Y0.2103  
G01 X-0.6451 Y0.2313  
G01 X-0.6451 Y0.2687  
G01 X-0.6241 Y0.2897  
G01 X-0.6241 Y0.3103  
G01 X-0.6451 Y0.3313  
G01 X-0.6451 Y0.3687  
G01 X-0.6187 Y0.3951  
G01 X-0.5813 Y0.3951  
G01 X-0.5549 Y0.3687  
G01 X-0.5549 Y0.3313  
G00 Z0.1000  
G00 X-0.6549 Y0.3313  
G01 Z-0.0021 F10    
G01 X-0.6759 Y0.3103  F20    
G01 X-0.6759 Y0.2897  
G01 X-0.6549 Y0.2687  
G01 X-0.6549 Y0.2313  
G01 X-0.6813 Y0.2049  
G01 X-0.7187 Y0.2049  
G01 X-0.7451 Y0.2313  
G01 X-0.7451 Y0.2687  
G01 X-0.7241 Y0.2897  
G01 X-0.7241 Y0.3103  
G01 X-0.7397 Y0.3259  
G01 X-0.7603 Y0.3259  
G01 X-0.7759 Y0.3103  
G01 X-0.7759 Y0.2897  
G01 X-0.7549 Y0.2687  
G01 X-0.7549 Y0.2313  
G01 X-0.7813 Y0.2049  
G01 X-0.8187 Y0.2049  
G01 X-0.8397 Y0.2259  
G01 X-0.8603 Y0.2259  
G01 X-0.8813 Y0.2049  
G01 X-0.9187 Y0.2049  
G01 X-0.9451 Y0.2313  
G01 X-0.9451 Y0.2687  
G01 X-0.9241 Y0.2897  
G01 X-0.9241 Y0.3103  
G01 X-0.9451 Y0.3313  
G01 X-0.9451 Y0.3687  
G01 X-0.9187 Y0.3951  
G01 X-0.8813 Y0.3951  
G01 X-0.8603 Y0.3741  
G01 X-0.8397 Y0.3741  
G01 X-0.8220 Y0.3919  
G01 X-0.8241 Y0.3919  
G01 X-0.8581 Y0.4259  
G01 X-0.8581 Y0.4740  
G01 X-1.1000 Y0.7159  
G01 X-1.1554 Y0.7159  
G01 X-1.1620 Y0.7172  
G01 X-1.1656 Y0.7187  
G01 X-1.1814 Y0.6397  
G01 X-1.1759 Y0.6341  
G01 X-1.1759 Y0.6059  
G01 X-1.1959 Y0.5859  
G01 X-1.2067 Y0.5859  
G01 X-1.2806 Y0.4956  
G01 X-1.2812 Y0.4946  
G01 X-1.2821 Y0.4938  
G01 X-1.2828 Y0.4929  
G01 X-1.2837 Y0.4921  
G01 X-1.2846 Y0.4912  
G01 X-1.2856 Y0.4906  
G01 X-1.2865 Y0.4898  
G01 X-1.2876 Y0.4893  
G01 X-1.2886 Y0.4886  
G01 X-1.2896 Y0.4881  
G01 X-1.2907 Y0.4876  
G01 X-1.2918 Y0.4872  
G01 X-1.2930 Y0.4868  
G01 X-1.2941 Y0.4865  
G01 X-1.2952 Y0.4862  
G01 X-1.2964 Y0.4861  
G01 X-1.2976 Y0.4859  
G01 X-1.2988 Y0.4859  
G01 X-1.3000 Y0.4857  
G01 X-1.3012 Y0.4859  
G01 X-1.4382 Y0.4859  
G01 X-1.4387 Y0.4858  
G01 X-1.4405 Y0.4859  
G01 X-1.4424 Y0.4859  
G01 X-1.4429 Y0.4860  
G01 X-1.4434 Y0.4860  
G01 X-1.4452 Y0.4864  
G01 X-1.4470 Y0.4868  
G01 X-1.4475 Y0.4870  
G01 X-1.4481 Y0.4871  
G01 X-1.4497 Y0.4879  
G01 X-1.4514 Y0.4886  
G01 X-1.4519 Y0.4889  
G01 X-1.4524 Y0.4891  
G01 X-1.4539 Y0.4902  
G01 X-1.4554 Y0.4912  
G01 X-1.4558 Y0.4916  
G01 X-1.4562 Y0.4919  
G01 X-1.4575 Y0.4933  
G01 X-1.4588 Y0.4946  
G01 X-1.4591 Y0.4950  
G01 X-1.4594 Y0.4954  
G01 X-1.4604 Y0.4970  
G01 X-1.4614 Y0.4986  
G01 X-1.4616 Y0.4991  
G01 X-1.4619 Y0.4995  
G01 X-1.4625 Y0.5012  
G01 X-1.4632 Y0.5030  
G01 X-1.4633 Y0.5035  
G01 X-1.4933 Y0.5859  
G01 X-1.4941 Y0.5859  
G01 X-1.5141 Y0.6059  
G01 X-1.5141 Y0.6341  
G01 X-1.4941 Y0.6541  
G01 X-1.4659 Y0.6541  
G01 X-1.4459 Y0.6341  
G01 X-1.4459 Y0.6059  
G01 X-1.4483 Y0.6034  
G01 X-1.4231 Y0.5341  
G01 X-1.3114 Y0.5341  
G01 X-1.2441 Y0.6164  
G01 X-1.2441 Y0.6341  
G01 X-1.2287 Y0.6496  
G01 X-1.2109 Y0.7385  
G01 X-1.3416 Y0.8962  
G01 X-1.6604 Y0.9059  
G01 X-1.6900 Y0.9059  
G01 X-1.6946 Y0.9012  
G01 X-1.6986 Y0.8986  
G01 X-1.7030 Y0.8968  
G01 X-1.7076 Y0.8959  
G01 X-1.9224 Y0.8959  
G01 X-1.9270 Y0.8968  
G01 X-1.9314 Y0.8986  
G01 X-1.9354 Y0.9012  
G01 X-1.9388 Y0.9046  
G01 X-2.0188 Y0.9846  
G01 X-2.0214 Y0.9886  
G01 X-2.0232 Y0.9930  
G01 X-2.0241 Y0.9976  
G01 X-2.0241 Y1.1698  
G01 X-2.0916 Y1.1474  
G01 X-2.0930 Y1.1468  
G01 X-2.0938 Y1.1466  
G01 X-2.0946 Y1.1463  
G01 X-2.0961 Y1.1461  
G01 X-2.0976 Y1.1459  
G01 X-2.0985 Y1.1459  
G01 X-2.0993 Y1.1457  
G01 X-2.1009 Y1.1459  
G01 X-2.6491 Y1.1459  
G01 X-2.6507 Y1.1457  
G01 X-2.6515 Y1.1459  
G01 X-2.6524 Y1.1459  
G01 X-2.6539 Y1.1461  
G01 X-2.6554 Y1.1463  
G01 X-2.6562 Y1.1466  
G01 X-2.6570 Y1.1468  
G01 X-2.6584 Y1.1474  
G01 X-2.6660 Y1.1499  
G01 X-3.1846 Y0.6312  
G01 X-3.1886 Y0.6286  
G01 X-3.1930 Y0.6268  
G01 X-3.1976 Y0.6259  
G01 X-3.2759 Y0.6259  
G01 X-3.2859 Y0.6159  
G01 X-3.3141 Y0.6159  
G01 X-3.3241 Y0.6259  
G01 X-3.4759 Y0.6259  
G01 X-3.4859 Y0.6159  
G01 X-3.5141 Y0.6159  
G01 X-3.5241 Y0.6259  
G01 X-3.5824 Y0.6259  
G01 X-3.5870 Y0.6268  
G01 X-3.5914 Y0.6286  
G01 X-3.5954 Y0.6312  
G01 X-3.6454 Y0.6812  
G01 X-3.6488 Y0.6846  
G01 X-3.6514 Y0.6886  
G01 X-3.6532 Y0.6930  
G01 X-3.6541 Y0.6976  
G01 X-3.6541 Y0.8324  
G01 X-3.6532 Y0.8370  
G01 X-3.6514 Y0.8414  
G01 X-3.6488 Y0.8454  
G01 X-3.6441 Y0.8500  
G01 X-3.6441 Y0.8786  
G01 X-3.6443 Y0.8795  
G01 X-3.6441 Y0.8809  
G01 X-3.6441 Y0.8824  
G01 X-3.6440 Y0.8833  
G01 X-3.6439 Y0.8842  
G01 X-3.6435 Y0.8856  
G01 X-3.6432 Y0.8870  
G01 X-3.6429 Y0.8879  
G01 X-3.6426 Y0.8888  
G01 X-3.6420 Y0.8901  
G01 X-3.6414 Y0.8914  
G01 X-3.6409 Y0.8922  
G01 X-3.6405 Y0.8930  
G01 X-3.6396 Y0.8942  
G01 X-3.6388 Y0.8954  
G01 X-3.6381 Y0.8961  
G01 X-3.6375 Y0.8968  
G01 X-3.6364 Y0.8977  
G01 X-3.6354 Y0.8988  
G01 X-3.6346 Y0.8993  
G01 X-3.5841 Y0.9425  
G01 X-3.5841 Y0.9541  
G01 X-3.5641 Y0.9741  
G01 X-3.5359 Y0.9741  
G01 X-3.5159 Y0.9541  
G01 X-3.5159 Y0.9259  
G01 X-3.5359 Y0.9059  
G01 X-3.5527 Y0.9059  
G01 X-3.5959 Y0.8689  
G01 X-3.5959 Y0.8376  
G01 X-3.5968 Y0.8330  
G01 X-3.5986 Y0.8286  
G01 X-3.6012 Y0.8246  
G01 X-3.6046 Y0.8212  
G01 X-3.6059 Y0.8200  
G01 X-3.6059 Y0.7100  
G01 X-3.5700 Y0.6741  
G01 X-3.5241 Y0.6741  
G01 X-3.5141 Y0.6841  
G01 X-3.4859 Y0.6841  
G01 X-3.4759 Y0.6741  
G01 X-3.3241 Y0.6741  
G01 X-3.3141 Y0.6841  
G01 X-3.2859 Y0.6841  
G01 X-3.2759 Y0.6741  
G01 X-3.2100 Y0.6741  
G01 X-2.7092 Y1.1750  
G01 X-2.7465 Y1.2124  
G01 X-2.7537 Y1.2124  
G01 X-2.7610 Y1.2138  
G01 X-2.7678 Y1.2166  
G01 X-2.7740 Y1.2208  
G01 X-2.7792 Y1.2260  
G01 X-2.7834 Y1.2322  
G01 X-2.7862 Y1.2390  
G01 X-2.7876 Y1.2463  
G01 X-2.7876 Y1.2537  
G01 X-2.7862 Y1.2610  
G01 X-2.7834 Y1.2678  
G01 X-2.7792 Y1.2740  
G01 X-2.7740 Y1.2792  
G01 X-2.7678 Y1.2834  
G01 X-2.7610 Y1.2862  
G01 X-2.7537 Y1.2876  
G01 X-2.7465 Y1.2876  
G01 X-2.7054 Y1.3288  
G01 X-2.7014 Y1.3314  
G01 X-2.6970 Y1.3332  
G01 X-2.6924 Y1.3341  
G01 X-2.6741 Y1.3341  
G01 X-2.6741 Y1.3800  
G01 X-2.7200 Y1.4259  
G01 X-2.7209 Y1.4259  
G01 X-2.7260 Y1.4208  
G01 X-2.7322 Y1.4166  
G01 X-2.7390 Y1.4138  
G01 X-2.7463 Y1.4124  
G01 X-2.7537 Y1.4124  
G01 X-2.7610 Y1.4138  
G01 X-2.7678 Y1.4166  
G01 X-2.7740 Y1.4208  
G01 X-2.7792 Y1.4260  
G01 X-2.7834 Y1.4322  
G01 X-2.7862 Y1.4390  
G01 X-2.7876 Y1.4463  
G01 X-2.7876 Y1.4537  
G01 X-2.7862 Y1.4610  
G01 X-2.7834 Y1.4678  
G01 X-2.7792 Y1.4740  
G01 X-2.7740 Y1.4792  
G01 X-2.7678 Y1.4834  
G01 X-2.7610 Y1.4862  
G01 X-2.7537 Y1.4876  
G01 X-2.7465 Y1.4876  
G01 X-2.6641 Y1.5700  
G01 X-2.6641 Y1.6700  
G01 X-2.7688 Y1.7746  
G01 X-2.7714 Y1.7786  
G01 X-2.7732 Y1.7830  
G01 X-2.7741 Y1.7876  
G01 X-2.7741 Y1.8209  
G01 X-2.7791 Y1.8259  
G01 X-2.7824 Y1.8259  
G01 X-2.7870 Y1.8268  
G01 X-2.7914 Y1.8286  
G01 X-2.7954 Y1.8312  
G01 X-2.9000 Y1.9359  
G01 X-3.0000 Y1.9359  
G01 X-3.0759 Y1.8600  
G01 X-3.0759 Y1.7976  
G01 X-3.0768 Y1.7930  
G01 X-3.0786 Y1.7886  
G01 X-3.0812 Y1.7846  
G01 X-3.1159 Y1.7500  
G01 X-3.1159 Y1.7206  
G01 X-3.1172 Y1.7140  
G01 X-3.1197 Y1.7078  
G01 X-3.1235 Y1.7022  
G01 X-3.1282 Y1.6975  
G01 X-3.1338 Y1.6937  
G01 X-3.1400 Y1.6912  
G01 X-3.1466 Y1.6899  
G01 X-3.1534 Y1.6899  
G01 X-3.1600 Y1.6912  
G01 X-3.1662 Y1.6937  
G01 X-3.1718 Y1.6975  
G01 X-3.1765 Y1.7022  
G01 X-3.1803 Y1.7078  
G01 X-3.1828 Y1.7140  
G01 X-3.1841 Y1.7206  
G01 X-3.1841 Y1.7439  
G01 X-3.5126 Y1.9659  
G01 X-3.5341 Y1.9659  
G01 X-3.5541 Y1.9859  
G01 X-3.5541 Y2.0141  
G01 X-3.5341 Y2.0341  
G01 X-3.5059 Y2.0341  
G01 X-3.4859 Y2.0141  
G01 X-3.4859 Y2.0061  
G01 X-3.1768 Y1.7973  
G01 X-3.1765 Y1.7978  
G01 X-3.1718 Y1.8025  
G01 X-3.1662 Y1.8063  
G01 X-3.1600 Y1.8088  
G01 X-3.1534 Y1.8101  
G01 X-3.1466 Y1.8101  
G01 X-3.1400 Y1.8088  
G01 X-3.1338 Y1.8063  
G01 X-3.1303 Y1.8039  
G01 X-3.1241 Y1.8100  
G01 X-3.1241 Y1.8724  
G01 X-3.1232 Y1.8770  
G01 X-3.1214 Y1.8814  
G01 X-3.1188 Y1.8854  
G01 X-3.1154 Y1.8888  
G01 X-3.0254 Y1.9788  
G01 X-3.0214 Y1.9814  
G01 X-3.0170 Y1.9832  
G01 X-3.0124 Y1.9841  
G01 X-2.8876 Y1.9841  
G01 X-2.8830 Y1.9832  
G01 X-2.8786 Y1.9814  
G01 X-2.8746 Y1.9788  
G01 X-2.8712 Y1.9754  
G01 X-2.7745 Y1.8787  
G01 X-2.7740 Y1.8792  
G01 X-2.7678 Y1.8834  
G01 X-2.7610 Y1.8862  
G01 X-2.7537 Y1.8876  
G01 X-2.7463 Y1.8876  
G01 X-2.7390 Y1.8862  
G01 X-2.7322 Y1.8834  
G01 X-2.7260 Y1.8792  
G01 X-2.7255 Y1.8787  
G01 X-2.6741 Y1.9300  
G01 X-2.6741 Y2.0259  
G01 X-2.7209 Y2.0259  
G01 X-2.7260 Y2.0208  
G01 X-2.7322 Y2.0166  
G01 X-2.7390 Y2.0138  
G01 X-2.7463 Y2.0124  
G01 X-2.7537 Y2.0124  
G01 X-2.7610 Y2.0138  
G01 X-2.7678 Y2.0166  
G01 X-2.7740 Y2.0208  
G01 X-2.7792 Y2.0260  
G01 X-2.7834 Y2.0322  
G01 X-2.7862 Y2.0390  
G01 X-2.7876 Y2.0463  
G01 X-2.7876 Y2.0537  
G01 X-2.7862 Y2.0610  
G01 X-2.7834 Y2.0678  
G01 X-2.7792 Y2.0740  
G01 X-2.7740 Y2.0792  
G01 X-2.7678 Y2.0834  
G01 X-2.7610 Y2.0862  
G01 X-2.7537 Y2.0876  
G01 X-2.7463 Y2.0876  
G01 X-2.7390 Y2.0862  
G01 X-2.7322 Y2.0834  
G01 X-2.7260 Y2.0792  
G01 X-2.7209 Y2.0741  
G01 X-2.6600 Y2.0741  
G01 X-2.6241 Y2.1100  
G01 X-2.6241 Y2.5259  
G01 X-2.6341 Y2.5359  
G01 X-2.6341 Y2.5500  
G01 X-2.7600 Y2.6759  
G01 X-2.8999 Y2.6759  
G01 X-2.9022 Y2.6735  
G01 X-2.9078 Y2.6697  
G01 X-2.9140 Y2.6672  
G01 X-2.9206 Y2.6659  
G01 X-2.9794 Y2.6659  
G01 X-2.9860 Y2.6672  
G01 X-2.9922 Y2.6697  
G01 X-2.9978 Y2.6735  
G01 X-3.0025 Y2.6782  
G01 X-3.0063 Y2.6838  
G01 X-3.0088 Y2.6900  
G01 X-3.0101 Y2.6966  
G01 X-3.0101 Y2.7034  
G01 X-3.0088 Y2.7100  
G01 X-3.0063 Y2.7162  
G01 X-3.0025 Y2.7218  
G01 X-2.9978 Y2.7265  
G01 X-2.9922 Y2.7303  
G01 X-2.9860 Y2.7328  
G01 X-2.9794 Y2.7341  
G01 X-2.9500 Y2.7341  
G01 X-2.8081 Y2.8760  
G01 X-2.8081 Y2.9241  
G01 X-2.7741 Y2.9581  
G01 X-2.7259 Y2.9581  
G01 X-2.6919 Y2.9241  
G01 X-2.6919 Y2.8759  
G01 X-2.7259 Y2.8419  
G01 X-2.7740 Y2.8419  
G01 X-2.8917 Y2.7241  
G01 X-2.7476 Y2.7241  
G01 X-2.7430 Y2.7232  
G01 X-2.7386 Y2.7214  
G01 X-2.7346 Y2.7188  
G01 X-2.7312 Y2.7154  
G01 X-2.6000 Y2.5841  
G01 X-2.5859 Y2.5841  
G01 X-2.5659 Y2.5641  
G01 X-2.5659 Y2.5359  
G01 X-2.5759 Y2.5259  
G01 X-2.5759 Y2.0976  
G01 X-2.5768 Y2.0930  
G01 X-2.5786 Y2.0886  
G01 X-2.5812 Y2.0846  
G01 X-2.5846 Y2.0812  
G01 X-2.6259 Y2.0400  
G01 X-2.6259 Y1.9176  
G01 X-2.6268 Y1.9130  
G01 X-2.6286 Y1.9086  
G01 X-2.6312 Y1.9046  
G01 X-2.6346 Y1.9012  
G01 X-2.7046 Y1.8312  
G01 X-2.7086 Y1.8286  
G01 X-2.7130 Y1.8268  
G01 X-2.7176 Y1.8259  
G01 X-2.7209 Y1.8259  
G01 X-2.7259 Y1.8209  
G01 X-2.7259 Y1.8000  
G01 X-2.6246 Y1.6988  
G01 X-2.6212 Y1.6954  
G01 X-2.6186 Y1.6914  
G01 X-2.6168 Y1.6870  
G01 X-2.6159 Y1.6824  
G01 X-2.6159 Y1.5576  
G01 X-2.6168 Y1.5530  
G01 X-2.6186 Y1.5486  
G01 X-2.6212 Y1.5446  
G01 X-2.6961 Y1.4698  
G01 X-2.6946 Y1.4688  
G01 X-2.6346 Y1.4088  
G01 X-2.6312 Y1.4054  
G01 X-2.6286 Y1.4014  
G01 X-2.6268 Y1.3970  
G01 X-2.6259 Y1.3924  
G01 X-2.6259 Y1.3176  
G01 X-2.6268 Y1.3130  
G01 X-2.6286 Y1.3086  
G01 X-2.6312 Y1.3046  
G01 X-2.6412 Y1.2946  
G01 X-2.6446 Y1.2912  
G01 X-2.6486 Y1.2886  
G01 X-2.6530 Y1.2868  
G01 X-2.6576 Y1.2859  
G01 X-2.6800 Y1.2859  
G01 X-2.7124 Y1.2535  
G01 X-2.7124 Y1.2465  
G01 X-2.6670 Y1.2011  
G01 X-2.6461 Y1.1941  
G01 X-2.1039 Y1.1941  
G01 X-2.0293 Y1.2190  
G01 X-2.0141 Y1.2341  
G01 X-1.9859 Y1.2341  
G01 X-1.9659 Y1.2141  
G01 X-1.9659 Y1.1859  
G01 X-1.9759 Y1.1759  
G01 X-1.9759 Y1.0100  
G01 X-1.9100 Y0.9441  
G01 X-1.7200 Y0.9441  
G01 X-1.7188 Y0.9454  
G01 X-1.7154 Y0.9488  
G01 X-1.7114 Y0.9514  
G01 X-1.7070 Y0.9532  
G01 X-1.7024 Y0.9541  
G01 X-1.6700 Y0.9541  
G01 X-1.6241 Y1.0000  
G01 X-1.6241 Y1.0900  
G01 X-1.7000 Y1.1659  
G01 X-1.7141 Y1.1659  
G01 X-1.7341 Y1.1859  
G01 X-1.7341 Y1.2141  
G01 X-1.7171 Y1.2312  
G01 X-1.7136 Y1.2453  
G01 X-1.7132 Y1.2470  
G01 X-1.7130 Y1.2476  
G01 X-1.7129 Y1.2482  
G01 X-1.7121 Y1.2498  
G01 X-1.7114 Y1.2514  
G01 X-1.7111 Y1.2519  
G01 X-1.7108 Y1.2525  
G01 X-1.7098 Y1.2539  
G01 X-1.7088 Y1.2554  
G01 X-1.7083 Y1.2558  
G01 X-1.7080 Y1.2563  
G01 X-1.7067 Y1.2575  
G01 X-1.6651 Y1.2991  
G01 X-1.6693 Y1.3458  
G01 X-1.6718 Y1.3475  
G01 X-1.6765 Y1.3522  
G01 X-1.6803 Y1.3578  
G01 X-1.6828 Y1.3640  
G01 X-1.6841 Y1.3706  
G01 X-1.6841 Y1.4294  
G01 X-1.6828 Y1.4360  
G01 X-1.6803 Y1.4422  
G01 X-1.6765 Y1.4478  
G01 X-1.6741 Y1.4501  
G01 X-1.6741 Y1.5224  
G01 X-1.6732 Y1.5270  
G01 X-1.6714 Y1.5314  
G01 X-1.6688 Y1.5354  
G01 X-1.6654 Y1.5388  
G01 X-1.5741 Y1.6300  
G01 X-1.5741 Y1.6499  
G01 X-1.5765 Y1.6522  
G01 X-1.5803 Y1.6578  
G01 X-1.5828 Y1.6640  
G01 X-1.5841 Y1.6706  
G01 X-1.5841 Y1.7000  
G01 X-1.5888 Y1.7046  
G01 X-1.5914 Y1.7086  
G01 X-1.5932 Y1.7130  
G01 X-1.5941 Y1.7176  
G01 X-1.5941 Y1.7659  
G01 X-1.6924 Y1.7659  
G01 X-1.6970 Y1.7668  
G01 X-1.7014 Y1.7686  
G01 X-1.7054 Y1.7712  
G01 X-1.7088 Y1.7746  
G01 X-1.7388 Y1.8046  
G01 X-1.7414 Y1.8086  
G01 X-1.7432 Y1.8130  
G01 X-1.7441 Y1.8176  
G01 X-1.7441 Y1.9124  
G01 X-1.7432 Y1.9170  
G01 X-1.7414 Y1.9214  
G01 X-1.7388 Y1.9254  
G01 X-1.7354 Y1.9288  
G01 X-1.5354 Y2.1288  
G01 X-1.5314 Y2.1314  
G01 X-1.5270 Y2.1332  
G01 X-1.5224 Y2.1341  
G01 X-1.4683 Y2.1341  
G01 X-1.4965 Y2.1624  
G01 X-1.5037 Y2.1624  
G01 X-1.5110 Y2.1638  
G01 X-1.5178 Y2.1666  
G01 X-1.5240 Y2.1708  
G01 X-1.5292 Y2.1760  
G01 X-1.5334 Y2.1822  
G01 X-1.5362 Y2.1890  
G01 X-1.5376 Y2.1963  
G01 X-1.5376 Y2.2035  
G01 X-1.7188 Y2.3846  
G01 X-1.7214 Y2.3886  
G01 X-1.7232 Y2.3930  
G01 X-1.7241 Y2.3976  
G01 X-1.7241 Y2.4499  
G01 X-1.7265 Y2.4522  
G01 X-1.7303 Y2.4578  
G01 X-1.7328 Y2.4640  
G01 X-1.7341 Y2.4706  
G01 X-1.7341 Y2.5294  
G01 X-1.7328 Y2.5360  
G01 X-1.7303 Y2.5422  
G01 X-1.7265 Y2.5478  
G01 X-1.7218 Y2.5525  
G01 X-1.7162 Y2.5563  
G01 X-1.7100 Y2.5588  
G01 X-1.7034 Y2.5601  
G01 X-1.6966 Y2.5601  
G01 X-1.6900 Y2.5588  
G01 X-1.6838 Y2.5563  
G01 X-1.6782 Y2.5525  
G01 X-1.6735 Y2.5478  
G01 X-1.6697 Y2.5422  
G01 X-1.6672 Y2.5360  
G01 X-1.6659 Y2.5294  
G01 X-1.6659 Y2.5241  
G01 X-1.4400 Y2.5241  
G01 X-1.3741 Y2.5900  
G01 X-1.3741 Y2.8259  
G01 X-1.3841 Y2.8359  
G01 X-1.3841 Y2.8641  
G01 X-1.3641 Y2.8841  
G01 X-1.3359 Y2.8841  
G01 X-1.3159 Y2.8641  
G01 X-1.3159 Y2.8359  
G01 X-1.3259 Y2.8259  
G01 X-1.3259 Y2.5776  
G01 X-1.3268 Y2.5730  
G01 X-1.3286 Y2.5686  
G01 X-1.3312 Y2.5646  
G01 X-1.4112 Y2.4846  
G01 X-1.4146 Y2.4812  
G01 X-1.4186 Y2.4786  
G01 X-1.4230 Y2.4768  
G01 X-1.4276 Y2.4759  
G01 X-1.6659 Y2.4759  
G01 X-1.6659 Y2.4706  
G01 X-1.6672 Y2.4640  
G01 X-1.6697 Y2.4578  
G01 X-1.6735 Y2.4522  
G01 X-1.6759 Y2.4499  
G01 X-1.6759 Y2.4100  
G01 X-1.5035 Y2.2376  
G01 X-1.4963 Y2.2376  
G01 X-1.4890 Y2.2362  
G01 X-1.4822 Y2.2334  
G01 X-1.4760 Y2.2292  
G01 X-1.4708 Y2.2240  
G01 X-1.4666 Y2.2178  
G01 X-1.4638 Y2.2110  
G01 X-1.4624 Y2.2037  
G01 X-1.4624 Y2.1965  
G01 X-1.4212 Y2.1554  
G01 X-1.4186 Y2.1514  
G01 X-1.4168 Y2.1470  
G01 X-1.4159 Y2.1424  
G01 X-1.4159 Y2.1341  
G01 X-1.3900 Y2.1341  
G01 X-1.3359 Y2.1883  
G01 X-1.3362 Y2.1890  
G01 X-1.3376 Y2.1963  
G01 X-1.3376 Y2.2037  
G01 X-1.3362 Y2.2110  
G01 X-1.3334 Y2.2178  
G01 X-1.3292 Y2.2240  
G01 X-1.3240 Y2.2292  
G01 X-1.3178 Y2.2334  
G01 X-1.3110 Y2.2362  
G01 X-1.3037 Y2.2376  
G01 X-1.2963 Y2.2376  
G01 X-1.2890 Y2.2362  
G01 X-1.2822 Y2.2334  
G01 X-1.2760 Y2.2292  
G01 X-1.2708 Y2.2240  
G01 X-1.2666 Y2.2178  
G01 X-1.2638 Y2.2110  
G01 X-1.2624 Y2.2037  
G01 X-1.2624 Y2.1965  
G01 X-1.2000 Y2.1341  
G01 X-1.1800 Y2.1341  
G01 X-1.0954 Y2.2188  
G01 X-1.0914 Y2.2214  
G01 X-1.0870 Y2.2232  
G01 X-1.0824 Y2.2241  
G01 X-0.8291 Y2.2241  
G01 X-0.8240 Y2.2292  
G01 X-0.8178 Y2.2334  
G01 X-0.8110 Y2.2362  
G01 X-0.8037 Y2.2376  
G01 X-0.7963 Y2.2376  
G01 X-0.7890 Y2.2362  
G01 X-0.7822 Y2.2334  
G01 X-0.7760 Y2.2292  
G01 X-0.7708 Y2.2240  
G01 X-0.7666 Y2.2178  
G01 X-0.7638 Y2.2110  
G01 X-0.7624 Y2.2037  
G01 X-0.7624 Y2.1963  
G01 X-0.7638 Y2.1890  
G01 X-0.7666 Y2.1822  
G01 X-0.7708 Y2.1760  
G01 X-0.7759 Y2.1709  
G01 X-0.7759 Y2.1400  
G01 X-0.7500 Y2.1141  
G01 X-0.7000 Y2.1141  
G01 X-0.6328 Y2.1813  
G01 X-0.6334 Y2.1822  
G01 X-0.6362 Y2.1890  
G01 X-0.6376 Y2.1963  
G01 X-0.6376 Y2.2037  
G01 X-0.6362 Y2.2110  
G01 X-0.6334 Y2.2178  
G01 X-0.6292 Y2.2240  
G01 X-0.6241 Y2.2291  
G01 X-0.6241 Y2.3024  
G01 X-0.6232 Y2.3070  
G01 X-0.6214 Y2.3114  
G01 X-0.6188 Y2.3154  
G01 X-0.4841 Y2.4500  
G01 X-0.4841 Y2.4794  
G01 X-0.4828 Y2.4860  
G01 X-0.4803 Y2.4922  
G01 X-0.4765 Y2.4978  
G01 X-0.4718 Y2.5025  
G01 X-0.4662 Y2.5063  
G01 X-0.4600 Y2.5088  
G01 X-0.4534 Y2.5101  
G01 X-0.4466 Y2.5101  
G01 X-0.4400 Y2.5088  
G01 X-0.4338 Y2.5063  
G01 X-0.4282 Y2.5025  
G01 X-0.4235 Y2.4978  
G01 X-0.4197 Y2.4922  
G01 X-0.4172 Y2.4860  
G01 X-0.4159 Y2.4794  
G01 X-0.4159 Y2.4206  
G01 X-0.4172 Y2.4140  
G01 X-0.4197 Y2.4078  
G01 X-0.4235 Y2.4022  
G01 X-0.4282 Y2.3975  
G01 X-0.4338 Y2.3937  
G01 X-0.4400 Y2.3912  
G01 X-0.4466 Y2.3899  
G01 X-0.4534 Y2.3899  
G01 X-0.4600 Y2.3912  
G01 X-0.4662 Y2.3937  
G01 X-0.4697 Y2.3961  
G01 X-0.5759 Y2.2900  
G01 X-0.5759 Y2.2291  
G01 X-0.5708 Y2.2240  
G01 X-0.5666 Y2.2178  
G01 X-0.5638 Y2.2110  
G01 X-0.5624 Y2.2037  
G01 X-0.5624 Y2.1963  
G01 X-0.5638 Y2.1890  
G01 X-0.5666 Y2.1822  
G01 X-0.5708 Y2.1760  
G01 X-0.5760 Y2.1708  
G01 X-0.5783 Y2.1692  
G01 X-0.5786 Y2.1686  
G01 X-0.5812 Y2.1646  
G01 X-0.6712 Y2.0746  
G01 X-0.6746 Y2.0712  
G01 X-0.6786 Y2.0686  
G01 X-0.6830 Y2.0668  
G01 X-0.6876 Y2.0659  
G01 X-0.7624 Y2.0659  
G01 X-0.7670 Y2.0668  
G01 X-0.7714 Y2.0686  
G01 X-0.7754 Y2.0712  
G01 X-0.8154 Y2.1112  
G01 X-0.8188 Y2.1146  
G01 X-0.8214 Y2.1186  
G01 X-0.8232 Y2.1230  
G01 X-0.8241 Y2.1276  
G01 X-0.8241 Y2.1709  
G01 X-0.8291 Y2.1759  
G01 X-1.0700 Y2.1759  
G01 X-1.1512 Y2.0946  
G01 X-1.1546 Y2.0912  
G01 X-1.1586 Y2.0886  
G01 X-1.1630 Y2.0868  
G01 X-1.1676 Y2.0859  
G01 X-1.2124 Y2.0859  
G01 X-1.2170 Y2.0868  
G01 X-1.2214 Y2.0886  
G01 X-1.2254 Y2.0912  
G01 X-1.2950 Y2.1608  
G01 X-1.3612 Y2.0946  
G01 X-1.3646 Y2.0912  
G01 X-1.3686 Y2.0886  
G01 X-1.3730 Y2.0868  
G01 X-1.3776 Y2.0859  
G01 X-1.5100 Y2.0859  
G01 X-1.6959 Y1.9000  
G01 X-1.6959 Y1.8300  
G01 X-1.6800 Y1.8141  
G01 X-1.5776 Y1.8141  
G01 X-1.5730 Y1.8132  
G01 X-1.5686 Y1.8114  
G01 X-1.5646 Y1.8088  
G01 X-1.5546 Y1.7988  
G01 X-1.5512 Y1.7954  
G01 X-1.5486 Y1.7914  
G01 X-1.5468 Y1.7870  
G01 X-1.5459 Y1.7824  
G01 X-1.5459 Y1.7600  
G01 X-1.5400 Y1.7588  
G01 X-1.5338 Y1.7563  
G01 X-1.5282 Y1.7525  
G01 X-1.5235 Y1.7478  
G01 X-1.5197 Y1.7422  
G01 X-1.5172 Y1.7360  
G01 X-1.5159 Y1.7294  
G01 X-1.5159 Y1.6706  
G01 X-1.5172 Y1.6640  
G01 X-1.5197 Y1.6578  
G01 X-1.5235 Y1.6522  
G01 X-1.5259 Y1.6499  
G01 X-1.5259 Y1.6176  
G01 X-1.5268 Y1.6130  
G01 X-1.5286 Y1.6086  
G01 X-1.5312 Y1.6046  
G01 X-1.6259 Y1.5100  
G01 X-1.6259 Y1.4501  
G01 X-1.6235 Y1.4478  
G01 X-1.6197 Y1.4422  
G01 X-1.6172 Y1.4360  
G01 X-1.6159 Y1.4294  
G01 X-1.6159 Y1.3706  
G01 X-1.6172 Y1.3640  
G01 X-1.6197 Y1.3578  
G01 X-1.6217 Y1.3550  
G01 X-1.6161 Y1.2935  
G01 X-1.6159 Y1.2924  
G01 X-1.6159 Y1.2911  
G01 X-1.6157 Y1.2898  
G01 X-1.6159 Y1.2887  
G01 X-1.6159 Y1.2876  
G01 X-1.6161 Y1.2864  
G01 X-1.6162 Y1.2851  
G01 X-1.6166 Y1.2840  
G01 X-1.6168 Y1.2830  
G01 X-1.6173 Y1.2818  
G01 X-1.6177 Y1.2805  
G01 X-1.6182 Y1.2796  
G01 X-1.6186 Y1.2786  
G01 X-1.6193 Y1.2775  
G01 X-1.6199 Y1.2764  
G01 X-1.6206 Y1.2755  
G01 X-1.6212 Y1.2746  
G01 X-1.6221 Y1.2737  
G01 X-1.6230 Y1.2727  
G01 X-1.6238 Y1.2720  
G01 X-1.6682 Y1.2277  
G01 X-1.6704 Y1.2187  
G01 X-1.6659 Y1.2141  
G01 X-1.6659 Y1.2000  
G01 X-1.6000 Y1.1342  
G01 X-1.5841 Y1.1500  
G01 X-1.5841 Y1.1641  
G01 X-1.5641 Y1.1841  
G01 X-1.5359 Y1.1841  
G01 X-1.5159 Y1.1641  
G01 X-1.5159 Y1.1359  
G01 X-1.5359 Y1.1159  
G01 X-1.5500 Y1.1159  
G01 X-1.5759 Y1.0900  
G01 X-1.5759 Y0.9876  
G01 X-1.5768 Y0.9830  
G01 X-1.5786 Y0.9786  
G01 X-1.5812 Y0.9746  
G01 X-1.5846 Y0.9712  
G01 X-1.6034 Y0.9524  
G01 X-1.3309 Y0.9442  
G01 X-1.3301 Y0.9443  
G01 X-1.3285 Y0.9441  
G01 X-1.3269 Y0.9441  
G01 X-1.3261 Y0.9439  
G01 X-1.3254 Y0.9438  
G01 X-1.3238 Y0.9434  
G01 X-1.3223 Y0.9430  
G01 X-1.3216 Y0.9427  
G01 X-1.3208 Y0.9425  
G01 X-1.3194 Y0.9417  
G01 X-1.3179 Y0.9410  
G01 X-1.3173 Y0.9406  
G01 X-1.3166 Y0.9402  
G01 X-1.3154 Y0.9392  
G01 X-1.3140 Y0.9383  
G01 X-1.3135 Y0.9377  
G01 X-1.3129 Y0.9372  
G01 X-1.3119 Y0.9360  
G01 X-1.3108 Y0.9348  
G01 X-1.3104 Y0.9342  
G01 X-1.1770 Y0.7733  
G01 X-1.1738 Y0.7765  
G01 X-1.1682 Y0.7803  
G01 X-1.1620 Y0.7828  
G01 X-1.1554 Y0.7841  
G01 X-1.0966 Y0.7841  
G01 X-1.0900 Y0.7828  
G01 X-1.0838 Y0.7803  
G01 X-1.0782 Y0.7765  
G01 X-1.0735 Y0.7718  
G01 X-1.0697 Y0.7662  
G01 X-1.0672 Y0.7600  
G01 X-1.0659 Y0.7534  
G01 X-1.0659 Y0.7500  
G01 X-0.8240 Y0.5081  
G01 X-0.7759 Y0.5081  
G01 X-0.7419 Y0.4741  
G01 X-0.7419 Y0.4259  
G01 X-0.7759 Y0.3919  
G01 X-0.7780 Y0.3919  
G01 X-0.7603 Y0.3741  
G01 X-0.7397 Y0.3741  
G01 X-0.7187 Y0.3951  
G01 X-0.6813 Y0.3951  
G01 X-0.6549 Y0.3687  
G01 X-0.6549 Y0.3313  
G00 Z0.1000  
G00 X-0.8241 Y0.3103  
G01 Z-0.0021 F10    
G01 X-0.8397 Y0.3259  F20    
G01 X-0.8603 Y0.3259  
G01 X-0.8759 Y0.3103  
G01 X-0.8759 Y0.2897  
G01 X-0.8603 Y0.2741  
G01 X-0.8397 Y0.2741  
G01 X-0.8241 Y0.2897  
G01 X-0.8241 Y0.3103  
G00 Z0.1000  
G00 X-0.9549 Y0.3313  
G01 Z-0.0021 F10    
G01 X-0.9759 Y0.3103  F20    
G01 X-0.9759 Y0.2897  
G01 X-0.9549 Y0.2687  
G01 X-0.9549 Y0.2313  
G01 X-0.9806 Y0.2055  
G01 X-0.9807 Y0.2054  
G01 X-0.9591 Y0.1622  
G01 X-0.9586 Y0.1614  
G01 X-0.9580 Y0.1600  
G01 X-0.9573 Y0.1587  
G01 X-0.9571 Y0.1578  
G01 X-0.9568 Y0.1570  
G01 X-0.9565 Y0.1556  
G01 X-0.9561 Y0.1541  
G01 X-0.9560 Y0.1532  
G01 X-0.9559 Y0.1524  
G01 X-0.9559 Y0.1509  
G01 X-0.9557 Y0.1493  
G01 X-0.9559 Y0.1485  
G01 X-0.9559 Y0.1376  
G01 X-0.9568 Y0.1330  
G01 X-0.9586 Y0.1286  
G01 X-0.9612 Y0.1246  
G01 X-0.9646 Y0.1212  
G01 X-0.9686 Y0.1186  
G01 X-0.9730 Y0.1168  
G01 X-0.9776 Y0.1159  
G01 X-2.2200 Y0.1159  
G01 X-2.2224 Y0.1158  
G01 X-2.2248 Y0.1163  
G01 X-2.2270 Y0.1168  
G01 X-2.2293 Y0.1177  
G01 X-2.2314 Y0.1186  
G01 X-2.2334 Y0.1199  
G01 X-2.2614 Y0.1386  
G01 X-2.2634 Y0.1399  
G01 X-2.2654 Y0.1412  
G01 X-2.2671 Y0.1429  
G01 X-2.2687 Y0.1446  
G01 X-2.2701 Y0.1466  
G01 X-2.2714 Y0.1485  
G01 X-2.2723 Y0.1507  
G01 X-2.2732 Y0.1529  
G01 X-2.2737 Y0.1553  
G01 X-2.2741 Y0.1576  
G01 X-2.2741 Y0.1600  
G01 X-2.2742 Y0.1624  
G01 X-2.2741 Y0.8641  
G01 X-2.3760 Y1.0593  
G01 X-2.3796 Y1.0599  
G01 X-2.3858 Y1.0619  
G01 X-2.3916 Y1.0648  
G01 X-2.3968 Y1.0686  
G01 X-2.4014 Y1.0732  
G01 X-2.4052 Y1.0784  
G01 X-2.4081 Y1.0842  
G01 X-2.4101 Y1.0904  
G01 X-2.4111 Y1.0968  
G01 X-2.4111 Y1.1032  
G01 X-2.4101 Y1.1096  
G01 X-2.4081 Y1.1158  
G01 X-2.4052 Y1.1216  
G01 X-2.4014 Y1.1268  
G01 X-2.3968 Y1.1314  
G01 X-2.3916 Y1.1352  
G01 X-2.3858 Y1.1381  
G01 X-2.3796 Y1.1401  
G01 X-2.3732 Y1.1411  
G01 X-2.3668 Y1.1411  
G01 X-2.3604 Y1.1401  
G01 X-2.3542 Y1.1381  
G01 X-2.3484 Y1.1352  
G01 X-2.3432 Y1.1314  
G01 X-2.3386 Y1.1268  
G01 X-2.3348 Y1.1216  
G01 X-2.3319 Y1.1158  
G01 X-2.3299 Y1.1096  
G01 X-2.3289 Y1.1032  
G01 X-2.3289 Y1.0968  
G01 X-2.3299 Y1.0904  
G01 X-2.3319 Y1.0842  
G01 X-2.3332 Y1.0816  
G01 X-2.2292 Y0.8823  
G01 X-2.2286 Y0.8814  
G01 X-2.2281 Y0.8802  
G01 X-2.2275 Y0.8791  
G01 X-2.2272 Y0.8780  
G01 X-2.2268 Y0.8770  
G01 X-2.2265 Y0.8758  
G01 X-2.2262 Y0.8745  
G01 X-2.2261 Y0.8734  
G01 X-2.2259 Y0.8724  
G01 X-2.2259 Y0.8711  
G01 X-2.2257 Y0.8698  
G01 X-2.2259 Y0.8687  
G01 X-2.2259 Y0.5741  
G01 X-2.2001 Y0.5741  
G01 X-2.1978 Y0.5765  
G01 X-2.1922 Y0.5803  
G01 X-2.1860 Y0.5828  
G01 X-2.1794 Y0.5841  
G01 X-2.1206 Y0.5841  
G01 X-2.1140 Y0.5828  
G01 X-2.1078 Y0.5803  
G01 X-2.1022 Y0.5765  
G01 X-2.0975 Y0.5718  
G01 X-2.0937 Y0.5662  
G01 X-2.0912 Y0.5600  
G01 X-2.0899 Y0.5534  
G01 X-2.0899 Y0.5466  
G01 X-2.0912 Y0.5400  
G01 X-2.0937 Y0.5338  
G01 X-2.0975 Y0.5282  
G01 X-2.1022 Y0.5235  
G01 X-2.1078 Y0.5197  
G01 X-2.1140 Y0.5172  
G01 X-2.1206 Y0.5159  
G01 X-2.1794 Y0.5159  
G01 X-2.1860 Y0.5172  
G01 X-2.1922 Y0.5197  
G01 X-2.1978 Y0.5235  
G01 X-2.2001 Y0.5259  
G01 X-2.2259 Y0.5259  
G01 X-2.2259 Y0.1729  
G01 X-2.2127 Y0.1641  
G01 X-1.0141 Y0.1641  
G01 X-1.0309 Y0.1978  
G01 X-1.0314 Y0.1986  
G01 X-1.0320 Y0.2000  
G01 X-1.0327 Y0.2013  
G01 X-1.0329 Y0.2022  
G01 X-1.0332 Y0.2030  
G01 X-1.0335 Y0.2044  
G01 X-1.0339 Y0.2059  
G01 X-1.0340 Y0.2068  
G01 X-1.0341 Y0.2076  
G01 X-1.0341 Y0.2091  
G01 X-1.0343 Y0.2107  
G01 X-1.0341 Y0.2115  
G01 X-1.0341 Y0.2124  
G01 X-1.0339 Y0.2139  
G01 X-1.0337 Y0.2154  
G01 X-1.0334 Y0.2162  
G01 X-1.0332 Y0.2170  
G01 X-1.0326 Y0.2185  
G01 X-1.0326 Y0.2187  
G01 X-1.0451 Y0.2313  
G01 X-1.0451 Y0.2687  
G01 X-1.0241 Y0.2897  
G01 X-1.0241 Y0.3103  
G01 X-1.0451 Y0.3313  
G01 X-1.0451 Y0.3687  
G01 X-1.0187 Y0.3951  
G01 X-0.9813 Y0.3951  
G01 X-0.9549 Y0.3687  
G01 X-0.9549 Y0.3313  
G00 Z0.1000  
G00 X-1.1959 Y0.2541  
G01 Z-0.0021 F10    
G01 X-1.1759 Y0.2341  F20    
G01 X-1.1759 Y0.2059  
G01 X-1.1959 Y0.1859  
G01 X-1.2241 Y0.1859  
G01 X-1.2341 Y0.1959  
G01 X-1.3159 Y0.1959  
G01 X-1.3259 Y0.1859  
G01 X-1.3541 Y0.1859  
G01 X-1.3741 Y0.2059  
G01 X-1.3741 Y0.2167  
G01 X-1.4643 Y0.2905  
G01 X-1.4652 Y0.2911  
G01 X-1.4661 Y0.2920  
G01 X-1.4671 Y0.2928  
G01 X-1.4678 Y0.2936  
G01 X-1.4686 Y0.2944  
G01 X-1.4693 Y0.2955  
G01 X-1.4702 Y0.2965  
G01 X-1.4707 Y0.2974  
G01 X-1.5987 Y0.4845  
G01 X-1.6000 Y0.4865  
G01 X-1.6013 Y0.4883  
G01 X-1.6013 Y0.4884  
G01 X-1.6014 Y0.4886  
G01 X-1.6023 Y0.4906  
G01 X-1.6031 Y0.4927  
G01 X-1.6032 Y0.4928  
G01 X-1.6032 Y0.4930  
G01 X-1.6037 Y0.4952  
G01 X-1.6041 Y0.4974  
G01 X-1.6041 Y0.4975  
G01 X-1.6041 Y0.4976  
G01 X-1.6041 Y0.4999  
G01 X-1.6042 Y0.5021  
G01 X-1.6041 Y0.5022  
G01 X-1.6041 Y0.7020  
G01 X-1.8535 Y0.7759  
G01 X-2.0000 Y0.7759  
G01 X-2.0412 Y0.7346  
G01 X-2.0446 Y0.7312  
G01 X-2.0486 Y0.7286  
G01 X-2.0530 Y0.7268  
G01 X-2.0576 Y0.7259  
G01 X-2.0999 Y0.7259  
G01 X-2.1022 Y0.7235  
G01 X-2.1078 Y0.7197  
G01 X-2.1140 Y0.7172  
G01 X-2.1206 Y0.7159  
G01 X-2.1794 Y0.7159  
G01 X-2.1860 Y0.7172  
G01 X-2.1922 Y0.7197  
G01 X-2.1978 Y0.7235  
G01 X-2.2025 Y0.7282  
G01 X-2.2063 Y0.7338  
G01 X-2.2088 Y0.7400  
G01 X-2.2101 Y0.7466  
G01 X-2.2101 Y0.7534  
G01 X-2.2088 Y0.7600  
G01 X-2.2063 Y0.7662  
G01 X-2.2025 Y0.7718  
G01 X-2.1978 Y0.7765  
G01 X-2.1922 Y0.7803  
G01 X-2.1860 Y0.7828  
G01 X-2.1794 Y0.7841  
G01 X-2.1206 Y0.7841  
G01 X-2.1140 Y0.7828  
G01 X-2.1078 Y0.7803  
G01 X-2.1022 Y0.7765  
G01 X-2.0999 Y0.7741  
G01 X-2.0700 Y0.7741  
G01 X-2.0254 Y0.8188  
G01 X-2.0214 Y0.8214  
G01 X-2.0170 Y0.8232  
G01 X-2.0124 Y0.8241  
G01 X-1.8513 Y0.8241  
G01 X-1.8502 Y0.8243  
G01 X-1.8489 Y0.8241  
G01 X-1.8476 Y0.8241  
G01 X-1.8465 Y0.8239  
G01 X-1.8454 Y0.8238  
G01 X-1.8442 Y0.8235  
G01 X-1.8430 Y0.8232  
G01 X-1.8419 Y0.8228  
G01 X-1.5742 Y0.7435  
G01 X-1.5730 Y0.7432  
G01 X-1.5719 Y0.7428  
G01 X-1.5709 Y0.7425  
G01 X-1.5697 Y0.7419  
G01 X-1.5686 Y0.7414  
G01 X-1.5676 Y0.7408  
G01 X-1.5666 Y0.7403  
G01 X-1.5657 Y0.7395  
G01 X-1.5646 Y0.7388  
G01 X-1.5638 Y0.7380  
G01 X-1.5630 Y0.7373  
G01 X-1.5621 Y0.7363  
G01 X-1.5612 Y0.7354  
G01 X-1.5606 Y0.7345  
G01 X-1.5599 Y0.7336  
G01 X-1.5593 Y0.7325  
G01 X-1.5586 Y0.7314  
G01 X-1.5582 Y0.7304  
G01 X-1.5576 Y0.7294  
G01 X-1.5573 Y0.7282  
G01 X-1.5568 Y0.7270  
G01 X-1.5566 Y0.7260  
G01 X-1.5562 Y0.7249  
G01 X-1.5561 Y0.7236  
G01 X-1.5559 Y0.7224  
G01 X-1.5559 Y0.7213  
G01 X-1.5557 Y0.7202  
G01 X-1.5559 Y0.7189  
G01 X-1.5559 Y0.5075  
G01 X-1.4320 Y0.3265  
G01 X-1.3436 Y0.2541  
G01 X-1.3259 Y0.2541  
G01 X-1.3159 Y0.2441  
G01 X-1.2341 Y0.2441  
G01 X-1.2241 Y0.2541  
G01 X-1.1959 Y0.2541  
G00 Z0.1000  
G00 X-1.4659 Y0.2541  
G01 Z-0.0021 F10    
G01 X-1.4459 Y0.2341  F20    
G01 X-1.4459 Y0.2059  
G01 X-1.4659 Y0.1859  
G01 X-1.4941 Y0.1859  
G01 X-1.5141 Y0.2059  
G01 X-1.5141 Y0.2120  
G01 X-1.6108 Y0.2683  
G01 X-1.6114 Y0.2686  
G01 X-1.6128 Y0.2695  
G01 X-1.6142 Y0.2703  
G01 X-1.6148 Y0.2708  
G01 X-1.6154 Y0.2712  
G01 X-1.6166 Y0.2724  
G01 X-1.6178 Y0.2735  
G01 X-1.6182 Y0.2741  
G01 X-1.7550 Y0.4108  
G01 X-1.8346 Y0.3312  
G01 X-1.8386 Y0.3286  
G01 X-1.8430 Y0.3268  
G01 X-1.8476 Y0.3259  
G01 X-2.0999 Y0.3259  
G01 X-2.1022 Y0.3235  
G01 X-2.1078 Y0.3197  
G01 X-2.1140 Y0.3172  
G01 X-2.1206 Y0.3159  
G01 X-2.1794 Y0.3159  
G01 X-2.1860 Y0.3172  
G01 X-2.1922 Y0.3197  
G01 X-2.1978 Y0.3235  
G01 X-2.2025 Y0.3282  
G01 X-2.2063 Y0.3338  
G01 X-2.2088 Y0.3400  
G01 X-2.2101 Y0.3466  
G01 X-2.2101 Y0.3534  
G01 X-2.2088 Y0.3600  
G01 X-2.2063 Y0.3662  
G01 X-2.2025 Y0.3718  
G01 X-2.1978 Y0.3765  
G01 X-2.1922 Y0.3803  
G01 X-2.1860 Y0.3828  
G01 X-2.1794 Y0.3841  
G01 X-2.1206 Y0.3841  
G01 X-2.1140 Y0.3828  
G01 X-2.1078 Y0.3803  
G01 X-2.1022 Y0.3765  
G01 X-2.0999 Y0.3741  
G01 X-1.8600 Y0.3741  
G01 X-1.7698 Y0.4643  
G01 X-1.6941 Y0.6158  
G01 X-1.6941 Y0.6441  
G01 X-1.6741 Y0.6641  
G01 X-1.6459 Y0.6641  
G01 X-1.6259 Y0.6441  
G01 X-1.6259 Y0.6159  
G01 X-1.6459 Y0.5959  
G01 X-1.6501 Y0.5959  
G01 X-1.7239 Y0.4481  
G01 X-1.5851 Y0.3093  
G01 X-1.4906 Y0.2541  
G01 X-1.4659 Y0.2541  
G00 Z0.1000  
G00 X-1.6259 Y0.2441  
G01 Z-0.0021 F10    
G01 X-1.6259 Y0.2159  F20    
G01 X-1.6459 Y0.1959  
G01 X-1.6741 Y0.1959  
G01 X-1.6859 Y0.2076  
G01 X-1.8957 Y0.2220  
G01 X-1.9259 Y0.1919  
G01 X-1.9741 Y0.1919  
G01 X-2.0081 Y0.2259  
G01 X-2.0999 Y0.2259  
G01 X-2.1022 Y0.2235  
G01 X-2.1078 Y0.2197  
G01 X-2.1140 Y0.2172  
G01 X-2.1206 Y0.2159  
G01 X-2.1794 Y0.2159  
G01 X-2.1860 Y0.2172  
G01 X-2.1922 Y0.2197  
G01 X-2.1978 Y0.2235  
G01 X-2.2025 Y0.2282  
G01 X-2.2063 Y0.2338  
G01 X-2.2088 Y0.2400  
G01 X-2.2101 Y0.2466  
G01 X-2.2101 Y0.2534  
G01 X-2.2088 Y0.2600  
G01 X-2.2063 Y0.2662  
G01 X-2.2025 Y0.2718  
G01 X-2.1978 Y0.2765  
G01 X-2.1922 Y0.2803  
G01 X-2.1860 Y0.2828  
G01 X-2.1794 Y0.2841  
G01 X-2.1206 Y0.2841  
G01 X-2.1140 Y0.2828  
G01 X-2.1078 Y0.2803  
G01 X-2.1022 Y0.2765  
G01 X-2.0999 Y0.2741  
G01 X-2.0081 Y0.2741  
G01 X-1.9741 Y0.3081  
G01 X-1.9259 Y0.3081  
G01 X-1.8919 Y0.2741  
G01 X-1.8919 Y0.2702  
G01 X-1.6825 Y0.2558  
G01 X-1.6741 Y0.2641  
G01 X-1.6459 Y0.2641  
G01 X-1.6259 Y0.2441  
G00 Z0.1000  
G00 X-1.9786 Y0.4232  
G01 Z-0.0021 F10    
G01 X-1.9832 Y0.4186  F20    
G01 X-1.9884 Y0.4148  
G01 X-1.9942 Y0.4119  
G01 X-2.0004 Y0.4099  
G01 X-2.0068 Y0.4089  
G01 X-2.0132 Y0.4089  
G01 X-2.0196 Y0.4099  
G01 X-2.0258 Y0.4119  
G01 X-2.0316 Y0.4148  
G01 X-2.0368 Y0.4186  
G01 X-2.0414 Y0.4232  
G01 X-2.0433 Y0.4259  
G01 X-2.0999 Y0.4259  
G01 X-2.1022 Y0.4235  
G01 X-2.1078 Y0.4197  
G01 X-2.1140 Y0.4172  
G01 X-2.1206 Y0.4159  
G01 X-2.1794 Y0.4159  
G01 X-2.1860 Y0.4172  
G01 X-2.1922 Y0.4197  
G01 X-2.1978 Y0.4235  
G01 X-2.2025 Y0.4282  
G01 X-2.2063 Y0.4338  
G01 X-2.2088 Y0.4400  
G01 X-2.2101 Y0.4466  
G01 X-2.2101 Y0.4534  
G01 X-2.2088 Y0.4600  
G01 X-2.2063 Y0.4662  
G01 X-2.2025 Y0.4718  
G01 X-2.1978 Y0.4765  
G01 X-2.1922 Y0.4803  
G01 X-2.1860 Y0.4828  
G01 X-2.1794 Y0.4841  
G01 X-2.1206 Y0.4841  
G01 X-2.1140 Y0.4828  
G01 X-2.1078 Y0.4803  
G01 X-2.1022 Y0.4765  
G01 X-2.0999 Y0.4741  
G01 X-2.0433 Y0.4741  
G01 X-2.0414 Y0.4768  
G01 X-2.0368 Y0.4814  
G01 X-2.0316 Y0.4852  
G01 X-2.0258 Y0.4881  
G01 X-2.0196 Y0.4901  
G01 X-2.0132 Y0.4911  
G01 X-2.0068 Y0.4911  
G01 X-2.0004 Y0.4901  
G01 X-1.9942 Y0.4881  
G01 X-1.9884 Y0.4852  
G01 X-1.9832 Y0.4814  
G01 X-1.9786 Y0.4768  
G01 X-1.9748 Y0.4716  
G01 X-1.9719 Y0.4658  
G01 X-1.9699 Y0.4596  
G01 X-1.9689 Y0.4532  
G01 X-1.9689 Y0.4468  
G01 X-1.9699 Y0.4404  
G01 X-1.9719 Y0.4342  
G01 X-1.9748 Y0.4284  
G01 X-1.9786 Y0.4232  
G00 Z0.1000  
G00 X-1.9786 Y0.6232  
G01 Z-0.0021 F10    
G01 X-1.9832 Y0.6186  F20    
G01 X-1.9884 Y0.6148  
G01 X-1.9942 Y0.6119  
G01 X-2.0004 Y0.6099  
G01 X-2.0068 Y0.6089  
G01 X-2.0132 Y0.6089  
G01 X-2.0196 Y0.6099  
G01 X-2.0258 Y0.6119  
G01 X-2.0316 Y0.6148  
G01 X-2.0368 Y0.6186  
G01 X-2.0414 Y0.6232  
G01 X-2.0433 Y0.6259  
G01 X-2.0999 Y0.6259  
G01 X-2.1022 Y0.6235  
G01 X-2.1078 Y0.6197  
G01 X-2.1140 Y0.6172  
G01 X-2.1206 Y0.6159  
G01 X-2.1794 Y0.6159  
G01 X-2.1860 Y0.6172  
G01 X-2.1922 Y0.6197  
G01 X-2.1978 Y0.6235  
G01 X-2.2025 Y0.6282  
G01 X-2.2063 Y0.6338  
G01 X-2.2088 Y0.6400  
G01 X-2.2101 Y0.6466  
G01 X-2.2101 Y0.6534  
G01 X-2.2088 Y0.6600  
G01 X-2.2063 Y0.6662  
G01 X-2.2025 Y0.6718  
G01 X-2.1978 Y0.6765  
G01 X-2.1922 Y0.6803  
G01 X-2.1860 Y0.6828  
G01 X-2.1794 Y0.6841  
G01 X-2.1206 Y0.6841  
G01 X-2.1140 Y0.6828  
G01 X-2.1078 Y0.6803  
G01 X-2.1022 Y0.6765  
G01 X-2.0999 Y0.6741  
G01 X-2.0433 Y0.6741  
G01 X-2.0414 Y0.6768  
G01 X-2.0368 Y0.6814  
G01 X-2.0316 Y0.6852  
G01 X-2.0258 Y0.6881  
G01 X-2.0196 Y0.6901  
G01 X-2.0132 Y0.6911  
G01 X-2.0068 Y0.6911  
G01 X-2.0004 Y0.6901  
G01 X-1.9942 Y0.6881  
G01 X-1.9884 Y0.6852  
G01 X-1.9832 Y0.6814  
G01 X-1.9786 Y0.6768  
G01 X-1.9748 Y0.6716  
G01 X-1.9719 Y0.6658  
G01 X-1.9699 Y0.6596  
G01 X-1.9689 Y0.6532  
G01 X-1.9689 Y0.6468  
G01 X-1.9699 Y0.6404  
G01 X-1.9719 Y0.6342  
G01 X-1.9748 Y0.6284  
G01 X-1.9786 Y0.6232  
G00 Z0.1000  
G00 X-2.0975 Y0.8282  
G01 Z-0.0021 F10    
G01 X-2.1022 Y0.8235  F20    
G01 X-2.1078 Y0.8197  
G01 X-2.1140 Y0.8172  
G01 X-2.1206 Y0.8159  
G01 X-2.1794 Y0.8159  
G01 X-2.1860 Y0.8172  
G01 X-2.1922 Y0.8197  
G01 X-2.1978 Y0.8235  
G01 X-2.2025 Y0.8282  
G01 X-2.2063 Y0.8338  
G01 X-2.2088 Y0.8400  
G01 X-2.2101 Y0.8466  
G01 X-2.2101 Y0.8534  
G01 X-2.2088 Y0.8600  
G01 X-2.2063 Y0.8662  
G01 X-2.2025 Y0.8718  
G01 X-2.1978 Y0.8765  
G01 X-2.1922 Y0.8803  
G01 X-2.1860 Y0.8828  
G01 X-2.1794 Y0.8841  
G01 X-1.8019 Y0.8841  
G01 X-1.8015 Y0.8842  
G01 X-1.7996 Y0.8841  
G01 X-1.7976 Y0.8841  
G01 X-1.7972 Y0.8841  
G01 X-1.5206 Y0.8742  
G01 X-1.5196 Y0.8743  
G01 X-1.5182 Y0.8741  
G01 X-1.5168 Y0.8740  
G01 X-1.5158 Y0.8738  
G01 X-1.5149 Y0.8737  
G01 X-1.5135 Y0.8733  
G01 X-1.5121 Y0.8730  
G01 X-1.5113 Y0.8726  
G01 X-1.5104 Y0.8723  
G01 X-1.5091 Y0.8716  
G01 X-1.5078 Y0.8710  
G01 X-1.5070 Y0.8704  
G01 X-1.3751 Y0.7971  
G01 X-1.3641 Y0.8081  
G01 X-1.3159 Y0.8081  
G01 X-1.2819 Y0.7741  
G01 X-1.2819 Y0.7259  
G01 X-1.3159 Y0.6919  
G01 X-1.3159 Y0.6441  
G01 X-1.3059 Y0.6341  
G01 X-1.3059 Y0.6059  
G01 X-1.3259 Y0.5859  
G01 X-1.3541 Y0.5859  
G01 X-1.3741 Y0.6059  
G01 X-1.3741 Y0.6341  
G01 X-1.3641 Y0.6441  
G01 X-1.3641 Y0.6919  
G01 X-1.3981 Y0.7259  
G01 X-1.3981 Y0.7547  
G01 X-1.5267 Y0.8261  
G01 X-1.8004 Y0.8359  
G01 X-2.0929 Y0.8359  
G01 X-2.0937 Y0.8338  
G01 X-2.0975 Y0.8282  
G00 Z0.1000  
G00 X-2.3975 Y0.8282  
G01 Z-0.0021 F10    
G01 X-2.4022 Y0.8235  F20    
G01 X-2.4078 Y0.8197  
G01 X-2.4140 Y0.8172  
G01 X-2.4206 Y0.8159  
G01 X-2.4794 Y0.8159  
G01 X-2.4860 Y0.8172  
G01 X-2.4922 Y0.8197  
G01 X-2.4978 Y0.8235  
G01 X-2.5001 Y0.8259  
G01 X-2.7119 Y0.8259  
G01 X-2.7459 Y0.7919  
G01 X-2.7941 Y0.7919  
G01 X-2.8097 Y0.8075  
G01 X-2.8441 Y0.7817  
G01 X-2.8446 Y0.7812  
G01 X-2.8460 Y0.7803  
G01 X-2.8474 Y0.7793  
G01 X-2.8480 Y0.7790  
G01 X-2.8486 Y0.7786  
G01 X-2.8502 Y0.7779  
G01 X-2.8517 Y0.7772  
G01 X-2.8523 Y0.7770  
G01 X-2.8530 Y0.7768  
G01 X-2.8546 Y0.7764  
G01 X-2.8563 Y0.7760  
G01 X-2.8570 Y0.7760  
G01 X-2.8576 Y0.7759  
G01 X-2.8593 Y0.7759  
G01 X-2.8611 Y0.7758  
G01 X-2.8617 Y0.7759  
G01 X-2.9495 Y0.7759  
G01 X-3.0659 Y0.6512  
G01 X-3.0659 Y0.6359  
G01 X-3.0859 Y0.6159  
G01 X-3.1141 Y0.6159  
G01 X-3.1341 Y0.6359  
G01 X-3.1341 Y0.6641  
G01 X-3.1141 Y0.6841  
G01 X-3.1012 Y0.6841  
G01 X-2.9790 Y0.8150  
G01 X-2.9788 Y0.8154  
G01 X-2.9774 Y0.8168  
G01 X-2.9760 Y0.8182  
G01 X-2.9757 Y0.8185  
G01 X-2.9754 Y0.8188  
G01 X-2.9738 Y0.8198  
G01 X-2.9722 Y0.8210  
G01 X-2.9718 Y0.8212  
G01 X-2.9714 Y0.8214  
G01 X-2.9696 Y0.8222  
G01 X-2.9678 Y0.8230  
G01 X-2.9674 Y0.8231  
G01 X-2.9670 Y0.8232  
G01 X-2.9651 Y0.8236  
G01 X-2.9632 Y0.8241  
G01 X-2.9628 Y0.8241  
G01 X-2.9624 Y0.8241  
G01 X-2.9604 Y0.8241  
G01 X-2.9585 Y0.8242  
G01 X-2.9580 Y0.8241  
G01 X-2.8680 Y0.8241  
G01 X-2.8281 Y0.8541  
G01 X-2.8281 Y0.8741  
G01 X-2.7941 Y0.9081  
G01 X-2.7459 Y0.9081  
G01 X-2.7119 Y0.8741  
G01 X-2.5001 Y0.8741  
G01 X-2.4978 Y0.8765  
G01 X-2.4922 Y0.8803  
G01 X-2.4860 Y0.8828  
G01 X-2.4794 Y0.8841  
G01 X-2.4206 Y0.8841  
G01 X-2.4140 Y0.8828  
G01 X-2.4078 Y0.8803  
G01 X-2.4022 Y0.8765  
G01 X-2.3975 Y0.8718  
G01 X-2.3937 Y0.8662  
G01 X-2.3912 Y0.8600  
G01 X-2.3899 Y0.8534  
G01 X-2.3899 Y0.8466  
G01 X-2.3912 Y0.8400  
G01 X-2.3937 Y0.8338  
G01 X-2.3975 Y0.8282  
G00 Z0.1000  
G00 X-2.4022 Y0.7765  
G01 Z-0.0021 F10    
G01 X-2.3975 Y0.7718  F20    
G01 X-2.3937 Y0.7662  
G01 X-2.3912 Y0.7600  
G01 X-2.3899 Y0.7534  
G01 X-2.3899 Y0.7466  
G01 X-2.3912 Y0.7400  
G01 X-2.3937 Y0.7338  
G01 X-2.3975 Y0.7282  
G01 X-2.4022 Y0.7235  
G01 X-2.4078 Y0.7197  
G01 X-2.4140 Y0.7172  
G01 X-2.4206 Y0.7159  
G01 X-2.4794 Y0.7159  
G01 X-2.4860 Y0.7172  
G01 X-2.4922 Y0.7197  
G01 X-2.4978 Y0.7235  
G01 X-2.5001 Y0.7259  
G01 X-2.8000 Y0.7259  
G01 X-3.0759 Y0.4500  
G01 X-3.0759 Y0.2741  
G01 X-3.0659 Y0.2641  
G01 X-3.0659 Y0.2359  
G01 X-3.0859 Y0.2159  
G01 X-3.1141 Y0.2159  
G01 X-3.1241 Y0.2259  
G01 X-3.2759 Y0.2259  
G01 X-3.2859 Y0.2159  
G01 X-3.3141 Y0.2159  
G01 X-3.3341 Y0.2359  
G01 X-3.3341 Y0.2641  
G01 X-3.3141 Y0.2841  
G01 X-3.2859 Y0.2841  
G01 X-3.2759 Y0.2741  
G01 X-3.1300 Y0.2741  
G01 X-3.1241 Y0.2800  
G01 X-3.1241 Y0.4624  
G01 X-3.1232 Y0.4670  
G01 X-3.1214 Y0.4714  
G01 X-3.1188 Y0.4754  
G01 X-3.1154 Y0.4788  
G01 X-2.8254 Y0.7688  
G01 X-2.8214 Y0.7714  
G01 X-2.8170 Y0.7732  
G01 X-2.8124 Y0.7741  
G01 X-2.5001 Y0.7741  
G01 X-2.4978 Y0.7765  
G01 X-2.4922 Y0.7803  
G01 X-2.4860 Y0.7828  
G01 X-2.4794 Y0.7841  
G01 X-2.4206 Y0.7841  
G01 X-2.4140 Y0.7828  
G01 X-2.4078 Y0.7803  
G01 X-2.4022 Y0.7765  
G00 Z0.1000  
G00 X-2.4022 Y0.6765  
G01 Z-0.0021 F10    
G01 X-2.3975 Y0.6718  F20    
G01 X-2.3937 Y0.6662  
G01 X-2.3912 Y0.6600  
G01 X-2.3899 Y0.6534  
G01 X-2.3899 Y0.6466  
G01 X-2.3912 Y0.6400  
G01 X-2.3937 Y0.6338  
G01 X-2.3975 Y0.6282  
G01 X-2.4022 Y0.6235  
G01 X-2.4078 Y0.6197  
G01 X-2.4140 Y0.6172  
G01 X-2.4206 Y0.6159  
G01 X-2.4794 Y0.6159  
G01 X-2.4860 Y0.6172  
G01 X-2.4922 Y0.6197  
G01 X-2.4978 Y0.6235  
G01 X-2.5001 Y0.6259  
G01 X-2.5367 Y0.6259  
G01 X-2.5386 Y0.6232  
G01 X-2.5432 Y0.6186  
G01 X-2.5484 Y0.6148  
G01 X-2.5542 Y0.6119  
G01 X-2.5604 Y0.6099  
G01 X-2.5668 Y0.6089  
G01 X-2.5732 Y0.6089  
G01 X-2.5796 Y0.6099  
G01 X-2.5858 Y0.6119  
G01 X-2.5916 Y0.6148  
G01 X-2.5968 Y0.6186  
G01 X-2.6014 Y0.6232  
G01 X-2.6052 Y0.6284  
G01 X-2.6081 Y0.6342  
G01 X-2.6101 Y0.6404  
G01 X-2.6111 Y0.6468  
G01 X-2.6111 Y0.6532  
G01 X-2.6101 Y0.6596  
G01 X-2.6081 Y0.6658  
G01 X-2.6052 Y0.6716  
G01 X-2.6014 Y0.6768  
G01 X-2.5968 Y0.6814  
G01 X-2.5916 Y0.6852  
G01 X-2.5858 Y0.6881  
G01 X-2.5796 Y0.6901  
G01 X-2.5732 Y0.6911  
G01 X-2.5668 Y0.6911  
G01 X-2.5604 Y0.6901  
G01 X-2.5542 Y0.6881  
G01 X-2.5484 Y0.6852  
G01 X-2.5432 Y0.6814  
G01 X-2.5386 Y0.6768  
G01 X-2.5367 Y0.6741  
G01 X-2.5001 Y0.6741  
G01 X-2.4978 Y0.6765  
G01 X-2.4922 Y0.6803  
G01 X-2.4860 Y0.6828  
G01 X-2.4794 Y0.6841  
G01 X-2.4206 Y0.6841  
G01 X-2.4140 Y0.6828  
G01 X-2.4078 Y0.6803  
G01 X-2.4022 Y0.6765  
G00 Z0.1000  
G00 X-2.4022 Y0.4765  
G01 Z-0.0021 F10    
G01 X-2.3975 Y0.4718  F20    
G01 X-2.3937 Y0.4662  
G01 X-2.3912 Y0.4600  
G01 X-2.3899 Y0.4534  
G01 X-2.3899 Y0.4466  
G01 X-2.3912 Y0.4400  
G01 X-2.3937 Y0.4338  
G01 X-2.3975 Y0.4282  
G01 X-2.4022 Y0.4235  
G01 X-2.4078 Y0.4197  
G01 X-2.4140 Y0.4172  
G01 X-2.4206 Y0.4159  
G01 X-2.4794 Y0.4159  
G01 X-2.4860 Y0.4172  
G01 X-2.4922 Y0.4197  
G01 X-2.4978 Y0.4235  
G01 X-2.5001 Y0.4259  
G01 X-2.6267 Y0.4259  
G01 X-2.6286 Y0.4232  
G01 X-2.6332 Y0.4186  
G01 X-2.6384 Y0.4148  
G01 X-2.6442 Y0.4119  
G01 X-2.6504 Y0.4099  
G01 X-2.6568 Y0.4089  
G01 X-2.6632 Y0.4089  
G01 X-2.6696 Y0.4099  
G01 X-2.6758 Y0.4119  
G01 X-2.6816 Y0.4148  
G01 X-2.6868 Y0.4186  
G01 X-2.6914 Y0.4232  
G01 X-2.6952 Y0.4284  
G01 X-2.6981 Y0.4342  
G01 X-2.7001 Y0.4404  
G01 X-2.7011 Y0.4468  
G01 X-2.7011 Y0.4532  
G01 X-2.7001 Y0.4596  
G01 X-2.6981 Y0.4658  
G01 X-2.6952 Y0.4716  
G01 X-2.6914 Y0.4768  
G01 X-2.6868 Y0.4814  
G01 X-2.6816 Y0.4852  
G01 X-2.6758 Y0.4881  
G01 X-2.6696 Y0.4901  
G01 X-2.6632 Y0.4911  
G01 X-2.6568 Y0.4911  
G01 X-2.6504 Y0.4901  
G01 X-2.6442 Y0.4881  
G01 X-2.6384 Y0.4852  
G01 X-2.6332 Y0.4814  
G01 X-2.6286 Y0.4768  
G01 X-2.6267 Y0.4741  
G01 X-2.5001 Y0.4741  
G01 X-2.4978 Y0.4765  
G01 X-2.4922 Y0.4803  
G01 X-2.4860 Y0.4828  
G01 X-2.4794 Y0.4841  
G01 X-2.4206 Y0.4841  
G01 X-2.4140 Y0.4828  
G01 X-2.4078 Y0.4803  
G01 X-2.4022 Y0.4765  
G00 Z0.1000  
G00 X-2.4022 Y0.3765  
G01 Z-0.0021 F10    
G01 X-2.3975 Y0.3718  F20    
G01 X-2.3937 Y0.3662  
G01 X-2.3912 Y0.3600  
G01 X-2.3899 Y0.3534  
G01 X-2.3899 Y0.3466  
G01 X-2.3912 Y0.3400  
G01 X-2.3937 Y0.3338  
G01 X-2.3975 Y0.3282  
G01 X-2.4022 Y0.3235  
G01 X-2.4078 Y0.3197  
G01 X-2.4140 Y0.3172  
G01 X-2.4206 Y0.3159  
G01 X-2.4794 Y0.3159  
G01 X-2.4860 Y0.3172  
G01 X-2.4922 Y0.3197  
G01 X-2.4978 Y0.3235  
G01 X-2.5001 Y0.3259  
G01 X-2.7524 Y0.3259  
G01 X-2.7570 Y0.3268  
G01 X-2.7614 Y0.3286  
G01 X-2.7654 Y0.3312  
G01 X-2.7900 Y0.3558  
G01 X-3.0146 Y0.1312  
G01 X-3.0186 Y0.1286  
G01 X-3.0230 Y0.1268  
G01 X-3.0276 Y0.1259  
G01 X-3.4024 Y0.1259  
G01 X-3.4070 Y0.1268  
G01 X-3.4114 Y0.1286  
G01 X-3.4154 Y0.1312  
G01 X-3.5000 Y0.2159  
G01 X-3.5141 Y0.2159  
G01 X-3.5341 Y0.2359  
G01 X-3.5341 Y0.2641  
G01 X-3.5141 Y0.2841  
G01 X-3.4859 Y0.2841  
G01 X-3.4659 Y0.2641  
G01 X-3.4659 Y0.2500  
G01 X-3.3900 Y0.1741  
G01 X-3.0400 Y0.1741  
G01 X-2.8242 Y0.3900  
G01 X-2.8968 Y0.4626  
G01 X-2.8982 Y0.4640  
G01 X-2.8985 Y0.4643  
G01 X-2.8988 Y0.4646  
G01 X-2.8999 Y0.4662  
G01 X-2.9010 Y0.4678  
G01 X-2.9012 Y0.4682  
G01 X-2.9014 Y0.4686  
G01 X-2.9022 Y0.4704  
G01 X-2.9030 Y0.4722  
G01 X-2.9031 Y0.4726  
G01 X-2.9032 Y0.4730  
G01 X-2.9036 Y0.4749  
G01 X-2.9041 Y0.4768  
G01 X-2.9041 Y0.4772  
G01 X-2.9041 Y0.4776  
G01 X-2.9041 Y0.4796  
G01 X-2.9042 Y0.4816  
G01 X-2.9041 Y0.4820  
G01 X-2.9041 Y0.4824  
G01 X-2.9038 Y0.4843  
G01 X-2.9034 Y0.4863  
G01 X-2.9033 Y0.4866  
G01 X-2.9032 Y0.4870  
G01 X-2.9025 Y0.4889  
G01 X-2.8519 Y0.6236  
G01 X-2.8541 Y0.6259  
G01 X-2.8541 Y0.6541  
G01 X-2.8341 Y0.6741  
G01 X-2.8059 Y0.6741  
G01 X-2.7859 Y0.6541  
G01 X-2.7859 Y0.6259  
G01 X-2.8059 Y0.6059  
G01 X-2.8070 Y0.6059  
G01 X-2.8519 Y0.4861  
G01 X-2.7746 Y0.4088  
G01 X-2.7712 Y0.4054  
G01 X-2.7400 Y0.3741  
G01 X-2.5001 Y0.3741  
G01 X-2.4978 Y0.3765  
G01 X-2.4922 Y0.3803  
G01 X-2.4860 Y0.3828  
G01 X-2.4794 Y0.3841  
G01 X-2.4206 Y0.3841  
G01 X-2.4140 Y0.3828  
G01 X-2.4078 Y0.3803  
G01 X-2.4022 Y0.3765  
G00 Z0.1000  
G00 X-2.4022 Y0.2765  
G01 Z-0.0021 F10    
G01 X-2.3975 Y0.2718  F20    
G01 X-2.3937 Y0.2662  
G01 X-2.3912 Y0.2600  
G01 X-2.3899 Y0.2534  
G01 X-2.3899 Y0.2466  
G01 X-2.3912 Y0.2400  
G01 X-2.3937 Y0.2338  
G01 X-2.3975 Y0.2282  
G01 X-2.4022 Y0.2235  
G01 X-2.4078 Y0.2197  
G01 X-2.4140 Y0.2172  
G01 X-2.4206 Y0.2159  
G01 X-2.4794 Y0.2159  
G01 X-2.4860 Y0.2172  
G01 X-2.4922 Y0.2197  
G01 X-2.4978 Y0.2235  
G01 X-2.5001 Y0.2259  
G01 X-2.5961 Y0.2259  
G01 X-2.6119 Y0.2206  
G01 X-2.6119 Y0.2159  
G01 X-2.6459 Y0.1819  
G01 X-2.6941 Y0.1819  
G01 X-2.7281 Y0.2159  
G01 X-2.7959 Y0.2159  
G01 X-2.8059 Y0.2059  
G01 X-2.8341 Y0.2059  
G01 X-2.8541 Y0.2259  
G01 X-2.8541 Y0.2541  
G01 X-2.8341 Y0.2741  
G01 X-2.8059 Y0.2741  
G01 X-2.7959 Y0.2641  
G01 X-2.7281 Y0.2641  
G01 X-2.6941 Y0.2981  
G01 X-2.6459 Y0.2981  
G01 X-2.6174 Y0.2697  
G01 X-2.6084 Y0.2726  
G01 X-2.6070 Y0.2732  
G01 X-2.6062 Y0.2734  
G01 X-2.6054 Y0.2737  
G01 X-2.6039 Y0.2739  
G01 X-2.6024 Y0.2741  
G01 X-2.6015 Y0.2741  
G01 X-2.6007 Y0.2743  
G01 X-2.5991 Y0.2741  
G01 X-2.5001 Y0.2741  
G01 X-2.4978 Y0.2765  
G01 X-2.4922 Y0.2803  
G01 X-2.4860 Y0.2828  
G01 X-2.4794 Y0.2841  
G01 X-2.4206 Y0.2841  
G01 X-2.4140 Y0.2828  
G01 X-2.4078 Y0.2803  
G01 X-2.4022 Y0.2765  
G00 Z0.1000  
G00 X-2.4208 Y1.2260  
G01 Z-0.0021 F10    
G01 X-2.4260 Y1.2208  F20    
G01 X-2.4322 Y1.2166  
G01 X-2.4390 Y1.2138  
G01 X-2.4463 Y1.2124  
G01 X-2.4537 Y1.2124  
G01 X-2.4610 Y1.2138  
G01 X-2.4678 Y1.2166  
G01 X-2.4740 Y1.2208  
G01 X-2.4792 Y1.2260  
G01 X-2.4834 Y1.2322  
G01 X-2.4862 Y1.2390  
G01 X-2.4876 Y1.2463  
G01 X-2.4876 Y1.2537  
G01 X-2.4862 Y1.2610  
G01 X-2.4834 Y1.2678  
G01 X-2.4792 Y1.2740  
G01 X-2.4740 Y1.2792  
G01 X-2.4678 Y1.2834  
G01 X-2.4610 Y1.2862  
G01 X-2.4537 Y1.2876  
G01 X-2.4465 Y1.2876  
G01 X-2.4154 Y1.3188  
G01 X-2.4114 Y1.3214  
G01 X-2.4070 Y1.3232  
G01 X-2.4024 Y1.3241  
G01 X-2.2100 Y1.3241  
G01 X-2.1787 Y1.3555  
G01 X-2.1803 Y1.3578  
G01 X-2.1828 Y1.3640  
G01 X-2.1841 Y1.3706  
G01 X-2.1841 Y1.4294  
G01 X-2.1828 Y1.4360  
G01 X-2.1803 Y1.4422  
G01 X-2.1765 Y1.4478  
G01 X-2.1718 Y1.4525  
G01 X-2.1662 Y1.4563  
G01 X-2.1600 Y1.4588  
G01 X-2.1534 Y1.4601  
G01 X-2.1466 Y1.4601  
G01 X-2.1400 Y1.4588  
G01 X-2.1338 Y1.4563  
G01 X-2.1282 Y1.4525  
G01 X-2.1235 Y1.4478  
G01 X-2.1197 Y1.4422  
G01 X-2.1172 Y1.4360  
G01 X-2.1159 Y1.4294  
G01 X-2.1159 Y1.3706  
G01 X-2.1172 Y1.3640  
G01 X-2.1197 Y1.3578  
G01 X-2.1235 Y1.3522  
G01 X-2.1259 Y1.3499  
G01 X-2.1259 Y1.3476  
G01 X-2.1268 Y1.3430  
G01 X-2.1286 Y1.3386  
G01 X-2.1312 Y1.3346  
G01 X-2.1812 Y1.2846  
G01 X-2.1846 Y1.2812  
G01 X-2.1886 Y1.2786  
G01 X-2.1930 Y1.2768  
G01 X-2.1976 Y1.2759  
G01 X-2.3900 Y1.2759  
G01 X-2.4124 Y1.2535  
G01 X-2.4124 Y1.2463  
G01 X-2.4138 Y1.2390  
G01 X-2.4166 Y1.2322  
G01 X-2.4208 Y1.2260  
G00 Z0.1000  
G00 X-2.4208 Y1.3260  
G01 Z-0.0021 F10    
G01 X-2.4260 Y1.3208  F20    
G01 X-2.4322 Y1.3166  
G01 X-2.4390 Y1.3138  
G01 X-2.4463 Y1.3124  
G01 X-2.4537 Y1.3124  
G01 X-2.4610 Y1.3138  
G01 X-2.4678 Y1.3166  
G01 X-2.4740 Y1.3208  
G01 X-2.4792 Y1.3260  
G01 X-2.4834 Y1.3322  
G01 X-2.4862 Y1.3390  
G01 X-2.4876 Y1.3463  
G01 X-2.4876 Y1.3537  
G01 X-2.4862 Y1.3610  
G01 X-2.4834 Y1.3678  
G01 X-2.4792 Y1.3740  
G01 X-2.4740 Y1.3792  
G01 X-2.4678 Y1.3834  
G01 X-2.4610 Y1.3862  
G01 X-2.4537 Y1.3876  
G01 X-2.4465 Y1.3876  
G01 X-2.4154 Y1.4188  
G01 X-2.4114 Y1.4214  
G01 X-2.4070 Y1.4232  
G01 X-2.4024 Y1.4241  
G01 X-2.2841 Y1.4241  
G01 X-2.2841 Y1.4294  
G01 X-2.2828 Y1.4360  
G01 X-2.2803 Y1.4422  
G01 X-2.2765 Y1.4478  
G01 X-2.2718 Y1.4525  
G01 X-2.2662 Y1.4563  
G01 X-2.2600 Y1.4588  
G01 X-2.2534 Y1.4601  
G01 X-2.2466 Y1.4601  
G01 X-2.2400 Y1.4588  
G01 X-2.2338 Y1.4563  
G01 X-2.2282 Y1.4525  
G01 X-2.2235 Y1.4478  
G01 X-2.2197 Y1.4422  
G01 X-2.2172 Y1.4360  
G01 X-2.2159 Y1.4294  
G01 X-2.2159 Y1.3706  
G01 X-2.2172 Y1.3640  
G01 X-2.2197 Y1.3578  
G01 X-2.2235 Y1.3522  
G01 X-2.2282 Y1.3475  
G01 X-2.2338 Y1.3437  
G01 X-2.2400 Y1.3412  
G01 X-2.2466 Y1.3399  
G01 X-2.2534 Y1.3399  
G01 X-2.2600 Y1.3412  
G01 X-2.2662 Y1.3437  
G01 X-2.2718 Y1.3475  
G01 X-2.2765 Y1.3522  
G01 X-2.2803 Y1.3578  
G01 X-2.2828 Y1.3640  
G01 X-2.2841 Y1.3706  
G01 X-2.2841 Y1.3759  
G01 X-2.3900 Y1.3759  
G01 X-2.4124 Y1.3535  
G01 X-2.4124 Y1.3463  
G01 X-2.4138 Y1.3390  
G01 X-2.4166 Y1.3322  
G01 X-2.4208 Y1.3260  
G00 Z0.1000  
G00 X-2.4260 Y1.4208  
G01 Z-0.0021 F10    
G01 X-2.4322 Y1.4166  F20    
G01 X-2.4390 Y1.4138  
G01 X-2.4463 Y1.4124  
G01 X-2.4537 Y1.4124  
G01 X-2.4610 Y1.4138  
G01 X-2.4678 Y1.4166  
G01 X-2.4740 Y1.4208  
G01 X-2.4792 Y1.4260  
G01 X-2.4834 Y1.4322  
G01 X-2.4862 Y1.4390  
G01 X-2.4876 Y1.4463  
G01 X-2.4876 Y1.4537  
G01 X-2.4862 Y1.4610  
G01 X-2.4834 Y1.4678  
G01 X-2.4792 Y1.4740  
G01 X-2.4740 Y1.4792  
G01 X-2.4678 Y1.4834  
G01 X-2.4610 Y1.4862  
G01 X-2.4537 Y1.4876  
G01 X-2.4463 Y1.4876  
G01 X-2.4390 Y1.4862  
G01 X-2.4322 Y1.4834  
G01 X-2.4260 Y1.4792  
G01 X-2.4209 Y1.4741  
G01 X-2.4100 Y1.4741  
G01 X-2.2741 Y1.6100  
G01 X-2.2741 Y1.6499  
G01 X-2.2765 Y1.6522  
G01 X-2.2803 Y1.6578  
G01 X-2.2828 Y1.6640  
G01 X-2.2841 Y1.6706  
G01 X-2.2841 Y1.7294  
G01 X-2.2828 Y1.7360  
G01 X-2.2803 Y1.7422  
G01 X-2.2765 Y1.7478  
G01 X-2.2718 Y1.7525  
G01 X-2.2662 Y1.7563  
G01 X-2.2600 Y1.7588  
G01 X-2.2534 Y1.7601  
G01 X-2.2466 Y1.7601  
G01 X-2.2400 Y1.7588  
G01 X-2.2338 Y1.7563  
G01 X-2.2282 Y1.7525  
G01 X-2.2235 Y1.7478  
G01 X-2.2197 Y1.7422  
G01 X-2.2172 Y1.7360  
G01 X-2.2159 Y1.7294  
G01 X-2.2159 Y1.6706  
G01 X-2.2172 Y1.6640  
G01 X-2.2197 Y1.6578  
G01 X-2.2235 Y1.6522  
G01 X-2.2259 Y1.6499  
G01 X-2.2259 Y1.5976  
G01 X-2.2268 Y1.5930  
G01 X-2.2286 Y1.5886  
G01 X-2.2312 Y1.5846  
G01 X-2.3812 Y1.4346  
G01 X-2.3846 Y1.4312  
G01 X-2.3886 Y1.4286  
G01 X-2.3930 Y1.4268  
G01 X-2.3976 Y1.4259  
G01 X-2.4209 Y1.4259  
G01 X-2.4260 Y1.4208  
G00 Z0.1000  
G00 X-2.4189 Y1.5124  
G01 Z-0.0021 F10    
G01 X-2.4811 Y1.5124  F20    
G01 X-2.4841 Y1.5136  
G01 X-2.4864 Y1.5159  
G01 X-2.4876 Y1.5189  
G01 X-2.4876 Y1.5535  
G01 X-2.5688 Y1.6346  
G01 X-2.5714 Y1.6386  
G01 X-2.5732 Y1.6430  
G01 X-2.5741 Y1.6476  
G01 X-2.5741 Y1.6524  
G01 X-2.5741 Y1.6624  
G01 X-2.5741 Y2.0524  
G01 X-2.5732 Y2.0570  
G01 X-2.5714 Y2.0614  
G01 X-2.5688 Y2.0654  
G01 X-2.4876 Y2.1465  
G01 X-2.4876 Y2.1811  
G01 X-2.4864 Y2.1841  
G01 X-2.4841 Y2.1864  
G01 X-2.4811 Y2.1876  
G01 X-2.4189 Y2.1876  
G01 X-2.4159 Y2.1864  
G01 X-2.4136 Y2.1841  
G01 X-2.4124 Y2.1811  
G01 X-2.4124 Y2.1741  
G01 X-2.3976 Y2.1741  
G01 X-2.3930 Y2.1732  
G01 X-2.3886 Y2.1714  
G01 X-2.3846 Y2.1688  
G01 X-2.3165 Y2.1006  
G01 X-2.3132 Y2.1011  
G01 X-2.3068 Y2.1011  
G01 X-2.3004 Y2.1001  
G01 X-2.2942 Y2.0981  
G01 X-2.2884 Y2.0952  
G01 X-2.2832 Y2.0914  
G01 X-2.2786 Y2.0868  
G01 X-2.2748 Y2.0816  
G01 X-2.2719 Y2.0758  
G01 X-2.2699 Y2.0696  
G01 X-2.2689 Y2.0632  
G01 X-2.2689 Y2.0568  
G01 X-2.2699 Y2.0504  
G01 X-2.2719 Y2.0442  
G01 X-2.2748 Y2.0384  
G01 X-2.2786 Y2.0332  
G01 X-2.2832 Y2.0286  
G01 X-2.2884 Y2.0248  
G01 X-2.2942 Y2.0219  
G01 X-2.3004 Y2.0199  
G01 X-2.3068 Y2.0189  
G01 X-2.3132 Y2.0189  
G01 X-2.3196 Y2.0199  
G01 X-2.3258 Y2.0219  
G01 X-2.3316 Y2.0248  
G01 X-2.3368 Y2.0286  
G01 X-2.3414 Y2.0332  
G01 X-2.3452 Y2.0384  
G01 X-2.3481 Y2.0442  
G01 X-2.3501 Y2.0504  
G01 X-2.3511 Y2.0568  
G01 X-2.3511 Y2.0632  
G01 X-2.3506 Y2.0665  
G01 X-2.4100 Y2.1259  
G01 X-2.4124 Y2.1259  
G01 X-2.4124 Y2.1189  
G01 X-2.4136 Y2.1159  
G01 X-2.4159 Y2.1136  
G01 X-2.4189 Y2.1124  
G01 X-2.4535 Y2.1124  
G01 X-2.5259 Y2.0400  
G01 X-2.5259 Y1.6700  
G01 X-2.4435 Y1.5876  
G01 X-2.4189 Y1.5876  
G01 X-2.4159 Y1.5864  
G01 X-2.4136 Y1.5841  
G01 X-2.4124 Y1.5811  
G01 X-2.4124 Y1.5189  
G01 X-2.4136 Y1.5159  
G01 X-2.4159 Y1.5136  
G01 X-2.4189 Y1.5124  
G00 Z0.1000  
G00 X-2.4154 Y1.7812  
G01 Z-0.0021 F10    
G01 X-2.4465 Y1.8124  F20    
G01 X-2.4537 Y1.8124  
G01 X-2.4610 Y1.8138  
G01 X-2.4678 Y1.8166  
G01 X-2.4740 Y1.8208  
G01 X-2.4792 Y1.8260  
G01 X-2.4834 Y1.8322  
G01 X-2.4862 Y1.8390  
G01 X-2.4876 Y1.8463  
G01 X-2.4876 Y1.8537  
G01 X-2.4862 Y1.8610  
G01 X-2.4834 Y1.8678  
G01 X-2.4792 Y1.8740  
G01 X-2.4740 Y1.8792  
G01 X-2.4678 Y1.8834  
G01 X-2.4610 Y1.8862  
G01 X-2.4537 Y1.8876  
G01 X-2.4463 Y1.8876  
G01 X-2.4390 Y1.8862  
G01 X-2.4322 Y1.8834  
G01 X-2.4260 Y1.8792  
G01 X-2.4208 Y1.8740  
G01 X-2.4166 Y1.8678  
G01 X-2.4138 Y1.8610  
G01 X-2.4124 Y1.8537  
G01 X-2.4124 Y1.8465  
G01 X-2.3900 Y1.8241  
G01 X-2.1976 Y1.8241  
G01 X-2.1930 Y1.8232  
G01 X-2.1886 Y1.8214  
G01 X-2.1846 Y1.8188  
G01 X-2.1812 Y1.8154  
G01 X-2.1346 Y1.7688  
G01 X-2.1312 Y1.7654  
G01 X-2.1286 Y1.7614  
G01 X-2.1268 Y1.7570  
G01 X-2.1259 Y1.7524  
G01 X-2.1259 Y1.7501  
G01 X-2.1235 Y1.7478  
G01 X-2.1197 Y1.7422  
G01 X-2.1172 Y1.7360  
G01 X-2.1159 Y1.7294  
G01 X-2.1159 Y1.6706  
G01 X-2.1172 Y1.6640  
G01 X-2.1197 Y1.6578  
G01 X-2.1235 Y1.6522  
G01 X-2.1282 Y1.6475  
G01 X-2.1338 Y1.6437  
G01 X-2.1400 Y1.6412  
G01 X-2.1466 Y1.6399  
G01 X-2.1534 Y1.6399  
G01 X-2.1600 Y1.6412  
G01 X-2.1662 Y1.6437  
G01 X-2.1718 Y1.6475  
G01 X-2.1765 Y1.6522  
G01 X-2.1803 Y1.6578  
G01 X-2.1828 Y1.6640  
G01 X-2.1841 Y1.6706  
G01 X-2.1841 Y1.7294  
G01 X-2.1828 Y1.7360  
G01 X-2.1803 Y1.7422  
G01 X-2.1787 Y1.7445  
G01 X-2.2100 Y1.7759  
G01 X-2.4024 Y1.7759  
G01 X-2.4070 Y1.7768  
G01 X-2.4114 Y1.7786  
G01 X-2.4154 Y1.7812  
G00 Z0.1000  
G00 X-2.3754 Y1.8412  
G01 Z-0.0021 F10    
G01 X-2.4465 Y1.9124  F20    
G01 X-2.4537 Y1.9124  
G01 X-2.4610 Y1.9138  
G01 X-2.4678 Y1.9166  
G01 X-2.4740 Y1.9208  
G01 X-2.4792 Y1.9260  
G01 X-2.4834 Y1.9322  
G01 X-2.4862 Y1.9390  
G01 X-2.4876 Y1.9463  
G01 X-2.4876 Y1.9537  
G01 X-2.4862 Y1.9610  
G01 X-2.4834 Y1.9678  
G01 X-2.4792 Y1.9740  
G01 X-2.4740 Y1.9792  
G01 X-2.4678 Y1.9834  
G01 X-2.4610 Y1.9862  
G01 X-2.4537 Y1.9876  
G01 X-2.4463 Y1.9876  
G01 X-2.4390 Y1.9862  
G01 X-2.4322 Y1.9834  
G01 X-2.4260 Y1.9792  
G01 X-2.4208 Y1.9740  
G01 X-2.4166 Y1.9678  
G01 X-2.4138 Y1.9610  
G01 X-2.4124 Y1.9537  
G01 X-2.4124 Y1.9465  
G01 X-2.3500 Y1.8841  
G01 X-2.1576 Y1.8841  
G01 X-2.1530 Y1.8832  
G01 X-2.1486 Y1.8814  
G01 X-2.1446 Y1.8788  
G01 X-2.1412 Y1.8754  
G01 X-2.0312 Y1.7654  
G01 X-2.0286 Y1.7614  
G01 X-2.0268 Y1.7570  
G01 X-2.0259 Y1.7524  
G01 X-2.0259 Y1.7501  
G01 X-2.0235 Y1.7478  
G01 X-2.0197 Y1.7422  
G01 X-2.0172 Y1.7360  
G01 X-2.0159 Y1.7294  
G01 X-2.0159 Y1.6706  
G01 X-2.0172 Y1.6640  
G01 X-2.0197 Y1.6578  
G01 X-2.0235 Y1.6522  
G01 X-2.0282 Y1.6475  
G01 X-2.0338 Y1.6437  
G01 X-2.0400 Y1.6412  
G01 X-2.0466 Y1.6399  
G01 X-2.0534 Y1.6399  
G01 X-2.0600 Y1.6412  
G01 X-2.0662 Y1.6437  
G01 X-2.0718 Y1.6475  
G01 X-2.0765 Y1.6522  
G01 X-2.0803 Y1.6578  
G01 X-2.0828 Y1.6640  
G01 X-2.0841 Y1.6706  
G01 X-2.0841 Y1.7294  
G01 X-2.0828 Y1.7360  
G01 X-2.0803 Y1.7422  
G01 X-2.0787 Y1.7445  
G01 X-2.1700 Y1.8359  
G01 X-2.3624 Y1.8359  
G01 X-2.3670 Y1.8368  
G01 X-2.3714 Y1.8386  
G01 X-2.3754 Y1.8412  
G00 Z0.1000  
G00 X-2.3454 Y1.9112  
G01 Z-0.0021 F10    
G01 X-2.4465 Y2.0124  F20    
G01 X-2.4537 Y2.0124  
G01 X-2.4610 Y2.0138  
G01 X-2.4678 Y2.0166  
G01 X-2.4740 Y2.0208  
G01 X-2.4792 Y2.0260  
G01 X-2.4834 Y2.0322  
G01 X-2.4862 Y2.0390  
G01 X-2.4876 Y2.0463  
G01 X-2.4876 Y2.0537  
G01 X-2.4862 Y2.0610  
G01 X-2.4834 Y2.0678  
G01 X-2.4792 Y2.0740  
G01 X-2.4740 Y2.0792  
G01 X-2.4678 Y2.0834  
G01 X-2.4610 Y2.0862  
G01 X-2.4537 Y2.0876  
G01 X-2.4463 Y2.0876  
G01 X-2.4390 Y2.0862  
G01 X-2.4322 Y2.0834  
G01 X-2.4260 Y2.0792  
G01 X-2.4208 Y2.0740  
G01 X-2.4166 Y2.0678  
G01 X-2.4138 Y2.0610  
G01 X-2.4124 Y2.0537  
G01 X-2.4124 Y2.0465  
G01 X-2.3200 Y1.9541  
G01 X-2.1376 Y1.9541  
G01 X-2.1330 Y1.9532  
G01 X-2.1286 Y1.9514  
G01 X-2.1246 Y1.9488  
G01 X-2.1212 Y1.9454  
G01 X-1.9500 Y1.7741  
G01 X-1.9476 Y1.7741  
G01 X-1.9430 Y1.7732  
G01 X-1.9386 Y1.7714  
G01 X-1.9346 Y1.7688  
G01 X-1.9312 Y1.7654  
G01 X-1.9286 Y1.7614  
G01 X-1.9268 Y1.7570  
G01 X-1.9259 Y1.7524  
G01 X-1.9259 Y1.7501  
G01 X-1.9235 Y1.7478  
G01 X-1.9197 Y1.7422  
G01 X-1.9172 Y1.7360  
G01 X-1.9159 Y1.7294  
G01 X-1.9159 Y1.6706  
G01 X-1.9172 Y1.6640  
G01 X-1.9197 Y1.6578  
G01 X-1.9235 Y1.6522  
G01 X-1.9282 Y1.6475  
G01 X-1.9338 Y1.6437  
G01 X-1.9400 Y1.6412  
G01 X-1.9466 Y1.6399  
G01 X-1.9534 Y1.6399  
G01 X-1.9600 Y1.6412  
G01 X-1.9662 Y1.6437  
G01 X-1.9718 Y1.6475  
G01 X-1.9765 Y1.6522  
G01 X-1.9803 Y1.6578  
G01 X-1.9828 Y1.6640  
G01 X-1.9841 Y1.6706  
G01 X-1.9841 Y1.7294  
G01 X-1.9828 Y1.7360  
G01 X-1.9820 Y1.7379  
G01 X-2.1500 Y1.9059  
G01 X-2.3324 Y1.9059  
G01 X-2.3370 Y1.9068  
G01 X-2.3414 Y1.9086  
G01 X-2.3454 Y1.9112  
G00 Z0.1000  
G00 X-2.2281 Y1.9959  
G01 Z-0.0021 F10    
G01 X-2.2281 Y2.0441  F20    
G01 X-2.1941 Y2.0781  
G01 X-2.1459 Y2.0781  
G01 X-2.1180 Y2.0503  
G01 X-2.1141 Y2.0541  
G01 X-2.0859 Y2.0541  
G01 X-2.0659 Y2.0341  
G01 X-2.0659 Y2.0059  
G01 X-2.0859 Y1.9859  
G01 X-2.1141 Y1.9859  
G01 X-2.1159 Y1.9876  
G01 X-2.1230 Y1.9848  
G01 X-2.1459 Y1.9619  
G01 X-2.1941 Y1.9619  
G01 X-2.2281 Y1.9959  
G00 Z0.1000  
G00 X-2.1354 Y2.1112  
G01 Z-0.0021 F10    
G01 X-2.1388 Y2.1146  F20    
G01 X-2.1900 Y2.1659  
G01 X-2.2924 Y2.1659  
G01 X-2.2970 Y2.1668  
G01 X-2.3014 Y2.1686  
G01 X-2.3054 Y2.1712  
G01 X-2.3088 Y2.1746  
G01 X-2.4981 Y2.3639  
G01 X-2.4986 Y2.3632  
G01 X-2.5032 Y2.3586  
G01 X-2.5084 Y2.3548  
G01 X-2.5142 Y2.3519  
G01 X-2.5204 Y2.3499  
G01 X-2.5268 Y2.3489  
G01 X-2.5332 Y2.3489  
G01 X-2.5396 Y2.3499  
G01 X-2.5458 Y2.3519  
G01 X-2.5516 Y2.3548  
G01 X-2.5568 Y2.3586  
G01 X-2.5614 Y2.3632  
G01 X-2.5652 Y2.3684  
G01 X-2.5681 Y2.3742  
G01 X-2.5701 Y2.3804  
G01 X-2.5711 Y2.3868  
G01 X-2.5711 Y2.3932  
G01 X-2.5701 Y2.3996  
G01 X-2.5681 Y2.4058  
G01 X-2.5652 Y2.4116  
G01 X-2.5614 Y2.4168  
G01 X-2.5568 Y2.4214  
G01 X-2.5516 Y2.4252  
G01 X-2.5458 Y2.4281  
G01 X-2.5396 Y2.4301  
G01 X-2.5332 Y2.4311  
G01 X-2.5268 Y2.4311  
G01 X-2.5204 Y2.4301  
G01 X-2.5142 Y2.4281  
G01 X-2.5084 Y2.4252  
G01 X-2.5032 Y2.4214  
G01 X-2.4986 Y2.4168  
G01 X-2.4967 Y2.4141  
G01 X-2.4876 Y2.4141  
G01 X-2.4830 Y2.4132  
G01 X-2.4786 Y2.4114  
G01 X-2.4746 Y2.4088  
G01 X-2.2800 Y2.2141  
G01 X-2.1776 Y2.2141  
G01 X-2.1730 Y2.2132  
G01 X-2.1686 Y2.2114  
G01 X-2.1646 Y2.2088  
G01 X-2.1100 Y2.1541  
G01 X-2.0076 Y2.1541  
G01 X-2.0030 Y2.1532  
G01 X-1.9986 Y2.1514  
G01 X-1.9946 Y2.1488  
G01 X-1.9600 Y2.1141  
G01 X-1.8000 Y2.1141  
G01 X-1.7541 Y2.1600  
G01 X-1.7541 Y2.2200  
G01 X-1.7900 Y2.2559  
G01 X-1.9324 Y2.2559  
G01 X-1.9370 Y2.2568  
G01 X-1.9414 Y2.2586  
G01 X-1.9454 Y2.2612  
G01 X-1.9500 Y2.2659  
G01 X-1.9534 Y2.2659  
G01 X-1.9600 Y2.2672  
G01 X-1.9662 Y2.2697  
G01 X-1.9718 Y2.2735  
G01 X-1.9741 Y2.2759  
G01 X-2.0524 Y2.2759  
G01 X-2.0570 Y2.2768  
G01 X-2.0614 Y2.2786  
G01 X-2.0654 Y2.2812  
G01 X-2.0688 Y2.2846  
G01 X-2.0788 Y2.2946  
G01 X-2.0814 Y2.2986  
G01 X-2.0832 Y2.3030  
G01 X-2.0841 Y2.3076  
G01 X-2.0841 Y2.3624  
G01 X-2.0832 Y2.3670  
G01 X-2.0814 Y2.3714  
G01 X-2.0788 Y2.3754  
G01 X-2.0754 Y2.3788  
G01 X-2.0741 Y2.3800  
G01 X-2.0741 Y2.6824  
G01 X-2.0732 Y2.6870  
G01 X-2.0714 Y2.6914  
G01 X-2.0688 Y2.6954  
G01 X-2.0654 Y2.6988  
G01 X-2.0341 Y2.7300  
G01 X-2.0341 Y3.0582  
G01 X-2.0342 Y3.0588  
G01 X-2.0341 Y3.0606  
G01 X-2.0341 Y3.0624  
G01 X-2.0340 Y3.0630  
G01 X-2.0340 Y3.0635  
G01 X-2.0336 Y3.0653  
G01 X-2.0332 Y3.0670  
G01 X-2.0330 Y3.0676  
G01 X-2.0329 Y3.0682  
G01 X-2.0321 Y3.0698  
G01 X-2.0314 Y3.0714  
G01 X-2.0311 Y3.0719  
G01 X-2.0308 Y3.0725  
G01 X-2.0298 Y3.0739  
G01 X-2.0288 Y3.0754  
G01 X-2.0283 Y3.0758  
G01 X-2.0280 Y3.0763  
G01 X-2.0267 Y3.0775  
G01 X-2.0254 Y3.0788  
G01 X-2.0249 Y3.0791  
G01 X-2.0245 Y3.0795  
G01 X-2.0229 Y3.0804  
G01 X-2.0214 Y3.0814  
G01 X-2.0209 Y3.0816  
G01 X-1.9729 Y3.1104  
G01 X-1.9714 Y3.1114  
G01 X-1.9709 Y3.1116  
G01 X-1.9704 Y3.1119  
G01 X-1.9687 Y3.1125  
G01 X-1.9670 Y3.1132  
G01 X-1.9665 Y3.1133  
G01 X-1.9659 Y3.1135  
G01 X-1.9641 Y3.1138  
G01 X-1.9624 Y3.1141  
G01 X-1.9618 Y3.1141  
G01 X-1.9612 Y3.1142  
G01 X-1.9594 Y3.1141  
G01 X-1.0220 Y3.1141  
G01 X-1.0216 Y3.1142  
G01 X-1.0196 Y3.1141  
G01 X-1.0176 Y3.1141  
G01 X-1.0172 Y3.1141  
G01 X-1.0169 Y3.1141  
G01 X-1.0149 Y3.1136  
G01 X-1.0130 Y3.1132  
G01 X-1.0126 Y3.1131  
G01 X-1.0122 Y3.1130  
G01 X-1.0104 Y3.1122  
G01 X-1.0086 Y3.1114  
G01 X-1.0082 Y3.1112  
G01 X-1.0079 Y3.1110  
G01 X-1.0063 Y3.1099  
G01 X-1.0046 Y3.1088  
G01 X-1.0043 Y3.1085  
G01 X-0.9363 Y3.0599  
G01 X-0.9346 Y3.0588  
G01 X-0.9343 Y3.0585  
G01 X-0.9340 Y3.0583  
G01 X-0.9327 Y3.0568  
G01 X-0.9312 Y3.0554  
G01 X-0.9310 Y3.0551  
G01 X-0.9308 Y3.0548  
G01 X-0.9297 Y3.0531  
G01 X-0.9286 Y3.0514  
G01 X-0.9285 Y3.0511  
G01 X-0.9283 Y3.0508  
G01 X-0.9275 Y3.0489  
G01 X-0.9268 Y3.0470  
G01 X-0.9267 Y3.0467  
G01 X-0.9266 Y3.0463  
G01 X-0.9262 Y3.0443  
G01 X-0.9259 Y3.0424  
G01 X-0.9259 Y3.0420  
G01 X-0.9258 Y3.0416  
G01 X-0.9259 Y3.0396  
G01 X-0.9259 Y2.8500  
G01 X-0.8812 Y2.8054  
G01 X-0.8786 Y2.8014  
G01 X-0.8768 Y2.7970  
G01 X-0.8759 Y2.7924  
G01 X-0.8759 Y2.7900  
G01 X-0.8712 Y2.7854  
G01 X-0.8686 Y2.7814  
G01 X-0.8668 Y2.7770  
G01 X-0.8659 Y2.7724  
G01 X-0.8659 Y2.4700  
G01 X-0.8221 Y2.4262  
G01 X-0.8218 Y2.4265  
G01 X-0.8162 Y2.4303  
G01 X-0.8100 Y2.4328  
G01 X-0.8034 Y2.4341  
G01 X-0.7966 Y2.4341  
G01 X-0.7900 Y2.4328  
G01 X-0.7838 Y2.4303  
G01 X-0.7782 Y2.4265  
G01 X-0.7735 Y2.4218  
G01 X-0.7697 Y2.4162  
G01 X-0.7672 Y2.4100  
G01 X-0.7659 Y2.4034  
G01 X-0.7659 Y2.3966  
G01 X-0.7672 Y2.3900  
G01 X-0.7697 Y2.3838  
G01 X-0.7735 Y2.3782  
G01 X-0.7782 Y2.3735  
G01 X-0.7838 Y2.3697  
G01 X-0.7900 Y2.3672  
G01 X-0.7966 Y2.3659  
G01 X-0.8034 Y2.3659  
G01 X-0.8100 Y2.3672  
G01 X-0.8162 Y2.3697  
G01 X-0.8218 Y2.3735  
G01 X-0.8241 Y2.3759  
G01 X-0.8324 Y2.3759  
G01 X-0.8370 Y2.3768  
G01 X-0.8414 Y2.3786  
G01 X-0.8454 Y2.3812  
G01 X-0.9054 Y2.4412  
G01 X-0.9088 Y2.4446  
G01 X-0.9114 Y2.4486  
G01 X-0.9132 Y2.4530  
G01 X-0.9141 Y2.4576  
G01 X-0.9141 Y2.7600  
G01 X-0.9154 Y2.7612  
G01 X-0.9188 Y2.7646  
G01 X-0.9214 Y2.7686  
G01 X-0.9232 Y2.7730  
G01 X-0.9241 Y2.7776  
G01 X-0.9241 Y2.7800  
G01 X-0.9654 Y2.8212  
G01 X-0.9688 Y2.8246  
G01 X-0.9714 Y2.8286  
G01 X-0.9732 Y2.8330  
G01 X-0.9741 Y2.8376  
G01 X-0.9741 Y3.0276  
G01 X-1.0277 Y3.0659  
G01 X-1.9533 Y3.0659  
G01 X-1.9859 Y3.0463  
G01 X-1.9859 Y2.7176  
G01 X-1.9868 Y2.7130  
G01 X-1.9886 Y2.7086  
G01 X-1.9912 Y2.7046  
G01 X-1.9946 Y2.7012  
G01 X-2.0259 Y2.6700  
G01 X-2.0259 Y2.3676  
G01 X-2.0268 Y2.3630  
G01 X-2.0286 Y2.3586  
G01 X-2.0312 Y2.3546  
G01 X-2.0359 Y2.3500  
G01 X-2.0359 Y2.3241  
G01 X-1.9741 Y2.3241  
G01 X-1.9718 Y2.3265  
G01 X-1.9662 Y2.3303  
G01 X-1.9600 Y2.3328  
G01 X-1.9534 Y2.3341  
G01 X-1.9466 Y2.3341  
G01 X-1.9400 Y2.3328  
G01 X-1.9338 Y2.3303  
G01 X-1.9282 Y2.3265  
G01 X-1.9235 Y2.3218  
G01 X-1.9197 Y2.3162  
G01 X-1.9172 Y2.3100  
G01 X-1.9160 Y2.3041  
G01 X-1.7776 Y2.3041  
G01 X-1.7730 Y2.3032  
G01 X-1.7686 Y2.3014  
G01 X-1.7646 Y2.2988  
G01 X-1.7612 Y2.2954  
G01 X-1.7112 Y2.2454  
G01 X-1.7086 Y2.2414  
G01 X-1.7068 Y2.2370  
G01 X-1.7059 Y2.2324  
G01 X-1.7059 Y2.1476  
G01 X-1.7068 Y2.1430  
G01 X-1.7086 Y2.1386  
G01 X-1.7112 Y2.1346  
G01 X-1.7146 Y2.1312  
G01 X-1.7746 Y2.0712  
G01 X-1.7786 Y2.0686  
G01 X-1.7830 Y2.0668  
G01 X-1.7876 Y2.0659  
G01 X-1.9724 Y2.0659  
G01 X-1.9770 Y2.0668  
G01 X-1.9814 Y2.0686  
G01 X-1.9854 Y2.0712  
G01 X-1.9888 Y2.0746  
G01 X-2.0200 Y2.1059  
G01 X-2.1224 Y2.1059  
G01 X-2.1270 Y2.1068  
G01 X-2.1314 Y2.1086  
G01 X-2.1354 Y2.1112  
G00 Z0.1000  
G00 X-2.0854 Y2.2112  
G01 Z-0.0021 F10    
G01 X-2.0888 Y2.2146  F20    
G01 X-2.1500 Y2.2759  
G01 X-2.2259 Y2.2759  
G01 X-2.2282 Y2.2735  
G01 X-2.2338 Y2.2697  
G01 X-2.2400 Y2.2672  
G01 X-2.2466 Y2.2659  
G01 X-2.2534 Y2.2659  
G01 X-2.2600 Y2.2672  
G01 X-2.2662 Y2.2697  
G01 X-2.2718 Y2.2735  
G01 X-2.2765 Y2.2782  
G01 X-2.2803 Y2.2838  
G01 X-2.2828 Y2.2900  
G01 X-2.2841 Y2.2966  
G01 X-2.2841 Y2.3034  
G01 X-2.2828 Y2.3100  
G01 X-2.2803 Y2.3162  
G01 X-2.2765 Y2.3218  
G01 X-2.2718 Y2.3265  
G01 X-2.2662 Y2.3303  
G01 X-2.2600 Y2.3328  
G01 X-2.2534 Y2.3341  
G01 X-2.2466 Y2.3341  
G01 X-2.2400 Y2.3328  
G01 X-2.2338 Y2.3303  
G01 X-2.2282 Y2.3265  
G01 X-2.2259 Y2.3241  
G01 X-2.1376 Y2.3241  
G01 X-2.1330 Y2.3232  
G01 X-2.1286 Y2.3214  
G01 X-2.1246 Y2.3188  
G01 X-2.0600 Y2.2541  
G01 X-1.9776 Y2.2541  
G01 X-1.9730 Y2.2532  
G01 X-1.9686 Y2.2514  
G01 X-1.9646 Y2.2488  
G01 X-1.9200 Y2.2041  
G01 X-1.8933 Y2.2041  
G01 X-1.8914 Y2.2068  
G01 X-1.8868 Y2.2114  
G01 X-1.8816 Y2.2152  
G01 X-1.8758 Y2.2181  
G01 X-1.8696 Y2.2201  
G01 X-1.8632 Y2.2211  
G01 X-1.8568 Y2.2211  
G01 X-1.8504 Y2.2201  
G01 X-1.8442 Y2.2181  
G01 X-1.8384 Y2.2152  
G01 X-1.8332 Y2.2114  
G01 X-1.8286 Y2.2068  
G01 X-1.8248 Y2.2016  
G01 X-1.8219 Y2.1958  
G01 X-1.8199 Y2.1896  
G01 X-1.8189 Y2.1832  
G01 X-1.8189 Y2.1768  
G01 X-1.8199 Y2.1704  
G01 X-1.8219 Y2.1642  
G01 X-1.8248 Y2.1584  
G01 X-1.8286 Y2.1532  
G01 X-1.8332 Y2.1486  
G01 X-1.8384 Y2.1448  
G01 X-1.8442 Y2.1419  
G01 X-1.8504 Y2.1399  
G01 X-1.8568 Y2.1389  
G01 X-1.8632 Y2.1389  
G01 X-1.8696 Y2.1399  
G01 X-1.8758 Y2.1419  
G01 X-1.8816 Y2.1448  
G01 X-1.8868 Y2.1486  
G01 X-1.8914 Y2.1532  
G01 X-1.8933 Y2.1559  
G01 X-1.9324 Y2.1559  
G01 X-1.9370 Y2.1568  
G01 X-1.9414 Y2.1586  
G01 X-1.9454 Y2.1612  
G01 X-1.9488 Y2.1646  
G01 X-1.9900 Y2.2059  
G01 X-2.0724 Y2.2059  
G01 X-2.0770 Y2.2068  
G01 X-2.0814 Y2.2086  
G01 X-2.0854 Y2.2112  
G00 Z0.1000  
G00 X-1.9718 Y2.3735  
G01 Z-0.0021 F10    
G01 X-1.9765 Y2.3782  F20    
G01 X-1.9803 Y2.3838  
G01 X-1.9828 Y2.3900  
G01 X-1.9841 Y2.3966  
G01 X-1.9841 Y2.4034  
G01 X-1.9828 Y2.4100  
G01 X-1.9803 Y2.4162  
G01 X-1.9765 Y2.4218  
G01 X-1.9718 Y2.4265  
G01 X-1.9662 Y2.4303  
G01 X-1.9600 Y2.4328  
G01 X-1.9534 Y2.4341  
G01 X-1.9466 Y2.4341  
G01 X-1.9400 Y2.4328  
G01 X-1.9338 Y2.4303  
G01 X-1.9282 Y2.4265  
G01 X-1.9259 Y2.4241  
G01 X-1.7876 Y2.4241  
G01 X-1.7830 Y2.4232  
G01 X-1.7786 Y2.4214  
G01 X-1.7746 Y2.4188  
G01 X-1.7712 Y2.4154  
G01 X-1.7600 Y2.4041  
G01 X-1.7459 Y2.4041  
G01 X-1.7259 Y2.3841  
G01 X-1.7259 Y2.3559  
G01 X-1.7459 Y2.3359  
G01 X-1.7741 Y2.3359  
G01 X-1.7941 Y2.3559  
G01 X-1.7941 Y2.3700  
G01 X-1.8000 Y2.3759  
G01 X-1.9259 Y2.3759  
G01 X-1.9282 Y2.3735  
G01 X-1.9338 Y2.3697  
G01 X-1.9400 Y2.3672  
G01 X-1.9466 Y2.3659  
G01 X-1.9534 Y2.3659  
G01 X-1.9600 Y2.3672  
G01 X-1.9662 Y2.3697  
G01 X-1.9718 Y2.3735  
G00 Z0.1000  
G00 X-1.9718 Y2.4735  
G01 Z-0.0021 F10    
G01 X-1.9765 Y2.4782  F20    
G01 X-1.9803 Y2.4838  
G01 X-1.9828 Y2.4900  
G01 X-1.9841 Y2.4966  
G01 X-1.9841 Y2.5034  
G01 X-1.9828 Y2.5100  
G01 X-1.9803 Y2.5162  
G01 X-1.9765 Y2.5218  
G01 X-1.9718 Y2.5265  
G01 X-1.9662 Y2.5303  
G01 X-1.9600 Y2.5328  
G01 X-1.9534 Y2.5341  
G01 X-1.9466 Y2.5341  
G01 X-1.9400 Y2.5328  
G01 X-1.9338 Y2.5303  
G01 X-1.9282 Y2.5265  
G01 X-1.9259 Y2.5241  
G01 X-1.8800 Y2.5241  
G01 X-1.7888 Y2.6154  
G01 X-1.7854 Y2.6188  
G01 X-1.7814 Y2.6214  
G01 X-1.7770 Y2.6232  
G01 X-1.7724 Y2.6241  
G01 X-1.6341 Y2.6241  
G01 X-1.6341 Y2.6294  
G01 X-1.6328 Y2.6360  
G01 X-1.6303 Y2.6422  
G01 X-1.6265 Y2.6478  
G01 X-1.6218 Y2.6525  
G01 X-1.6162 Y2.6563  
G01 X-1.6100 Y2.6588  
G01 X-1.6034 Y2.6601  
G01 X-1.5966 Y2.6601  
G01 X-1.5900 Y2.6588  
G01 X-1.5838 Y2.6563  
G01 X-1.5803 Y2.6539  
G01 X-1.4741 Y2.7600  
G01 X-1.4741 Y2.8259  
G01 X-1.4841 Y2.8359  
G01 X-1.4841 Y2.8641  
G01 X-1.4641 Y2.8841  
G01 X-1.4359 Y2.8841  
G01 X-1.4159 Y2.8641  
G01 X-1.4159 Y2.8359  
G01 X-1.4259 Y2.8259  
G01 X-1.4259 Y2.7476  
G01 X-1.4268 Y2.7430  
G01 X-1.4286 Y2.7386  
G01 X-1.4312 Y2.7346  
G01 X-1.5659 Y2.6000  
G01 X-1.5659 Y2.5706  
G01 X-1.5672 Y2.5640  
G01 X-1.5697 Y2.5578  
G01 X-1.5735 Y2.5522  
G01 X-1.5782 Y2.5475  
G01 X-1.5838 Y2.5437  
G01 X-1.5900 Y2.5412  
G01 X-1.5966 Y2.5399  
G01 X-1.6034 Y2.5399  
G01 X-1.6100 Y2.5412  
G01 X-1.6162 Y2.5437  
G01 X-1.6218 Y2.5475  
G01 X-1.6265 Y2.5522  
G01 X-1.6303 Y2.5578  
G01 X-1.6328 Y2.5640  
G01 X-1.6341 Y2.5706  
G01 X-1.6341 Y2.5759  
G01 X-1.7600 Y2.5759  
G01 X-1.8546 Y2.4812  
G01 X-1.8586 Y2.4786  
G01 X-1.8630 Y2.4768  
G01 X-1.8676 Y2.4759  
G01 X-1.9259 Y2.4759  
G01 X-1.9282 Y2.4735  
G01 X-1.9338 Y2.4697  
G01 X-1.9400 Y2.4672  
G01 X-1.9466 Y2.4659  
G01 X-1.9534 Y2.4659  
G01 X-1.9600 Y2.4672  
G01 X-1.9662 Y2.4697  
G01 X-1.9718 Y2.4735  
G00 Z0.1000  
G00 X-1.9718 Y2.5735  
G01 Z-0.0021 F10    
G01 X-1.9765 Y2.5782  F20    
G01 X-1.9803 Y2.5838  
G01 X-1.9828 Y2.5900  
G01 X-1.9841 Y2.5966  
G01 X-1.9841 Y2.6034  
G01 X-1.9828 Y2.6100  
G01 X-1.9803 Y2.6162  
G01 X-1.9765 Y2.6218  
G01 X-1.9718 Y2.6265  
G01 X-1.9662 Y2.6303  
G01 X-1.9600 Y2.6328  
G01 X-1.9534 Y2.6341  
G01 X-1.9500 Y2.6341  
G01 X-1.8741 Y2.7100  
G01 X-1.8741 Y2.8259  
G01 X-1.8841 Y2.8359  
G01 X-1.8841 Y2.8641  
G01 X-1.8753 Y2.8730  
G01 X-1.9081 Y2.9059  
G01 X-1.9081 Y2.9541  
G01 X-1.8741 Y2.9881  
G01 X-1.8259 Y2.9881  
G01 X-1.7919 Y2.9541  
G01 X-1.7919 Y2.9059  
G01 X-1.8247 Y2.8730  
G01 X-1.8159 Y2.8641  
G01 X-1.8159 Y2.8359  
G01 X-1.8259 Y2.8259  
G01 X-1.8259 Y2.6976  
G01 X-1.8268 Y2.6930  
G01 X-1.8286 Y2.6886  
G01 X-1.8312 Y2.6846  
G01 X-1.9159 Y2.6000  
G01 X-1.9159 Y2.5966  
G01 X-1.9172 Y2.5900  
G01 X-1.9197 Y2.5838  
G01 X-1.9235 Y2.5782  
G01 X-1.9282 Y2.5735  
G01 X-1.9338 Y2.5697  
G01 X-1.9400 Y2.5672  
G01 X-1.9466 Y2.5659  
G01 X-1.9534 Y2.5659  
G01 X-1.9600 Y2.5672  
G01 X-1.9662 Y2.5697  
G01 X-1.9718 Y2.5735  
G00 Z0.1000  
G00 X-2.1212 Y2.5746  
G01 Z-0.0021 F10    
G01 X-2.1246 Y2.5712  F20    
G01 X-2.2146 Y2.4812  
G01 X-2.2186 Y2.4786  
G01 X-2.2230 Y2.4768  
G01 X-2.2254 Y2.4763  
G01 X-2.2282 Y2.4735  
G01 X-2.2338 Y2.4697  
G01 X-2.2400 Y2.4672  
G01 X-2.2466 Y2.4659  
G01 X-2.2534 Y2.4659  
G01 X-2.2600 Y2.4672  
G01 X-2.2662 Y2.4697  
G01 X-2.2718 Y2.4735  
G01 X-2.2765 Y2.4782  
G01 X-2.2803 Y2.4838  
G01 X-2.2828 Y2.4900  
G01 X-2.2841 Y2.4966  
G01 X-2.2841 Y2.5034  
G01 X-2.2828 Y2.5100  
G01 X-2.2803 Y2.5162  
G01 X-2.2765 Y2.5218  
G01 X-2.2718 Y2.5265  
G01 X-2.2662 Y2.5303  
G01 X-2.2600 Y2.5328  
G01 X-2.2534 Y2.5341  
G01 X-2.2466 Y2.5341  
G01 X-2.2400 Y2.5328  
G01 X-2.2339 Y2.5303  
G01 X-2.1641 Y2.6000  
G01 X-2.1641 Y2.7624  
G01 X-2.1632 Y2.7670  
G01 X-2.1614 Y2.7714  
G01 X-2.1588 Y2.7754  
G01 X-2.1581 Y2.7760  
G01 X-2.1581 Y2.8241  
G01 X-2.1241 Y2.8581  
G01 X-2.1241 Y2.9259  
G01 X-2.1341 Y2.9359  
G01 X-2.1341 Y2.9641  
G01 X-2.1141 Y2.9841  
G01 X-2.0859 Y2.9841  
G01 X-2.0659 Y2.9641  
G01 X-2.0659 Y2.9359  
G01 X-2.0759 Y2.9259  
G01 X-2.0759 Y2.8581  
G01 X-2.0419 Y2.8241  
G01 X-2.0419 Y2.7759  
G01 X-2.0759 Y2.7419  
G01 X-2.1159 Y2.7419  
G01 X-2.1159 Y2.5876  
G01 X-2.1168 Y2.5830  
G01 X-2.1186 Y2.5786  
G01 X-2.1212 Y2.5746  
G00 Z0.1000  
G00 X-2.2282 Y2.4265  
G01 Z-0.0021 F10    
G01 X-2.2235 Y2.4218  F20    
G01 X-2.2197 Y2.4162  
G01 X-2.2172 Y2.4100  
G01 X-2.2159 Y2.4034  
G01 X-2.2159 Y2.3966  
G01 X-2.2172 Y2.3900  
G01 X-2.2197 Y2.3838  
G01 X-2.2235 Y2.3782  
G01 X-2.2282 Y2.3735  
G01 X-2.2338 Y2.3697  
G01 X-2.2400 Y2.3672  
G01 X-2.2466 Y2.3659  
G01 X-2.2534 Y2.3659  
G01 X-2.2600 Y2.3672  
G01 X-2.2662 Y2.3697  
G01 X-2.2718 Y2.3735  
G01 X-2.2741 Y2.3759  
G01 X-2.3724 Y2.3759  
G01 X-2.3770 Y2.3768  
G01 X-2.3814 Y2.3786  
G01 X-2.3854 Y2.3812  
G01 X-2.4954 Y2.4912  
G01 X-2.4988 Y2.4946  
G01 X-2.5014 Y2.4986  
G01 X-2.5032 Y2.5030  
G01 X-2.5041 Y2.5076  
G01 X-2.5041 Y2.9159  
G01 X-2.5141 Y2.9159  
G01 X-2.5241 Y2.9259  
G01 X-2.5759 Y2.9259  
G01 X-2.5859 Y2.9159  
G01 X-2.6141 Y2.9159  
G01 X-2.6341 Y2.9359  
G01 X-2.6341 Y2.9641  
G01 X-2.6141 Y2.9841  
G01 X-2.5859 Y2.9841  
G01 X-2.5759 Y2.9741  
G01 X-2.5241 Y2.9741  
G01 X-2.5141 Y2.9841  
G01 X-2.4859 Y2.9841  
G01 X-2.4659 Y2.9641  
G01 X-2.4659 Y2.9500  
G01 X-2.4612 Y2.9454  
G01 X-2.4586 Y2.9414  
G01 X-2.4568 Y2.9370  
G01 X-2.4559 Y2.9324  
G01 X-2.4559 Y2.5200  
G01 X-2.3600 Y2.4241  
G01 X-2.2741 Y2.4241  
G01 X-2.2718 Y2.4265  
G01 X-2.2662 Y2.4303  
G01 X-2.2600 Y2.4328  
G01 X-2.2534 Y2.4341  
G01 X-2.2466 Y2.4341  
G01 X-2.2400 Y2.4328  
G01 X-2.2338 Y2.4303  
G01 X-2.2282 Y2.4265  
G00 Z0.1000  
G00 X-2.6732 Y2.4214  
G01 Z-0.0021 F10    
G01 X-2.6686 Y2.4168  F20    
G01 X-2.6648 Y2.4116  
G01 X-2.6619 Y2.4058  
G01 X-2.6599 Y2.3996  
G01 X-2.6589 Y2.3932  
G01 X-2.6589 Y2.3868  
G01 X-2.6599 Y2.3804  
G01 X-2.6619 Y2.3742  
G01 X-2.6648 Y2.3684  
G01 X-2.6686 Y2.3632  
G01 X-2.6732 Y2.3586  
G01 X-2.6784 Y2.3548  
G01 X-2.6842 Y2.3519  
G01 X-2.6904 Y2.3499  
G01 X-2.6968 Y2.3489  
G01 X-2.7032 Y2.3489  
G01 X-2.7096 Y2.3499  
G01 X-2.7158 Y2.3519  
G01 X-2.7216 Y2.3548  
G01 X-2.7268 Y2.3586  
G01 X-2.7314 Y2.3632  
G01 X-2.7333 Y2.3659  
G01 X-2.9159 Y2.3659  
G01 X-2.9159 Y2.3033  
G01 X-2.9132 Y2.3014  
G01 X-2.9086 Y2.2968  
G01 X-2.9048 Y2.2916  
G01 X-2.9019 Y2.2858  
G01 X-2.8999 Y2.2796  
G01 X-2.8989 Y2.2732  
G01 X-2.8989 Y2.2668  
G01 X-2.8999 Y2.2604  
G01 X-2.9019 Y2.2542  
G01 X-2.9048 Y2.2484  
G01 X-2.9086 Y2.2432  
G01 X-2.9132 Y2.2386  
G01 X-2.9184 Y2.2348  
G01 X-2.9242 Y2.2319  
G01 X-2.9304 Y2.2299  
G01 X-2.9368 Y2.2289  
G01 X-2.9432 Y2.2289  
G01 X-2.9496 Y2.2299  
G01 X-2.9558 Y2.2319  
G01 X-2.9616 Y2.2348  
G01 X-2.9668 Y2.2386  
G01 X-2.9714 Y2.2432  
G01 X-2.9752 Y2.2484  
G01 X-2.9781 Y2.2542  
G01 X-2.9801 Y2.2604  
G01 X-2.9811 Y2.2668  
G01 X-2.9811 Y2.2732  
G01 X-2.9801 Y2.2796  
G01 X-2.9781 Y2.2858  
G01 X-2.9752 Y2.2916  
G01 X-2.9714 Y2.2968  
G01 X-2.9668 Y2.3014  
G01 X-2.9641 Y2.3033  
G01 X-2.9641 Y2.3800  
G01 X-3.0688 Y2.4846  
G01 X-3.0714 Y2.4886  
G01 X-3.0732 Y2.4930  
G01 X-3.0741 Y2.4976  
G01 X-3.0741 Y2.5259  
G01 X-3.0765 Y2.5282  
G01 X-3.0803 Y2.5338  
G01 X-3.0828 Y2.5400  
G01 X-3.0841 Y2.5466  
G01 X-3.0841 Y2.5534  
G01 X-3.0828 Y2.5600  
G01 X-3.0803 Y2.5662  
G01 X-3.0765 Y2.5718  
G01 X-3.0718 Y2.5765  
G01 X-3.0662 Y2.5803  
G01 X-3.0600 Y2.5828  
G01 X-3.0534 Y2.5841  
G01 X-3.0466 Y2.5841  
G01 X-3.0400 Y2.5828  
G01 X-3.0338 Y2.5803  
G01 X-3.0282 Y2.5765  
G01 X-3.0235 Y2.5718  
G01 X-3.0197 Y2.5662  
G01 X-3.0172 Y2.5600  
G01 X-3.0159 Y2.5534  
G01 X-3.0159 Y2.5466  
G01 X-3.0172 Y2.5400  
G01 X-3.0197 Y2.5338  
G01 X-3.0235 Y2.5282  
G01 X-3.0259 Y2.5259  
G01 X-3.0259 Y2.5100  
G01 X-2.9300 Y2.4141  
G01 X-2.7333 Y2.4141  
G01 X-2.7314 Y2.4168  
G01 X-2.7268 Y2.4214  
G01 X-2.7216 Y2.4252  
G01 X-2.7158 Y2.4281  
G01 X-2.7096 Y2.4301  
G01 X-2.7032 Y2.4311  
G01 X-2.6968 Y2.4311  
G01 X-2.6904 Y2.4301  
G01 X-2.6842 Y2.4281  
G01 X-2.6784 Y2.4252  
G01 X-2.6732 Y2.4214  
G00 Z0.1000  
G00 X-2.8159 Y2.5359  
G01 Z-0.0021 F10    
G01 X-2.8359 Y2.5159  F20    
G01 X-2.8641 Y2.5159  
G01 X-2.8841 Y2.5359  
G01 X-2.8841 Y2.5500  
G01 X-2.9200 Y2.5859  
G01 X-3.0800 Y2.5859  
G01 X-3.1159 Y2.5500  
G01 X-3.1159 Y2.5466  
G01 X-3.1172 Y2.5400  
G01 X-3.1197 Y2.5338  
G01 X-3.1235 Y2.5282  
G01 X-3.1282 Y2.5235  
G01 X-3.1338 Y2.5197  
G01 X-3.1400 Y2.5172  
G01 X-3.1466 Y2.5159  
G01 X-3.1534 Y2.5159  
G01 X-3.1600 Y2.5172  
G01 X-3.1662 Y2.5197  
G01 X-3.1718 Y2.5235  
G01 X-3.1765 Y2.5282  
G01 X-3.1803 Y2.5338  
G01 X-3.1828 Y2.5400  
G01 X-3.1841 Y2.5466  
G01 X-3.1841 Y2.5534  
G01 X-3.1828 Y2.5600  
G01 X-3.1803 Y2.5662  
G01 X-3.1765 Y2.5718  
G01 X-3.1718 Y2.5765  
G01 X-3.1662 Y2.5803  
G01 X-3.1600 Y2.5828  
G01 X-3.1534 Y2.5841  
G01 X-3.1500 Y2.5841  
G01 X-3.1054 Y2.6288  
G01 X-3.1014 Y2.6314  
G01 X-3.0970 Y2.6332  
G01 X-3.0924 Y2.6341  
G01 X-2.9076 Y2.6341  
G01 X-2.9030 Y2.6332  
G01 X-2.8986 Y2.6314  
G01 X-2.8946 Y2.6288  
G01 X-2.8912 Y2.6254  
G01 X-2.8500 Y2.5841  
G01 X-2.8359 Y2.5841  
G01 X-2.8159 Y2.5641  
G01 X-2.8159 Y2.5359  
G00 Z0.1000  
G00 X-2.8359 Y2.1841  
G01 Z-0.0021 F10    
G01 X-2.8259 Y2.1741  F20    
G01 X-2.7791 Y2.1741  
G01 X-2.7740 Y2.1792  
G01 X-2.7678 Y2.1834  
G01 X-2.7610 Y2.1862  
G01 X-2.7537 Y2.1876  
G01 X-2.7463 Y2.1876  
G01 X-2.7390 Y2.1862  
G01 X-2.7322 Y2.1834  
G01 X-2.7260 Y2.1792  
G01 X-2.7208 Y2.1740  
G01 X-2.7166 Y2.1678  
G01 X-2.7138 Y2.1610  
G01 X-2.7124 Y2.1537  
G01 X-2.7124 Y2.1463  
G01 X-2.7138 Y2.1390  
G01 X-2.7166 Y2.1322  
G01 X-2.7208 Y2.1260  
G01 X-2.7260 Y2.1208  
G01 X-2.7322 Y2.1166  
G01 X-2.7390 Y2.1138  
G01 X-2.7463 Y2.1124  
G01 X-2.7537 Y2.1124  
G01 X-2.7610 Y2.1138  
G01 X-2.7678 Y2.1166  
G01 X-2.7740 Y2.1208  
G01 X-2.7791 Y2.1259  
G01 X-2.8259 Y2.1259  
G01 X-2.8359 Y2.1159  
G01 X-2.8641 Y2.1159  
G01 X-2.8841 Y2.1359  
G01 X-2.8841 Y2.1641  
G01 X-2.8641 Y2.1841  
G01 X-2.8359 Y2.1841  
G00 Z0.1000  
G00 X-3.0359 Y2.1441  
G01 Z-0.0021 F10    
G01 X-3.0159 Y2.1241  F20    
G01 X-3.0159 Y2.0959  
G01 X-3.0359 Y2.0759  
G01 X-3.0431 Y2.0759  
G01 X-3.0859 Y2.0087  
G01 X-3.0859 Y1.9859  
G01 X-3.1059 Y1.9659  
G01 X-3.1341 Y1.9659  
G01 X-3.1541 Y1.9859  
G01 X-3.1541 Y2.0141  
G01 X-3.1486 Y2.0197  
G01 X-3.1732 Y2.1429  
G01 X-3.1737 Y2.1453  
G01 X-3.1741 Y2.1476  
G01 X-3.1741 Y2.1500  
G01 X-3.1742 Y2.1524  
G01 X-3.1741 Y2.2259  
G01 X-3.1765 Y2.2282  
G01 X-3.1803 Y2.2338  
G01 X-3.1828 Y2.2400  
G01 X-3.1841 Y2.2466  
G01 X-3.1841 Y2.2534  
G01 X-3.1828 Y2.2600  
G01 X-3.1803 Y2.2662  
G01 X-3.1765 Y2.2718  
G01 X-3.1718 Y2.2765  
G01 X-3.1662 Y2.2803  
G01 X-3.1600 Y2.2828  
G01 X-3.1534 Y2.2841  
G01 X-3.1466 Y2.2841  
G01 X-3.1400 Y2.2828  
G01 X-3.1338 Y2.2803  
G01 X-3.1282 Y2.2765  
G01 X-3.1235 Y2.2718  
G01 X-3.1197 Y2.2662  
G01 X-3.1172 Y2.2600  
G01 X-3.1159 Y2.2534  
G01 X-3.1159 Y2.2466  
G01 X-3.1172 Y2.2400  
G01 X-3.1197 Y2.2338  
G01 X-3.1235 Y2.2282  
G01 X-3.1259 Y2.2259  
G01 X-3.1259 Y2.1524  
G01 X-3.1081 Y2.0637  
G01 X-3.0841 Y2.1013  
G01 X-3.0841 Y2.1241  
G01 X-3.0641 Y2.1441  
G01 X-3.0359 Y2.1441  
G00 Z0.1000  
G00 X-3.0500 Y2.2159  
G01 Z-0.0021 F10    
G01 X-3.0534 Y2.2159  F20    
G01 X-3.0600 Y2.2172  
G01 X-3.0662 Y2.2197  
G01 X-3.0718 Y2.2235  
G01 X-3.0765 Y2.2282  
G01 X-3.0803 Y2.2338  
G01 X-3.0828 Y2.2400  
G01 X-3.0841 Y2.2466  
G01 X-3.0841 Y2.2534  
G01 X-3.0828 Y2.2600  
G01 X-3.0803 Y2.2662  
G01 X-3.0765 Y2.2718  
G01 X-3.0718 Y2.2765  
G01 X-3.0662 Y2.2803  
G01 X-3.0600 Y2.2828  
G01 X-3.0534 Y2.2841  
G01 X-3.0466 Y2.2841  
G01 X-3.0400 Y2.2828  
G01 X-3.0338 Y2.2803  
G01 X-3.0282 Y2.2765  
G01 X-3.0235 Y2.2718  
G01 X-3.0197 Y2.2662  
G01 X-3.0172 Y2.2600  
G01 X-3.0159 Y2.2534  
G01 X-3.0159 Y2.2500  
G01 X-2.7535 Y1.9876  
G01 X-2.7463 Y1.9876  
G01 X-2.7390 Y1.9862  
G01 X-2.7322 Y1.9834  
G01 X-2.7260 Y1.9792  
G01 X-2.7208 Y1.9740  
G01 X-2.7166 Y1.9678  
G01 X-2.7138 Y1.9610  
G01 X-2.7124 Y1.9537  
G01 X-2.7124 Y1.9463  
G01 X-2.7138 Y1.9390  
G01 X-2.7166 Y1.9322  
G01 X-2.7208 Y1.9260  
G01 X-2.7260 Y1.9208  
G01 X-2.7322 Y1.9166  
G01 X-2.7390 Y1.9138  
G01 X-2.7463 Y1.9124  
G01 X-2.7537 Y1.9124  
G01 X-2.7610 Y1.9138  
G01 X-2.7678 Y1.9166  
G01 X-2.7740 Y1.9208  
G01 X-2.7792 Y1.9260  
G01 X-2.7834 Y1.9322  
G01 X-2.7862 Y1.9390  
G01 X-2.7876 Y1.9463  
G01 X-2.7876 Y1.9535  
G01 X-3.0500 Y2.2159  
G00 Z0.1000  
G00 X-3.2259 Y2.2076  
G01 Z-0.0021 F10    
G01 X-3.2268 Y2.2030  F20    
G01 X-3.2286 Y2.1986  
G01 X-3.2312 Y2.1946  
G01 X-3.3312 Y2.0946  
G01 X-3.3346 Y2.0912  
G01 X-3.3386 Y2.0886  
G01 X-3.3430 Y2.0868  
G01 X-3.3476 Y2.0859  
G01 X-3.4259 Y2.0859  
G01 X-3.4359 Y2.0759  
G01 X-3.4641 Y2.0759  
G01 X-3.4741 Y2.0859  
G01 X-3.5019 Y2.0859  
G01 X-3.5359 Y2.0519  
G01 X-3.5841 Y2.0519  
G01 X-3.6181 Y2.0859  
G01 X-3.6181 Y2.1341  
G01 X-3.5841 Y2.1681  
G01 X-3.5359 Y2.1681  
G01 X-3.5019 Y2.1341  
G01 X-3.4741 Y2.1341  
G01 X-3.4641 Y2.1441  
G01 X-3.4359 Y2.1441  
G01 X-3.4259 Y2.1341  
G01 X-3.3600 Y2.1341  
G01 X-3.2741 Y2.2200  
G01 X-3.2741 Y2.2259  
G01 X-3.2765 Y2.2282  
G01 X-3.2803 Y2.2338  
G01 X-3.2828 Y2.2400  
G01 X-3.2841 Y2.2466  
G01 X-3.2841 Y2.2534  
G01 X-3.2828 Y2.2600  
G01 X-3.2803 Y2.2662  
G01 X-3.2765 Y2.2718  
G01 X-3.2718 Y2.2765  
G01 X-3.2662 Y2.2803  
G01 X-3.2600 Y2.2828  
G01 X-3.2534 Y2.2841  
G01 X-3.2466 Y2.2841  
G01 X-3.2400 Y2.2828  
G01 X-3.2338 Y2.2803  
G01 X-3.2282 Y2.2765  
G01 X-3.2235 Y2.2718  
G01 X-3.2197 Y2.2662  
G01 X-3.2172 Y2.2600  
G01 X-3.2159 Y2.2534  
G01 X-3.2159 Y2.2466  
G01 X-3.2172 Y2.2400  
G01 X-3.2197 Y2.2338  
G01 X-3.2235 Y2.2282  
G01 X-3.2259 Y2.2259  
G01 X-3.2259 Y2.2076  
G00 Z0.1000  
G00 X-3.2282 Y2.5235  
G01 Z-0.0021 F10    
G01 X-3.2338 Y2.5197  F20    
G01 X-3.2400 Y2.5172  
G01 X-3.2466 Y2.5159  
G01 X-3.2534 Y2.5159  
G01 X-3.2600 Y2.5172  
G01 X-3.2662 Y2.5197  
G01 X-3.2718 Y2.5235  
G01 X-3.2765 Y2.5282  
G01 X-3.2803 Y2.5338  
G01 X-3.2828 Y2.5400  
G01 X-3.2841 Y2.5466  
G01 X-3.2841 Y2.5534  
G01 X-3.2837 Y2.5555  
G01 X-3.2841 Y2.5576  
G01 X-3.2841 Y2.7624  
G01 X-3.2832 Y2.7670  
G01 X-3.2814 Y2.7714  
G01 X-3.2788 Y2.7754  
G01 X-3.2754 Y2.7788  
G01 X-3.2354 Y2.8188  
G01 X-3.2314 Y2.8214  
G01 X-3.2270 Y2.8232  
G01 X-3.2224 Y2.8241  
G01 X-3.1001 Y2.8241  
G01 X-3.0978 Y2.8265  
G01 X-3.0922 Y2.8303  
G01 X-3.0860 Y2.8328  
G01 X-3.0794 Y2.8341  
G01 X-3.0741 Y2.8341  
G01 X-3.0741 Y2.8759  
G01 X-3.0841 Y2.8859  
G01 X-3.0841 Y2.9141  
G01 X-3.0641 Y2.9341  
G01 X-3.0359 Y2.9341  
G01 X-3.0159 Y2.9141  
G01 X-3.0159 Y2.8859  
G01 X-3.0259 Y2.8759  
G01 X-3.0259 Y2.8341  
G01 X-3.0206 Y2.8341  
G01 X-3.0140 Y2.8328  
G01 X-3.0078 Y2.8303  
G01 X-3.0022 Y2.8265  
G01 X-2.9975 Y2.8218  
G01 X-2.9937 Y2.8162  
G01 X-2.9912 Y2.8100  
G01 X-2.9899 Y2.8034  
G01 X-2.9899 Y2.7966  
G01 X-2.9912 Y2.7900  
G01 X-2.9937 Y2.7838  
G01 X-2.9975 Y2.7782  
G01 X-3.0022 Y2.7735  
G01 X-3.0078 Y2.7697  
G01 X-3.0140 Y2.7672  
G01 X-3.0206 Y2.7659  
G01 X-3.0794 Y2.7659  
G01 X-3.0860 Y2.7672  
G01 X-3.0922 Y2.7697  
G01 X-3.0978 Y2.7735  
G01 X-3.1001 Y2.7759  
G01 X-3.2100 Y2.7759  
G01 X-3.2359 Y2.7500  
G01 X-3.2359 Y2.5811  
G01 X-3.2338 Y2.5803  
G01 X-3.2282 Y2.5765  
G01 X-3.2235 Y2.5718  
G01 X-3.2197 Y2.5662  
G01 X-3.2172 Y2.5600  
G01 X-3.2159 Y2.5534  
G01 X-3.2159 Y2.5466  
G01 X-3.2172 Y2.5400  
G01 X-3.2197 Y2.5338  
G01 X-3.2235 Y2.5282  
G01 X-3.2282 Y2.5235  
G00 Z0.1000  
G00 X-3.3235 Y2.5282  
G01 Z-0.0021 F10    
G01 X-3.3282 Y2.5235  F20    
G01 X-3.3338 Y2.5197  
G01 X-3.3400 Y2.5172  
G01 X-3.3466 Y2.5159  
G01 X-3.3534 Y2.5159  
G01 X-3.3600 Y2.5172  
G01 X-3.3662 Y2.5197  
G01 X-3.3718 Y2.5235  
G01 X-3.3741 Y2.5259  
G01 X-3.4400 Y2.5259  
G01 X-3.4419 Y2.5240  
G01 X-3.4419 Y2.4759  
